camera/src/main/assets/lut_vivid.cube
# SPECTRA Vivid
LUT_3D_SIZE 33
0.011765 0.000000 0.000000
0.011703 0.000000 0.011590
0.011632 0.000000 0.034153
0.011551 0.000000 0.059635
0.011462 0.000000 0.087829
0.011364 0.000000 0.118527
0.011260 0.000000 0.151518
0.011149 0.000000 0.186596
0.011031 0.000000 0.223551
0.010909 0.000000 0.262174
0.010782 0.000000 0.302258
0.010651 0.000000 0.343593
0.010517 0.000000 0.385971
0.010380 0.000000 0.429184
0.010241 0.000000 0.473022
0.010101 0.000000 0.517278
0.009960 0.000000 0.561742
0.009819 0.000000 0.606206
0.009679 0.000000 0.650461
0.009540 0.000000 0.694300
0.009403 0.000000 0.737512
0.009268 0.000000 0.779890
0.009137 0.000000 0.821226
0.009010 0.000000 0.861309
0.008888 0.000000 0.899933
0.008771 0.000000 0.936888
0.008660 0.000000 0.971965
0.008555 0.000000 1.000000
0.008458 0.000000 1.000000
0.008369 0.000000 1.000000
0.008288 0.000000 1.000000
0.008216 0.000000 1.000000
0.008155 0.000000 1.000000
0.011155 0.017788 0.000000
0.011093 0.017603 0.009760
0.011022 0.017389 0.032323
0.010941 0.017147 0.057805
0.010851 0.016879 0.085999
0.010754 0.016587 0.116696
0.010650 0.016273 0.149688
0.010538 0.015940 0.184766
0.010421 0.015588 0.221721
0.010299 0.015221 0.260344
0.010172 0.014840 0.300428
0.010041 0.014447 0.341763
0.009907 0.014044 0.384141
0.009770 0.013633 0.427354
0.009631 0.013217 0.471192
0.009491 0.012796 0.515448
0.009350 0.012373 0.559912
0.009209 0.011950 0.604376
0.009069 0.011530 0.648631
0.008930 0.011113 0.692470
0.008793 0.010702 0.735682
0.008658 0.010299 0.778060
0.008527 0.009906 0.819396
0.008400 0.009525 0.859479
0.008278 0.009158 0.898103
0.008161 0.008807 0.935058
0.008050 0.008473 0.970135
0.007945 0.008159 1.000000
0.007848 0.007868 1.000000
0.007759 0.007600 1.000000
0.007678 0.007357 1.000000
0.007606 0.007143 1.000000
0.007545 0.006958 1.000000
0.010446 0.038440 0.000000
0.010385 0.038255 0.007635
0.010313 0.038041 0.030198
0.010233 0.037799 0.055680
0.010143 0.037531 0.083874
0.010046 0.037239 0.114572
0.009941 0.036925 0.147563
0.009830 0.036592 0.182641
0.009713 0.036240 0.219596
0.009591 0.035873 0.258219
0.009464 0.035492 0.298303
0.009333 0.035099 0.339638
0.009198 0.034696 0.382017
0.009061 0.034285 0.425229
0.008923 0.033869 0.469067
0.008782 0.033448 0.513323
0.008641 0.033025 0.557787
0.008500 0.032602 0.602251
0.008360 0.032182 0.646506
0.008221 0.031765 0.690345
0.008084 0.031354 0.733557
0.007950 0.030951 0.775936
0.007819 0.030558 0.817271
0.007692 0.030177 0.857354
0.007570 0.029810 0.895978
0.007453 0.029459 0.932933
0.007341 0.029125 0.968011
0.007237 0.028812 1.000000
0.007140 0.028520 1.000000
0.007050 0.028252 1.000000
0.006969 0.028009 1.000000
0.006898 0.027795 1.000000
0.006836 0.027610 1.000000
0.009646 0.061765 0.000000
0.009585 0.061580 0.005236
0.009513 0.061366 0.027798
0.009433 0.061124 0.053280
0.009343 0.060856 0.081475
0.009246 0.060564 0.112172
0.009141 0.060250 0.145164
0.009030 0.059917 0.180241
0.008913 0.059565 0.217196
0.008791 0.059198 0.255820
0.008664 0.058817 0.295903
0.008533 0.058424 0.337239
0.008398 0.058021 0.379617
0.008262 0.057610 0.422829
0.008123 0.057194 0.466668
0.007982 0.056773 0.510923
0.007841 0.056350 0.555387
0.007701 0.055927 0.599851
0.007560 0.055507 0.644107
0.007421 0.055090 0.687945
0.007284 0.054679 0.731158
0.007150 0.054276 0.773536
0.007019 0.053883 0.814871
0.006892 0.053502 0.854955
0.006770 0.053135 0.893578
0.006653 0.052784 0.930533
0.006541 0.052450 0.965611
0.006437 0.052137 0.998602
0.006340 0.051845 1.000000
0.006250 0.051577 1.000000
0.006170 0.051334 1.000000
0.006098 0.051120 1.000000
0.006036 0.050935 1.000000
0.008761 0.087572 0.000000
0.008700 0.087387 0.002580
0.008628 0.087173 0.025143
0.008548 0.086931 0.050625
0.008458 0.086663 0.078819
0.008361 0.086371 0.109517
0.008256 0.086057 0.142508
0.008145 0.085724 0.177586
0.008028 0.085372 0.214541
0.007906 0.085005 0.253165
0.007779 0.084624 0.293248
0.007648 0.084231 0.334583
0.007513 0.083828 0.376962
0.007376 0.083417 0.420174
0.007238 0.083001 0.464012
0.007097 0.082580 0.508268
0.006956 0.082157 0.552732
0.006816 0.081734 0.597196
0.006675 0.081314 0.641452
0.006536 0.080897 0.685290
0.006399 0.080486 0.728502
0.006265 0.080083 0.770881
0.006134 0.079690 0.812216
0.006007 0.079309 0.852300
0.005885 0.078942 0.890923
0.005768 0.078591 0.927878
0.005656 0.078257 0.962956
0.005552 0.077944 0.995947
0.005455 0.077652 1.000000
0.005365 0.077384 1.000000
0.005285 0.077141 1.000000
0.005213 0.076927 1.000000
0.005151 0.076742 1.000000
0.007798 0.115670 0.000000
0.007736 0.115486 0.000000
0.007665 0.115271 0.022252
0.007584 0.115029 0.047734
0.007495 0.114761 0.075929
0.007397 0.114469 0.106626
0.007293 0.114155 0.139618
0.007182 0.113822 0.174695
0.007065 0.113471 0.211650
0.006942 0.113103 0.250274
0.006815 0.112722 0.290357
0.006684 0.112329 0.331693
0.006550 0.111926 0.374071
0.006413 0.111516 0.417283
0.006274 0.111099 0.461122
0.006134 0.110678 0.505377
0.005993 0.110255 0.549841
0.005852 0.109833 0.594305
0.005712 0.109412 0.638561
0.005573 0.108995 0.682399
0.005436 0.108584 0.725612
0.005301 0.108181 0.767990
0.005171 0.107788 0.809325
0.005043 0.107407 0.849409
0.004921 0.107040 0.888032
0.004804 0.106689 0.924987
0.004693 0.106355 0.960065
0.004588 0.106042 0.993056
0.004491 0.105750 1.000000
0.004402 0.105482 1.000000
0.004321 0.105240 1.000000
0.004249 0.105025 1.000000
0.004188 0.104840 1.000000
0.006762 0.145869 0.000000
0.006701 0.145684 0.000000
0.006629 0.145470 0.019145
0.006548 0.145227 0.044627
0.006459 0.144959 0.072822
0.006362 0.144667 0.103519
0.006257 0.144354 0.136511
0.006146 0.144020 0.171588
0.006029 0.143669 0.208543
0.005906 0.143302 0.247167
0.005779 0.142921 0.287250
0.005648 0.142528 0.328586
0.005514 0.142125 0.370964
0.005377 0.141714 0.414176
0.005238 0.141297 0.458015
0.005098 0.140877 0.502270
0.004957 0.140454 0.546734
0.004816 0.140031 0.591198
0.004676 0.139610 0.635454
0.004537 0.139194 0.679292
0.004400 0.138783 0.722505
0.004266 0.138380 0.764883
0.004135 0.137987 0.806218
0.004008 0.137606 0.846302
0.003885 0.137239 0.884925
0.003768 0.136887 0.921880
0.003657 0.136554 0.956958
0.003553 0.136240 0.989949
0.003455 0.135948 1.000000
0.003366 0.135680 1.000000
0.003285 0.135438 1.000000
0.003214 0.135224 1.000000
0.003152 0.135039 1.000000
0.005661 0.177976 0.000000
0.005599 0.177792 0.000000
0.005528 0.177577 0.015842
0.005447 0.177335 0.041324
0.005358 0.177067 0.069518
0.005261 0.176775 0.100216
0.005156 0.176461 0.133207
0.005045 0.176128 0.168285
0.004928 0.175777 0.205240
0.004805 0.175409 0.243863
0.004678 0.175028 0.283947
0.004547 0.174635 0.325282
0.004413 0.174233 0.367660
0.004276 0.173822 0.410873
0.004137 0.173405 0.454711
0.003997 0.172984 0.498967
0.003856 0.172561 0.543431
0.003715 0.172139 0.587895
0.003575 0.171718 0.632150
0.003436 0.171301 0.675989
0.003299 0.170890 0.719201
0.003165 0.170488 0.761579
0.003034 0.170095 0.802915
0.002907 0.169714 0.842998
0.002784 0.169346 0.881622
0.002667 0.168995 0.918577
0.002556 0.168662 0.953654
0.002451 0.168348 0.986646
0.002354 0.168056 1.000000
0.002265 0.167788 1.000000
0.002184 0.167546 1.000000
0.002113 0.167331 1.000000
0.002051 0.167146 1.000000
0.004501 0.211803 0.000000
0.004439 0.211618 0.000000
0.004368 0.211403 0.012361
0.004287 0.211161 0.037844
0.004198 0.210893 0.066038
0.004100 0.210601 0.096735
0.003996 0.210287 0.129727
0.003885 0.209954 0.164805
0.003768 0.209603 0.201760
0.003645 0.209235 0.240383
0.003518 0.208854 0.280467
0.003387 0.208461 0.321802
0.003253 0.208059 0.364180
0.003116 0.207648 0.407393
0.002977 0.207231 0.451231
0.002837 0.206810 0.495487
0.002696 0.206388 0.539951
0.002555 0.205965 0.584415
0.002415 0.205544 0.628670
0.002276 0.205127 0.672508
0.002139 0.204716 0.715721
0.002005 0.204314 0.758099
0.001874 0.203921 0.799434
0.001747 0.203540 0.839518
0.001624 0.203172 0.878142
0.001507 0.202821 0.915097
0.001396 0.202488 0.950174
0.001291 0.202174 0.983166
0.001194 0.201882 1.000000
0.001105 0.201614 1.000000
0.001024 0.201372 1.000000
0.000953 0.201157 1.000000
0.000891 0.200972 1.000000
0.003289 0.247156 0.000000
0.003227 0.246971 0.000000
0.003155 0.246757 0.008724
0.003075 0.246514 0.034207
0.002985 0.246246 0.062401
0.002888 0.245955 0.093098
0.002783 0.245641 0.126090
0.002672 0.245307 0.161167
0.002555 0.244956 0.198122
0.002433 0.244589 0.236746
0.002306 0.244208 0.276829
0.002175 0.243815 0.318165
0.002041 0.243412 0.360543
0.001904 0.243001 0.403755
0.001765 0.242584 0.447594
0.001624 0.242164 0.491849
0.001484 0.241741 0.536313
0.001343 0.241318 0.580777
0.001202 0.240898 0.625033
0.001063 0.240481 0.668871
0.000927 0.240070 0.712084
0.000792 0.239667 0.754462
0.000661 0.239274 0.795797
0.000534 0.238893 0.835881
0.000412 0.238526 0.874504
0.000295 0.238174 0.911459
0.000184 0.237841 0.946537
0.000079 0.237527 0.979529
0.000000 0.237236 1.000000
0.000000 0.236967 1.000000
0.000000 0.236725 1.000000
0.000000 0.236511 1.000000
0.000000 0.236326 1.000000
0.002030 0.283846 0.000000
0.001969 0.283661 0.000000
0.001897 0.283447 0.004949
0.001816 0.283204 0.030432
0.001727 0.282936 0.058626
0.001630 0.282645 0.089323
0.001525 0.282331 0.122315
0.001414 0.281997 0.157392
0.001297 0.281646 0.194347
0.001175 0.281279 0.232971
0.001048 0.280898 0.273055
0.000917 0.280505 0.314390
0.000782 0.280102 0.356768
0.000645 0.279691 0.399981
0.000506 0.279274 0.443819
0.000366 0.278854 0.488074
0.000225 0.278431 0.532538
0.000084 0.278008 0.577003
0.000000 0.277587 0.621258
0.000000 0.277171 0.665096
0.000000 0.276760 0.708309
0.000000 0.276357 0.750687
0.000000 0.275964 0.792022
0.000000 0.275583 0.832106
0.000000 0.275216 0.870730
0.000000 0.274864 0.907684
0.000000 0.274531 0.942762
0.000000 0.274217 0.975754
0.000000 0.273925 1.000000
0.000000 0.273657 1.000000
0.000000 0.273415 1.000000
0.000000 0.273201 1.000000
0.000000 0.273016 1.000000
0.000733 0.321681 0.000000
0.000671 0.321497 0.000000
0.000600 0.321282 0.001057
0.000519 0.321040 0.026539
0.000429 0.320772 0.054733
0.000332 0.320480 0.085430
0.000228 0.320166 0.118422
0.000116 0.319833 0.153500
0.000000 0.319482 0.190455
0.000000 0.319114 0.229078
0.000000 0.318733 0.269162
0.000000 0.318340 0.310497
0.000000 0.317937 0.352875
0.000000 0.317527 0.396088
0.000000 0.317110 0.439926
0.000000 0.316689 0.484182
0.000000 0.316266 0.528646
0.000000 0.315844 0.573110
0.000000 0.315423 0.617365
0.000000 0.315006 0.661204
0.000000 0.314595 0.704416
0.000000 0.314192 0.746794
0.000000 0.313800 0.788130
0.000000 0.313418 0.828213
0.000000 0.313051 0.866837
0.000000 0.312700 0.903792
0.000000 0.312366 0.938869
0.000000 0.312053 0.971861
0.000000 0.311761 1.000000
0.000000 0.311493 1.000000
0.000000 0.311251 1.000000
0.000000 0.311036 1.000000
0.000000 0.310851 1.000000
0.000000 0.360472 0.000000
0.000000 0.360287 0.000000
0.000000 0.360072 0.000000
0.000000 0.359830 0.022548
0.000000 0.359562 0.050742
0.000000 0.359270 0.081440
0.000000 0.358957 0.114431
0.000000 0.358623 0.149509
0.000000 0.358272 0.186464
0.000000 0.357905 0.225087
0.000000 0.357523 0.265171
0.000000 0.357130 0.306506
0.000000 0.356728 0.348884
0.000000 0.356317 0.392097
0.000000 0.355900 0.435935
0.000000 0.355479 0.480191
0.000000 0.355057 0.524655
0.000000 0.354634 0.569119
0.000000 0.354213 0.613374
0.000000 0.353796 0.657213
0.000000 0.353386 0.700425
0.000000 0.352983 0.742803
0.000000 0.352590 0.784139
0.000000 0.352209 0.824222
0.000000 0.351841 0.862846
0.000000 0.351490 0.899801
0.000000 0.351157 0.934878
0.000000 0.350843 0.967870
0.000000 0.350551 0.998567
0.000000 0.350283 1.000000
0.000000 0.350041 1.000000
0.000000 0.349826 1.000000
0.000000 0.349642 1.000000
0.000000 0.400025 0.000000
0.000000 0.399841 0.000000
0.000000 0.399626 0.000000
0.000000 0.399384 0.018479
0.000000 0.399116 0.046673
0.000000 0.398824 0.077370
0.000000 0.398510 0.110362
0.000000 0.398177 0.145439
0.000000 0.397826 0.182394
0.000000 0.397458 0.221018
0.000000 0.397077 0.261102
0.000000 0.396684 0.302437
0.000000 0.396281 0.344815
0.000000 0.395871 0.388028
0.000000 0.395454 0.431866
0.000000 0.395033 0.476121
0.000000 0.394610 0.520585
0.000000 0.394188 0.565049
0.000000 0.393767 0.609305
0.000000 0.393350 0.653143
0.000000 0.392939 0.696356
0.000000 0.392537 0.738734
0.000000 0.392144 0.780069
0.000000 0.391762 0.820153
0.000000 0.391395 0.858776
0.000000 0.391044 0.895731
0.000000 0.390710 0.930809
0.000000 0.390397 0.963801
0.000000 0.390105 0.994498
0.000000 0.389837 1.000000
0.000000 0.389595 1.000000
0.000000 0.389380 1.000000
0.000000 0.389195 1.000000
0.000000 0.440152 0.000000
0.000000 0.439967 0.000000
0.000000 0.439753 0.000000
0.000000 0.439511 0.014350
0.000000 0.439243 0.042544
0.000000 0.438951 0.073242
0.000000 0.438637 0.106233
0.000000 0.438304 0.141311
0.000000 0.437952 0.178266
0.000000 0.437585 0.216889
0.000000 0.437204 0.256973
0.000000 0.436811 0.298308
0.000000 0.436408 0.340687
0.000000 0.435997 0.383899
0.000000 0.435581 0.427737
0.000000 0.435160 0.471993
0.000000 0.434737 0.516457
0.000000 0.434314 0.560921
0.000000 0.433894 0.605176
0.000000 0.433477 0.649015
0.000000 0.433066 0.692227
0.000000 0.432663 0.734605
0.000000 0.432270 0.775941
0.000000 0.431889 0.816024
0.000000 0.431522 0.854648
0.000000 0.431171 0.891603
0.000000 0.430837 0.926680
0.000000 0.430523 0.959672
0.000000 0.430232 0.990369
0.000000 0.429964 1.000000
0.000000 0.429721 1.000000
0.000000 0.429507 1.000000
0.000000 0.429322 1.000000
0.000000 0.480661 0.000000
0.000000 0.480476 0.000000
0.000000 0.480261 0.000000
0.000000 0.480019 0.010183
0.000000 0.479751 0.038377
0.000000 0.479459 0.069074
0.000000 0.479146 0.102066
0.000000 0.478812 0.137143
0.000000 0.478461 0.174098
0.000000 0.478094 0.212722
0.000000 0.477712 0.252805
0.000000 0.477319 0.294141
0.000000 0.476917 0.336519
0.000000 0.476506 0.379731
0.000000 0.476089 0.423570
0.000000 0.475668 0.467825
0.000000 0.475246 0.512289
0.000000 0.474823 0.556753
0.000000 0.474402 0.601009
0.000000 0.473985 0.644847
0.000000 0.473575 0.688060
0.000000 0.473172 0.730438
0.000000 0.472779 0.771773
0.000000 0.472398 0.811857
0.000000 0.472030 0.850480
0.000000 0.471679 0.887435
0.000000 0.471346 0.922513
0.000000 0.471032 0.955504
0.000000 0.470740 0.986202
0.000000 0.470472 1.000000
0.000000 0.470230 1.000000
0.000000 0.470015 1.000000
0.000000 0.469831 1.000000
0.000000 0.521360 0.000000
0.000000 0.521175 0.000000
0.000000 0.520961 0.000000
0.000000 0.520718 0.005995
0.000000 0.520450 0.034189
0.000000 0.520159 0.064887
0.000000 0.519845 0.097878
0.000000 0.519511 0.132956
0.000000 0.519160 0.169911
0.000000 0.518793 0.208534
0.000000 0.518412 0.248618
0.000000 0.518019 0.289953
0.000000 0.517616 0.332331
0.000000 0.517205 0.375544
0.000000 0.516788 0.419382
0.000000 0.516368 0.463638
0.000000 0.515945 0.508102
0.000000 0.515522 0.552566
0.000000 0.515102 0.596821
0.000000 0.514685 0.640660
0.000000 0.514274 0.683872
0.000000 0.513871 0.726250
0.000000 0.513478 0.767586
0.000000 0.513097 0.807669
0.000000 0.512730 0.846293
0.000000 0.512379 0.883248
0.000000 0.512045 0.918325
0.000000 0.511731 0.951317
0.000000 0.511440 0.982014
0.000000 0.511172 1.000000
0.000000 0.510929 1.000000
0.000000 0.510715 1.000000
0.000000 0.510530 1.000000
0.000000 0.562059 0.000000
0.000000 0.561875 0.000000
0.000000 0.561660 0.000000
0.000000 0.561418 0.001808
0.000000 0.561150 0.030002
0.000000 0.560858 0.060699
0.000000 0.560544 0.093691
0.000000 0.560211 0.128769
0.000000 0.559860 0.165723
0.000000 0.559492 0.204347
0.000000 0.559111 0.244431
0.000000 0.558718 0.285766
0.000000 0.558315 0.328144
0.000000 0.557905 0.371357
0.000000 0.557488 0.415195
0.000000 0.557067 0.459450
0.000000 0.556644 0.503915
0.000000 0.556222 0.548379
0.000000 0.555801 0.592634
0.000000 0.555384 0.636472
0.000000 0.554973 0.679685
0.000000 0.554571 0.722063
0.000000 0.554178 0.763398
0.000000 0.553796 0.803482
0.000000 0.553429 0.842106
0.000000 0.553078 0.879060
0.000000 0.552744 0.914138
0.000000 0.552431 0.947130
0.000000 0.552139 0.977827
0.000000 0.551871 1.000000
0.000000 0.551629 1.000000
0.000000 0.551414 1.000000
0.000000 0.551229 1.000000
0.000000 0.602568 0.000000
0.000000 0.602383 0.000000
0.000000 0.602169 0.000000
0.000000 0.601926 0.000000
0.000000 0.601658 0.025834
0.000000 0.601367 0.056532
0.000000 0.601053 0.089523
0.000000 0.600719 0.124601
0.000000 0.600368 0.161556
0.000000 0.600001 0.200179
0.000000 0.599620 0.240263
0.000000 0.599227 0.281598
0.000000 0.598824 0.323976
0.000000 0.598413 0.367189
0.000000 0.597996 0.411027
0.000000 0.597576 0.455283
0.000000 0.597153 0.499747
0.000000 0.596730 0.544211
0.000000 0.596309 0.588466
0.000000 0.595893 0.632305
0.000000 0.595482 0.675517
0.000000 0.595079 0.717895
0.000000 0.594686 0.759231
0.000000 0.594305 0.799314
0.000000 0.593938 0.837938
0.000000 0.593586 0.874893
0.000000 0.593253 0.909970
0.000000 0.592939 0.942962
0.000000 0.592647 0.973659
0.000000 0.592379 1.000000
0.000000 0.592137 1.000000
0.000000 0.591923 1.000000
0.000000 0.591738 1.000000
0.000000 0.642695 0.000000
0.000000 0.642510 0.000000
0.000000 0.642295 0.000000
0.000000 0.642053 0.000000
0.000000 0.641785 0.021706
0.000000 0.641493 0.052403
0.000000 0.641180 0.085395
0.000000 0.640846 0.120472
0.000000 0.640495 0.157427
0.000000 0.640128 0.196051
0.000000 0.639746 0.236135
0.000000 0.639353 0.277470
0.000000 0.638951 0.319848
0.000000 0.638540 0.363061
0.000000 0.638123 0.406899
0.000000 0.637702 0.451154
0.000000 0.637280 0.495618
0.000000 0.636857 0.540082
0.000000 0.636436 0.584338
0.000000 0.636019 0.628176
0.000000 0.635609 0.671389
0.000000 0.635206 0.713767
0.000000 0.634813 0.755102
0.000000 0.634432 0.795186
0.000000 0.634064 0.833809
0.000000 0.633713 0.870764
0.000000 0.633380 0.905842
0.000000 0.633066 0.938834
0.000000 0.632774 0.969531
0.000000 0.632506 0.997725
0.000000 0.632264 1.000000
0.000000 0.632049 1.000000
0.000000 0.631865 1.000000
0.000000 0.682248 0.000000
0.000000 0.682064 0.000000
0.000000 0.681849 0.000000
0.000000 0.681607 0.000000
0.000000 0.681339 0.017636
0.000000 0.681047 0.048334
0.000000 0.680733 0.081325
0.000000 0.680400 0.116403
0.000000 0.680049 0.153358
0.000000 0.679681 0.191981
0.000000 0.679300 0.232065
0.000000 0.678907 0.273400
0.000000 0.678504 0.315779
0.000000 0.678094 0.358991
0.000000 0.677677 0.402829
0.000000 0.677256 0.447085
0.000000 0.676833 0.491549
0.000000 0.676411 0.536013
0.000000 0.675990 0.580268
0.000000 0.675573 0.624107
0.000000 0.675162 0.667319
0.000000 0.674760 0.709697
0.000000 0.674367 0.751033
0.000000 0.673985 0.791116
0.000000 0.673618 0.829740
0.000000 0.673267 0.866695
0.000000 0.672933 0.901772
0.000000 0.672620 0.934764
0.000000 0.672328 0.965461
0.000000 0.672060 0.993656
0.000000 0.671818 1.000000
0.000000 0.671603 1.000000
0.000000 0.671418 1.000000
0.000000 0.721039 0.000000
0.000000 0.720854 0.000000
0.000000 0.720639 0.000000
0.000000 0.720397 0.000000
0.000000 0.720129 0.013645
0.000000 0.719837 0.044343
0.000000 0.719524 0.077334
0.000000 0.719190 0.112412
0.000000 0.718839 0.149367
0.000000 0.718472 0.187990
0.000000 0.718090 0.228074
0.000000 0.717698 0.269409
0.000000 0.717295 0.311788
0.000000 0.716884 0.355000
0.000000 0.716467 0.398838
0.000000 0.716046 0.443094
0.000000 0.715624 0.487558
0.000000 0.715201 0.532022
0.000000 0.714780 0.576278
0.000000 0.714363 0.620116
0.000000 0.713953 0.663328
0.000000 0.713550 0.705707
0.000000 0.713157 0.747042
0.000000 0.712776 0.787125
0.000000 0.712408 0.825749
0.000000 0.712057 0.862704
0.000000 0.711724 0.897782
0.000000 0.711410 0.930773
0.000000 0.711118 0.961470
0.000000 0.710850 0.989665
0.000000 0.710608 1.000000
0.000000 0.710393 1.000000
0.000000 0.710209 1.000000
0.000000 0.758874 0.000000
0.000000 0.758689 0.000000
0.000000 0.758475 0.000000
0.000000 0.758233 0.000000
0.000000 0.757965 0.009753
0.000000 0.757673 0.040450
0.000000 0.757359 0.073442
0.000000 0.757026 0.108519
0.000000 0.756674 0.145474
0.000000 0.756307 0.184098
0.000000 0.755926 0.224181
0.000000 0.755533 0.265517
0.000000 0.755130 0.307895
0.000000 0.754719 0.351107
0.000000 0.754303 0.394946
0.000000 0.753882 0.439201
0.000000 0.753459 0.483665
0.000000 0.753036 0.528129
0.000000 0.752616 0.572385
0.000000 0.752199 0.616223
0.000000 0.751788 0.659436
0.000000 0.751385 0.701814
0.000000 0.750992 0.743149
0.000000 0.750611 0.783233
0.000000 0.750244 0.821856
0.000000 0.749893 0.858811
0.000000 0.749559 0.893889
0.000000 0.749245 0.926881
0.000000 0.748954 0.957578
0.000000 0.748686 0.985772
0.000000 0.748443 1.000000
0.000000 0.748229 1.000000
0.000000 0.748044 1.000000
0.000000 0.795564 0.000000
0.000000 0.795379 0.000000
0.000000 0.795165 0.000000
0.000000 0.794923 0.000000
0.000000 0.794654 0.005978
0.000000 0.794363 0.036675
0.000000 0.794049 0.069667
0.000000 0.793716 0.104744
0.000000 0.793364 0.141699
0.000000 0.792997 0.180323
0.000000 0.792616 0.220407
0.000000 0.792223 0.261742
0.000000 0.791820 0.304120
0.000000 0.791409 0.347333
0.000000 0.790992 0.391171
0.000000 0.790572 0.435426
0.000000 0.790149 0.479890
0.000000 0.789726 0.524355
0.000000 0.789306 0.568610
0.000000 0.788889 0.612448
0.000000 0.788478 0.655661
0.000000 0.788075 0.698039
0.000000 0.787682 0.739374
0.000000 0.787301 0.779458
0.000000 0.786934 0.818082
0.000000 0.786583 0.855036
0.000000 0.786249 0.890114
0.000000 0.785935 0.923106
0.000000 0.785644 0.953803
0.000000 0.785376 0.981997
0.000000 0.785133 1.000000
0.000000 0.784919 1.000000
0.000000 0.784734 1.000000
0.000000 0.830917 0.000000
0.000000 0.830733 0.000000
0.000000 0.830518 0.000000
0.000000 0.830276 0.000000
0.000000 0.830008 0.002341
0.000000 0.829716 0.033038
0.000000 0.829402 0.066030
0.000000 0.829069 0.101107
0.000000 0.828718 0.138062
0.000000 0.828350 0.176686
0.000000 0.827969 0.216769
0.000000 0.827576 0.258105
0.000000 0.827174 0.300483
0.000000 0.826763 0.343695
0.000000 0.826346 0.387534
0.000000 0.825925 0.431789
0.000000 0.825503 0.476253
0.000000 0.825080 0.520717
0.000000 0.824659 0.564973
0.000000 0.824242 0.608811
0.000000 0.823831 0.652023
0.000000 0.823429 0.694402
0.000000 0.823036 0.735737
0.000000 0.822655 0.775821
0.000000 0.822287 0.814444
0.000000 0.821936 0.851399
0.000000 0.821603 0.886477
0.000000 0.821289 0.919468
0.000000 0.820997 0.950166
0.000000 0.820729 0.978360
0.000000 0.820487 1.000000
0.000000 0.820272 1.000000
0.000000 0.820087 1.000000
0.000000 0.864744 0.000000
0.000000 0.864559 0.000000
0.000000 0.864344 0.000000
0.000000 0.864102 0.000000
0.000000 0.863834 0.000000
0.000000 0.863542 0.029558
0.000000 0.863228 0.062549
0.000000 0.862895 0.097627
0.000000 0.862544 0.134582
0.000000 0.862176 0.173205
0.000000 0.861795 0.213289
0.000000 0.861402 0.254624
0.000000 0.861000 0.297003
0.000000 0.860589 0.340215
0.000000 0.860172 0.384053
0.000000 0.859751 0.428309
0.000000 0.859329 0.472773
0.000000 0.858906 0.517237
0.000000 0.858485 0.561492
0.000000 0.858068 0.605331
0.000000 0.857657 0.648543
0.000000 0.857255 0.690921
0.000000 0.856862 0.732257
0.000000 0.856481 0.772340
0.000000 0.856113 0.810964
0.000000 0.855762 0.847919
0.000000 0.855429 0.882997
0.000000 0.855115 0.915988
0.000000 0.854823 0.946685
0.000000 0.854555 0.974880
0.000000 0.854313 1.000000
0.000000 0.854098 1.000000
0.000000 0.853914 1.000000
0.000000 0.896851 0.000000
0.000000 0.896666 0.000000
0.000000 0.896452 0.000000
0.000000 0.896210 0.000000
0.000000 0.895942 0.000000
0.000000 0.895650 0.026254
0.000000 0.895336 0.059246
0.000000 0.895003 0.094324
0.000000 0.894651 0.131278
0.000000 0.894284 0.169902
0.000000 0.893903 0.209986
0.000000 0.893510 0.251321
0.000000 0.893107 0.293699
0.000000 0.892696 0.336912
0.000000 0.892280 0.380750
0.000000 0.891859 0.425005
0.000000 0.891436 0.469470
0.000000 0.891013 0.513934
0.000000 0.890593 0.558189
0.000000 0.890176 0.602027
0.000000 0.889765 0.645240
0.000000 0.889362 0.687618
0.000000 0.888969 0.728953
0.000000 0.888588 0.769037
0.000000 0.888221 0.807661
0.000000 0.887870 0.844616
0.000000 0.887536 0.879693
0.000000 0.887223 0.912685
0.000000 0.886931 0.943382
