camera/src/main/assets/lut_film.cube
# SPECTRA Film
LUT_3D_SIZE 5
0.073232 0.059045 0.044858
0.073873 0.060623 0.245902
0.074514 0.062201 0.446947
0.075155 0.063779 0.647991
0.075796 0.065357 0.849035
0.079583 0.273206 0.069770
0.080224 0.274784 0.270814
0.080865 0.276362 0.471859
0.081507 0.277940 0.672903
0.082148 0.279518 0.873947
0.090376 0.487435 0.090376
0.091969 0.489028 0.290499
0.093562 0.490621 0.490621
0.095154 0.492213 0.690743
0.096747 0.493806 0.890865
0.106153 0.701741 0.106153
0.107746 0.703334 0.306275
0.109338 0.704926 0.506397
0.110931 0.706519 0.706519
0.112524 0.708112 0.906641
0.121929 0.916047 0.121929
0.123314 0.917637 0.322322
0.124338 0.919222 0.523186
0.125361 0.920808 0.724051
0.126384 0.922393 0.924915
0.273649 0.063692 0.052263
0.274290 0.065270 0.253308
0.274931 0.066848 0.454352
0.275573 0.068426 0.655396
0.276214 0.070004 0.856440
0.280001 0.277853 0.077175
0.280642 0.279431 0.278220
0.281283 0.281009 0.479264
0.282597 0.282597 0.679656
0.284190 0.284190 0.879778
0.293596 0.492125 0.095066
0.295188 0.493718 0.295188
0.296781 0.495310 0.495310
0.298374 0.496903 0.695432
0.299966 0.498496 0.895554
0.309372 0.706431 0.110843
0.310965 0.708024 0.310965
0.312557 0.709616 0.511087
0.314150 0.711209 0.711209
0.315743 0.712801 0.911331
0.323834 0.920720 0.128333
0.324857 0.922305 0.329197
0.325880 0.923891 0.530062
0.326903 0.925476 0.730926
0.327927 0.927062 0.931790
0.474067 0.068338 0.059669
0.474708 0.069916 0.260713
0.475349 0.071494 0.461757
0.475990 0.073072 0.662802
0.476631 0.074650 0.863846
0.481038 0.282509 0.083979
0.482631 0.284101 0.284101
0.484224 0.285694 0.484224
0.485816 0.287287 0.684346
0.487409 0.288879 0.884468
0.496815 0.496815 0.099756
0.498407 0.498407 0.299878
0.500000 0.500000 0.500000
0.501593 0.501593 0.700122
0.503185 0.503185 0.900244
0.512591 0.711121 0.115532
0.514184 0.712713 0.315654
0.515776 0.714306 0.515776
0.517369 0.715899 0.715899
0.518962 0.717491 0.916021
0.525376 0.925388 0.135208
0.526399 0.926974 0.336073
0.527423 0.928559 0.536937
0.528446 0.930144 0.737801
0.529469 0.931730 0.938665
0.674484 0.072985 0.067074
0.675125 0.074563 0.268118
0.675766 0.076141 0.469163
0.676408 0.077719 0.670207
0.677049 0.079297 0.871251
0.684257 0.287199 0.088669
0.685850 0.288791 0.288791
0.687443 0.290384 0.488913
0.689035 0.291976 0.689035
0.690628 0.293569 0.889157
0.700034 0.501504 0.104446
0.701626 0.503097 0.304568
0.703219 0.504690 0.504690
0.704812 0.506282 0.704812
0.706404 0.507875 0.904934
0.715810 0.715810 0.120222
0.717403 0.717403 0.320344
0.718829 0.718993 0.520683
0.719852 0.720579 0.721548
0.720875 0.722164 0.922412
0.726919 0.930057 0.142084
0.727942 0.931642 0.342948
0.728965 0.933227 0.543812
0.729989 0.934813 0.744676
0.731012 0.936398 0.945541
0.874901 0.077632 0.074479
0.875543 0.079210 0.275524
0.876184 0.080788 0.476568
0.876825 0.082366 0.677612
0.878071 0.083953 0.878071
0.887476 0.291888 0.093359
0.889069 0.293481 0.293481
0.890662 0.295074 0.493603
0.892254 0.296666 0.693725
0.893847 0.298259 0.893847
0.903253 0.506194 0.109135
0.904846 0.507787 0.309257
0.906438 0.509379 0.509379
0.908031 0.510972 0.709501
0.909624 0.512565 0.909624
0.918325 0.720491 0.125830
0.919348 0.722076 0.326694
0.920371 0.723662 0.527559
0.921395 0.725247 0.728423
0.922418 0.726833 0.929287
0.928461 0.934725 0.148959
0.929485 0.936310 0.349823
0.930508 0.937896 0.550687
0.931531 0.939481 0.751552
0.932554 0.941066 0.952416
