camera/src/main/assets/lut_film.cube
# SPECTRA Film
LUT_3D_SIZE 9
0.073232 0.059045 0.044858
0.073552 0.059834 0.145380
0.073873 0.060623 0.245902
0.074193 0.061412 0.346424
0.074514 0.062201 0.446947
0.074835 0.062990 0.547469
0.075155 0.063779 0.647991
0.075476 0.064568 0.748513
0.075796 0.065357 0.849035
0.076407 0.166125 0.057314
0.076728 0.166914 0.157836
0.077049 0.167703 0.258358
0.077369 0.168492 0.358880
0.077690 0.169281 0.459403
0.078010 0.170070 0.559925
0.078331 0.170859 0.660447
0.078652 0.171649 0.760969
0.078972 0.172438 0.861491
0.079583 0.273206 0.069770
0.079904 0.273995 0.170292
0.080224 0.274784 0.270814
0.080545 0.275573 0.371336
0.080865 0.276362 0.471859
0.081186 0.277151 0.572381
0.081507 0.277940 0.672903
0.081827 0.278729 0.773425
0.082148 0.279518 0.873947
0.082759 0.380287 0.082226
0.083285 0.381079 0.182549
0.084081 0.381875 0.282610
0.084877 0.382671 0.382671
0.085674 0.383468 0.482732
0.086470 0.384264 0.582793
0.087266 0.385060 0.682854
0.088062 0.385857 0.782915
0.088859 0.386653 0.882976
0.090376 0.487435 0.090376
0.091173 0.488232 0.190438
0.091969 0.489028 0.290499
0.092765 0.489824 0.390560
0.093562 0.490621 0.490621
0.094358 0.491417 0.590682
0.095154 0.492213 0.690743
0.095951 0.493010 0.790804
0.096747 0.493806 0.890865
0.098265 0.594588 0.098265
0.099061 0.595385 0.198326
0.099857 0.596181 0.298387
0.100654 0.596977 0.398448
0.101450 0.597774 0.498509
0.102246 0.598570 0.598570
0.103043 0.599366 0.698631
0.103839 0.600163 0.798692
0.104635 0.600959 0.898753
0.106153 0.701741 0.106153
0.106949 0.702538 0.206214
0.107746 0.703334 0.306275
0.108542 0.704130 0.406336
0.109338 0.704926 0.506397
0.110135 0.705723 0.606458
0.110931 0.706519 0.706519
0.111727 0.707315 0.806580
0.112524 0.708112 0.906641
0.114041 0.808894 0.114041
0.114838 0.809690 0.214102
0.115634 0.810487 0.314163
0.116430 0.811283 0.414224
0.117226 0.812079 0.514285
0.118023 0.812876 0.614346
0.118819 0.813672 0.714407
0.119615 0.814468 0.814468
0.120412 0.815265 0.914529
0.121929 0.916047 0.121929
0.122726 0.916843 0.221990
0.123314 0.917637 0.322322
0.123826 0.918430 0.422754
0.124338 0.919222 0.523186
0.124849 0.920015 0.623619
0.125361 0.920808 0.724051
0.125873 0.921601 0.824483
0.126384 0.922393 0.924915
0.173440 0.061368 0.048561
0.173761 0.062157 0.149083
0.174082 0.062946 0.249605
0.174402 0.063735 0.350127
0.174723 0.064524 0.450649
0.175043 0.065313 0.551171
0.175364 0.066102 0.651694
0.175685 0.066891 0.752216
0.176005 0.067680 0.852738
0.176616 0.168449 0.061017
0.176937 0.169238 0.161539
0.177257 0.170027 0.262061
0.177578 0.170816 0.362583
0.177898 0.171605 0.463105
0.178219 0.172394 0.563627
0.178540 0.173183 0.664150
0.178860 0.173972 0.764672
0.179181 0.174761 0.865194
0.179792 0.275529 0.073473
0.180112 0.276318 0.173995
0.180433 0.277107 0.274517
0.180754 0.277896 0.375039
0.181074 0.278685 0.475561
0.181395 0.279474 0.576083
0.181715 0.280263 0.676606
0.182036 0.281052 0.777128
0.182580 0.281845 0.877433
0.184098 0.382627 0.084833
0.184894 0.383424 0.184894
0.185690 0.384220 0.284955
0.186487 0.385016 0.385016
0.187283 0.385813 0.485077
0.188079 0.386609 0.585138
0.188876 0.387405 0.685199
0.189672 0.388201 0.785260
0.190468 0.388998 0.885321
0.191986 0.489780 0.092721
0.192782 0.490576 0.192782
0.193579 0.491373 0.292843
0.194375 0.492169 0.392904
0.195171 0.492965 0.492965
0.195968 0.493762 0.593026
0.196764 0.494558 0.693087
0.197560 0.495354 0.793149
0.198357 0.496151 0.893210
0.199874 0.596933 0.100610
0.200671 0.597729 0.200671
0.201467 0.598526 0.300732
0.202263 0.599322 0.400793
0.203060 0.600118 0.500854
0.203856 0.600915 0.600915
0.204652 0.601711 0.700976
0.205449 0.602507 0.801037
0.206245 0.603304 0.901098
0.207763 0.704086 0.108498
0.208559 0.704882 0.208559
0.209355 0.705679 0.308620
0.210151 0.706475 0.408681
0.210948 0.707271 0.508742
0.211744 0.708068 0.608803
0.212540 0.708864 0.708864
0.213337 0.709660 0.808925
0.214133 0.710457 0.908986
0.215651 0.811239 0.116386
0.216447 0.812035 0.216447
0.217243 0.812832 0.316508
0.218040 0.813628 0.416569
0.218836 0.814424 0.516630
0.219632 0.815221 0.616691
0.220429 0.816017 0.716752
0.221225 0.816813 0.816813
0.222021 0.817610 0.916874
0.223062 0.918386 0.124896
0.223574 0.919179 0.225328
0.224086 0.919971 0.325760
0.224597 0.920764 0.426192
0.225109 0.921557 0.526624
0.225621 0.922349 0.627056
0.226132 0.923142 0.727488
0.226644 0.923935 0.827920
0.227155 0.924727 0.928353
0.273649 0.063692 0.052263
0.273970 0.064481 0.152785
0.274290 0.065270 0.253308
0.274611 0.066059 0.353830
0.274931 0.066848 0.454352
0.275252 0.067637 0.554874
0.275573 0.068426 0.655396
0.275893 0.069215 0.755918
0.276214 0.070004 0.856440
0.276825 0.170772 0.064719
0.277145 0.171561 0.165241
0.277466 0.172350 0.265764
0.277787 0.173139 0.366286
0.278107 0.173928 0.466808
0.278428 0.174717 0.567330
0.278748 0.175506 0.667852
0.279069 0.176295 0.768374
0.279390 0.177084 0.868896
0.280001 0.277853 0.077175
0.280321 0.278642 0.177697
0.280642 0.279431 0.278220
0.280962 0.280220 0.378742
0.281283 0.281009 0.479264
0.281801 0.281801 0.579595
0.282597 0.282597 0.679656
0.283393 0.283393 0.779717
0.284190 0.284190 0.879778
0.285707 0.384972 0.087178
0.286504 0.385768 0.187239
0.287300 0.386565 0.287300
0.288096 0.387361 0.387361
0.288893 0.388157 0.487422
0.289689 0.388954 0.587483
0.290485 0.389750 0.687544
0.291282 0.390546 0.787605
0.292078 0.391343 0.887666
0.293596 0.492125 0.095066
0.294392 0.492921 0.195127
0.295188 0.493718 0.295188
0.295985 0.494514 0.395249
0.296781 0.495310 0.495310
0.297577 0.496107 0.595371
0.298374 0.496903 0.695432
0.299170 0.497699 0.795493
0.299966 0.498496 0.895554
0.301484 0.599278 0.102954
0.302280 0.600074 0.203015
0.303076 0.600871 0.303076
0.303873 0.601667 0.403138
0.304669 0.602463 0.503199
0.305465 0.603260 0.603260
0.306262 0.604056 0.703321
0.307058 0.604852 0.803382
0.307854 0.605649 0.903443
0.309372 0.706431 0.110843
0.310168 0.707227 0.210904
0.310965 0.708024 0.310965
0.311761 0.708820 0.411026
0.312557 0.709616 0.511087
0.313354 0.710413 0.611148
0.314150 0.711209 0.711209
0.314946 0.712005 0.811270
0.315743 0.712801 0.911331
0.317260 0.813584 0.118731
0.318057 0.814380 0.218792
0.318853 0.815176 0.318853
0.319649 0.815973 0.418914
0.320446 0.816769 0.518975
0.321242 0.817565 0.619036
0.321835 0.818359 0.719362
0.322347 0.819152 0.819794
0.322859 0.819945 0.920226
0.323834 0.920720 0.128333
0.324345 0.921513 0.228765
0.324857 0.922305 0.329197
0.325369 0.923098 0.429630
0.325880 0.923891 0.530062
0.326392 0.924683 0.630494
0.326903 0.925476 0.730926
0.327415 0.926269 0.831358
0.327927 0.927062 0.931790
0.373858 0.066015 0.055966
0.374178 0.066804 0.156488
0.374499 0.067593 0.257010
0.374820 0.068382 0.357532
0.375140 0.069171 0.458055
0.375461 0.069960 0.558577
0.375781 0.070749 0.659099
0.376102 0.071538 0.759621
0.376423 0.072327 0.860143
0.377034 0.173095 0.068422
0.377354 0.173884 0.168944
0.377675 0.174673 0.269466
0.377995 0.175462 0.369988
0.378316 0.176251 0.470511
0.378637 0.177040 0.571033
0.378957 0.177830 0.671555
0.379278 0.178619 0.772077
0.379598 0.179408 0.872599
0.380209 0.280176 0.080878
0.380530 0.280965 0.181400
0.381021 0.281757 0.281757
0.381818 0.282553 0.381818
0.382614 0.283349 0.481879
0.383410 0.284146 0.581940
0.384207 0.284942 0.682001
0.385003 0.285738 0.782062
0.385799 0.286535 0.882123
0.387317 0.387317 0.089523
0.388113 0.388113 0.189584
0.388910 0.388910 0.289645
0.389706 0.389706 0.389706
0.390502 0.390502 0.489767
0.391299 0.391299 0.589828
0.392095 0.392095 0.689889
0.392891 0.392891 0.789950
0.393688 0.393688 0.890011
0.395205 0.494470 0.097411
0.396001 0.495266 0.197472
0.396798 0.496063 0.297533
0.397594 0.496859 0.397594
0.398390 0.497655 0.497655
0.399187 0.498451 0.597716
0.399983 0.499248 0.697777
0.400779 0.500044 0.797838
0.401576 0.500840 0.897899
0.403093 0.601623 0.105299
0.403890 0.602419 0.205360
0.404686 0.603215 0.305421
0.405482 0.604012 0.405482
0.406279 0.604808 0.505543
0.407075 0.605604 0.605604
0.407871 0.606401 0.705665
0.408668 0.607197 0.805726
0.409464 0.607993 0.905787
0.410982 0.708776 0.113187
0.411778 0.709572 0.213249
0.412574 0.710368 0.313310
0.413371 0.711165 0.413371
0.414167 0.711961 0.513432
0.414963 0.712757 0.613493
0.415760 0.713554 0.713554
0.416556 0.714350 0.813615
0.417352 0.715146 0.913676
0.418870 0.815929 0.121076
0.419666 0.816725 0.221137
0.420463 0.817521 0.321198
0.421072 0.818315 0.421503
0.421583 0.819108 0.521935
0.422095 0.819901 0.622367
0.422607 0.820693 0.722799
0.423118 0.821486 0.823231
0.423630 0.822279 0.923663
0.424605 0.923054 0.131771
0.425117 0.923847 0.232203
0.425628 0.924640 0.332635
0.426140 0.925432 0.433067
0.426651 0.926225 0.533499
0.427163 0.927018 0.633931
0.427675 0.927810 0.734364
0.428186 0.928603 0.834796
0.428698 0.929396 0.935228
0.474067 0.068338 0.059669
0.474387 0.069127 0.160191
0.474708 0.069916 0.260713
0.475028 0.070705 0.361235
0.475349 0.071494 0.461757
0.475670 0.072283 0.562279
0.475990 0.073072 0.662802
0.476311 0.073861 0.763324
0.476631 0.074650 0.863846
0.477242 0.175419 0.072125
0.477563 0.176208 0.172647
0.477883 0.176997 0.273169
0.478204 0.177786 0.373691
0.478525 0.178575 0.474213
0.478845 0.179364 0.574735
0.479166 0.180153 0.675258
0.479486 0.180942 0.775780
0.479807 0.181731 0.876302
0.481038 0.282509 0.083979
0.481835 0.283305 0.184040
0.482631 0.284101 0.284101
0.483427 0.284898 0.384163
0.484224 0.285694 0.484224
0.485020 0.286490 0.584285
0.485816 0.287287 0.684346
0.486613 0.288083 0.784407
0.487409 0.288879 0.884468
0.488926 0.389662 0.091868
0.489723 0.390458 0.191929
0.490519 0.391254 0.291990
0.491315 0.392051 0.392051
0.492112 0.392847 0.492112
0.492908 0.393643 0.592173
0.493704 0.394440 0.692234
0.494501 0.395236 0.792295
0.495297 0.396032 0.892356
0.496815 0.496815 0.099756
0.497611 0.497611 0.199817
0.498407 0.498407 0.299878
0.499204 0.499204 0.399939
0.500000 0.500000 0.500000
0.500796 0.500796 0.600061
0.501593 0.501593 0.700122
0.502389 0.502389 0.800183
0.503185 0.503185 0.900244
0.504703 0.603968 0.107644
0.505499 0.604764 0.207705
0.506296 0.605560 0.307766
0.507092 0.606357 0.407827
0.507888 0.607153 0.507888
0.508685 0.607949 0.607949
0.509481 0.608746 0.708010
0.510277 0.609542 0.808071
0.511074 0.610338 0.908132
0.512591 0.711121 0.115532
0.513387 0.711917 0.215593
0.514184 0.712713 0.315654
0.514980 0.713510 0.415715
0.515776 0.714306 0.515776
0.516573 0.715102 0.615838
0.517369 0.715899 0.715899
0.518165 0.716695 0.815960
0.518962 0.717491 0.916021
0.520308 0.818271 0.123644
0.520820 0.819064 0.224076
0.521331 0.819857 0.324508
0.521843 0.820649 0.424940
0.522355 0.821442 0.525373
0.522866 0.822235 0.625805
0.523378 0.823027 0.726237
0.523889 0.823820 0.826669
0.524401 0.824613 0.927101
0.525376 0.925388 0.135208
0.525888 0.926181 0.235641
0.526399 0.926974 0.336073
0.526911 0.927766 0.436505
0.527423 0.928559 0.536937
0.527934 0.929352 0.637369
0.528446 0.930144 0.737801
0.528958 0.930937 0.838233
0.529469 0.931730 0.938665
0.574275 0.070662 0.063371
0.574596 0.071451 0.163893
0.574916 0.072240 0.264416
0.575237 0.073029 0.364938
0.575558 0.073818 0.465460
0.575878 0.074607 0.565982
0.576199 0.075396 0.666504
0.576519 0.076185 0.767026
0.576840 0.076974 0.867548
0.577451 0.177742 0.075827
0.577772 0.178531 0.176349
0.578092 0.179320 0.276872
0.578413 0.180109 0.377394
0.578733 0.180898 0.477916
0.579054 0.181687 0.578438
0.579538 0.182479 0.678802
0.580334 0.183275 0.778863
0.581130 0.184071 0.878924
0.582648 0.284854 0.086324
0.583444 0.285650 0.186385
0.584240 0.286446 0.286446
0.585037 0.287243 0.386507
0.585833 0.288039 0.486568
0.586629 0.288835 0.586629
0.587426 0.289632 0.686690
0.588222 0.290428 0.786751
0.589018 0.291224 0.886813
0.590536 0.392007 0.094213
0.591332 0.392803 0.194274
0.592129 0.393599 0.294335
0.592925 0.394396 0.394396
0.593721 0.395192 0.494457
0.594518 0.395988 0.594518
0.595314 0.396785 0.694579
0.596110 0.397581 0.794640
0.596907 0.398377 0.894701
0.598424 0.499160 0.102101
0.599221 0.499956 0.202162
0.600017 0.500752 0.302223
0.600813 0.501549 0.402284
0.601610 0.502345 0.502345
0.602406 0.503141 0.602406
0.603202 0.503938 0.702467
0.603999 0.504734 0.802528
0.604795 0.505530 0.902589
0.606313 0.606313 0.109989
0.607109 0.607109 0.210050
0.607905 0.607905 0.310111
0.608701 0.608701 0.410172
0.609498 0.609498 0.510233
0.610294 0.610294 0.610294
0.611090 0.611090 0.710355
0.611887 0.611887 0.810416
0.612683 0.612683 0.910477
0.614201 0.713465 0.117877
0.614997 0.714262 0.217938
0.615793 0.715058 0.317999
0.616590 0.715854 0.418060
0.617386 0.716651 0.518121
0.618182 0.717447 0.618182
0.618979 0.718243 0.718243
0.619593 0.719037 0.818542
0.620104 0.719830 0.918974
0.621079 0.820605 0.127082
0.621591 0.821398 0.227514
0.622103 0.822191 0.327946
0.622614 0.822984 0.428378
0.623126 0.823776 0.528810
0.623637 0.824569 0.629242
0.624149 0.825362 0.729674
0.624661 0.826154 0.830107
0.625172 0.826947 0.930539
0.626147 0.927722 0.138646
0.626659 0.928515 0.239078
0.627171 0.929308 0.339510
0.627682 0.930101 0.439942
0.628194 0.930893 0.540375
0.628706 0.931686 0.640807
0.629217 0.932479 0.741239
0.629729 0.933271 0.841671
0.630241 0.934064 0.942103
0.674484 0.072985 0.067074
0.674805 0.073774 0.167596
0.675125 0.074563 0.268118
0.675446 0.075352 0.368640
0.675766 0.076141 0.469163
0.676087 0.076930 0.569685
0.676408 0.077719 0.670207
0.676728 0.078508 0.770729
0.677049 0.079297 0.871251
0.677660 0.180065 0.079530
0.677980 0.180854 0.180052
0.678301 0.181643 0.280574
0.678758 0.182435 0.380964
0.679554 0.183231 0.481025
0.680351 0.184027 0.581086
0.681147 0.184824 0.681147
0.681943 0.185620 0.781208
0.682740 0.186416 0.881269
0.684257 0.287199 0.088669
0.685054 0.287995 0.188730
0.685850 0.288791 0.288791
0.686646 0.289587 0.388852
0.687443 0.290384 0.488913
0.688239 0.291180 0.588974
0.689035 0.291976 0.689035
0.689832 0.292773 0.789096
0.690628 0.293569 0.889157
0.692146 0.394351 0.096557
0.692942 0.395148 0.196618
0.693738 0.395944 0.296679
0.694535 0.396740 0.396740
0.695331 0.397537 0.496801
0.696127 0.398333 0.596863
0.696924 0.399129 0.696924
0.697720 0.399926 0.796985
0.698516 0.400722 0.897046
0.700034 0.501504 0.104446
0.700830 0.502301 0.204507
0.701626 0.503097 0.304568
0.702423 0.503893 0.404629
0.703219 0.504690 0.504690
0.704015 0.505486 0.604751
0.704812 0.506282 0.704812
0.705608 0.507079 0.804873
0.706404 0.507875 0.904934
0.707922 0.608657 0.112334
0.708718 0.609454 0.212395
0.709515 0.610250 0.312456
0.710311 0.611046 0.412517
0.711107 0.611843 0.512578
0.711904 0.612639 0.612639
0.712700 0.613435 0.712700
0.713496 0.614232 0.812761
0.714293 0.615028 0.912822
0.715810 0.715810 0.120222
0.716607 0.716607 0.220283
0.717403 0.717403 0.320344
0.718199 0.718199 0.420405
0.718829 0.718993 0.520683
0.719341 0.719786 0.621116
0.719852 0.720579 0.721548
0.720364 0.721372 0.821980
0.720875 0.722164 0.922412
0.721851 0.822940 0.130519
0.722362 0.823732 0.230951
0.722874 0.824525 0.331384
0.723385 0.825318 0.431816
0.723897 0.826110 0.532248
0.724409 0.826903 0.632680
0.724920 0.827696 0.733112
0.725432 0.828488 0.833544
0.725944 0.829281 0.933976
0.726919 0.930057 0.142084
0.727430 0.930849 0.242516
0.727942 0.931642 0.342948
0.728454 0.932435 0.443380
0.728965 0.933227 0.543812
0.729477 0.934020 0.644244
0.729989 0.934813 0.744676
0.730500 0.935605 0.845109
0.731012 0.936398 0.945541
0.774693 0.075308 0.070777
0.775013 0.076097 0.171299
0.775334 0.076886 0.271821
0.775654 0.077675 0.372343
0.775975 0.078464 0.472865
0.776296 0.079253 0.573387
0.776616 0.080042 0.673910
0.776937 0.080831 0.774432
0.777257 0.081620 0.874954
0.777979 0.182390 0.083126
0.778775 0.183187 0.183187
0.779571 0.183983 0.283248
0.780368 0.184779 0.383309
0.781164 0.185576 0.483370
0.781960 0.186372 0.583431
0.782757 0.187168 0.683492
0.783553 0.187965 0.783553
0.784349 0.188761 0.883614
0.785867 0.289543 0.091014
0.786663 0.290340 0.191075
0.787460 0.291136 0.291136
0.788256 0.291932 0.391197
0.789052 0.292729 0.491258
0.789849 0.293525 0.591319
0.790645 0.294321 0.691380
0.791441 0.295118 0.791441
0.792237 0.295914 0.891502
0.793755 0.396696 0.098902
0.794551 0.397493 0.198963
0.795348 0.398289 0.299024
0.796144 0.399085 0.399085
0.796940 0.399882 0.499146
0.797737 0.400678 0.599207
0.798533 0.401474 0.699268
0.799329 0.402271 0.799329
0.800126 0.403067 0.899390
0.801643 0.503849 0.106790
0.802440 0.504646 0.206851
0.803236 0.505442 0.306913
0.804032 0.506238 0.406974
0.804829 0.507035 0.507035
0.805625 0.507831 0.607096
0.806421 0.508627 0.707157
0.807218 0.509424 0.807218
0.808014 0.510220 0.907279
0.809532 0.611002 0.114679
0.810328 0.611799 0.214740
0.811124 0.612595 0.314801
0.811921 0.613391 0.414862
0.812717 0.614188 0.514923
0.813513 0.614984 0.614984
0.814310 0.615780 0.715045
0.815106 0.616576 0.815106
0.815902 0.617373 0.915167
0.817420 0.718155 0.122567
0.818065 0.718950 0.222825
0.818577 0.719742 0.323257
0.819089 0.720535 0.423689
0.819600 0.721328 0.524121
0.820112 0.722120 0.624553
0.820623 0.722913 0.724985
0.821135 0.723706 0.825417
0.821647 0.724498 0.925850
0.822622 0.825274 0.133957
0.823133 0.826066 0.234389
0.823645 0.826859 0.334821
0.824157 0.827652 0.435253
0.824668 0.828445 0.535685
0.825180 0.829237 0.636118
0.825692 0.830030 0.736550
0.826203 0.830823 0.836982
0.826715 0.831615 0.937414
0.827690 0.932391 0.145521
0.828202 0.933183 0.245953
0.828713 0.933976 0.346385
0.829225 0.934769 0.446818
0.829737 0.935562 0.547250
0.830248 0.936354 0.647682
0.830760 0.937147 0.748114
0.831271 0.937940 0.848546
0.831783 0.938732 0.948978
0.874901 0.077632 0.074479
0.875222 0.078421 0.175001
0.875543 0.079210 0.275524
0.875863 0.079999 0.376046
0.876184 0.080788 0.476568
0.876504 0.081577 0.577090
0.876825 0.082366 0.677612
0.877274 0.083157 0.778010
0.878071 0.083953 0.878071
0.879588 0.184735 0.085471
0.880385 0.185532 0.185532
0.881181 0.186328 0.285593
0.881977 0.187124 0.385654
0.882774 0.187921 0.485715
0.883570 0.188717 0.585776
0.884366 0.189513 0.685837
0.885162 0.190310 0.785898
0.885959 0.191106 0.885959
0.887476 0.291888 0.093359
0.888273 0.292685 0.193420
0.889069 0.293481 0.293481
0.889865 0.294277 0.393542
0.890662 0.295074 0.493603
0.891458 0.295870 0.593664
0.892254 0.296666 0.693725
0.893051 0.297462 0.793786
0.893847 0.298259 0.893847
0.895365 0.399041 0.101247
0.896161 0.399838 0.201308
0.896957 0.400634 0.301369
0.897754 0.401430 0.401430
0.898550 0.402226 0.501491
0.899346 0.403023 0.601552
0.900143 0.403819 0.701613
0.900939 0.404615 0.801674
0.901735 0.405412 0.901735
0.903253 0.506194 0.109135
0.904049 0.506990 0.209196
0.904846 0.507787 0.309257
0.905642 0.508583 0.409318
0.906438 0.509379 0.509379
0.907235 0.510176 0.609440
0.908031 0.510972 0.709501
0.908827 0.511768 0.809562
0.909624 0.512565 0.909624
0.911141 0.613347 0.117024
0.911938 0.614143 0.217085
0.912734 0.614940 0.317146
0.913530 0.615736 0.417207
0.914326 0.616532 0.517268
0.915123 0.617329 0.617329
0.915919 0.618125 0.717390
0.916715 0.618921 0.817451
0.917350 0.619716 0.917723
0.918325 0.720491 0.125830
0.918837 0.721284 0.226262
0.919348 0.722076 0.326694
0.919860 0.722869 0.427127
0.920371 0.723662 0.527559
0.920883 0.724454 0.627991
0.921395 0.725247 0.728423
0.921906 0.726040 0.828855
0.922418 0.726833 0.929287
0.923393 0.827608 0.137394
0.923905 0.828401 0.237827
0.924416 0.829193 0.338259
0.924928 0.829986 0.438691
0.925440 0.830779 0.539123
0.925951 0.831571 0.639555
0.926463 0.832364 0.739987
0.926975 0.833157 0.840419
0.927486 0.833949 0.940852
0.928461 0.934725 0.148959
0.928973 0.935518 0.249391
0.929485 0.936310 0.349823
0.929996 0.937103 0.450255
0.930508 0.937896 0.550687
0.931019 0.938688 0.651120
0.931531 0.939481 0.751552
0.932043 0.940274 0.851984
0.932554 0.941066 0.952416
