camera/src/main/assets/lut_warm.cube
# SPECTRA Warm
LUT_3D_SIZE 9
0.031373 0.000000 0.000000
0.031373 0.000000 0.065277
0.031373 0.000000 0.187347
0.031373 0.000000 0.321136
0.031373 0.000000 0.460784
0.031373 0.000000 0.600433
0.031373 0.000000 0.734222
0.031373 0.000000 0.856292
0.031373 0.000000 0.960784
0.031373 0.104492 0.000000
0.031373 0.104492 0.065277
0.031373 0.104492 0.187347
0.031373 0.104492 0.321136
0.031373 0.104492 0.460784
0.031373 0.104492 0.600433
0.031373 0.104492 0.734222
0.031373 0.104492 0.856292
0.031373 0.104492 0.960784
0.031373 0.226562 0.000000
0.031373 0.226562 0.065277
0.031373 0.226562 0.187347
0.031373 0.226562 0.321136
0.031373 0.226562 0.460784
0.031373 0.226562 0.600433
0.031373 0.226562 0.734222
0.031373 0.226562 0.856292
0.031373 0.226562 0.960784
0.031373 0.360352 0.000000
0.031373 0.360352 0.065277
0.031373 0.360352 0.187347
0.031373 0.360352 0.321136
0.031373 0.360352 0.460784
0.031373 0.360352 0.600433
0.031373 0.360352 0.734222
0.031373 0.360352 0.856292
0.031373 0.360352 0.960784
0.031373 0.500000 0.000000
0.031373 0.500000 0.065277
0.031373 0.500000 0.187347
0.031373 0.500000 0.321136
0.031373 0.500000 0.460784
0.031373 0.500000 0.600433
0.031373 0.500000 0.734222
0.031373 0.500000 0.856292
0.031373 0.500000 0.960784
0.031373 0.639648 0.000000
0.031373 0.639648 0.065277
0.031373 0.639648 0.187347
0.031373 0.639648 0.321136
0.031373 0.639648 0.460784
0.031373 0.639648 0.600433
0.031373 0.639648 0.734222
0.031373 0.639648 0.856292
0.031373 0.639648 0.960784
0.031373 0.773438 0.000000
0.031373 0.773438 0.065277
0.031373 0.773438 0.187347
0.031373 0.773438 0.321136
0.031373 0.773438 0.460784
0.031373 0.773438 0.600433
0.031373 0.773438 0.734222
0.031373 0.773438 0.856292
0.031373 0.773438 0.960784
0.031373 0.895508 0.000000
0.031373 0.895508 0.065277
0.031373 0.895508 0.187347
0.031373 0.895508 0.321136
0.031373 0.895508 0.460784
0.031373 0.895508 0.600433
0.031373 0.895508 0.734222
0.031373 0.895508 0.856292
0.031373 0.895508 0.960784
0.031373 1.000000 0.000000
0.031373 1.000000 0.065277
0.031373 1.000000 0.187347
0.031373 1.000000 0.321136
0.031373 1.000000 0.460784
0.031373 1.000000 0.600433
0.031373 1.000000 0.734222
0.031373 1.000000 0.856292
0.031373 1.000000 0.960784
0.135865 0.000000 0.000000
0.135865 0.000000 0.065277
0.135865 0.000000 0.187347
0.135865 0.000000 0.321136
0.135865 0.000000 0.460784
0.135865 0.000000 0.600433
0.135865 0.000000 0.734222
0.135865 0.000000 0.856292
0.135865 0.000000 0.960784
0.135865 0.104492 0.000000
0.135865 0.104492 0.065277
0.135865 0.104492 0.187347
0.135865 0.104492 0.321136
0.135865 0.104492 0.460784
0.135865 0.104492 0.600433
0.135865 0.104492 0.734222
0.135865 0.104492 0.856292
0.135865 0.104492 0.960784
0.135865 0.226562 0.000000
0.135865 0.226562 0.065277
0.135865 0.226562 0.187347
0.135865 0.226562 0.321136
0.135865 0.226562 0.460784
0.135865 0.226562 0.600433
0.135865 0.226562 0.734222
0.135865 0.226562 0.856292
0.135865 0.226562 0.960784
0.135865 0.360352 0.000000
0.135865 0.360352 0.065277
0.135865 0.360352 0.187347
0.135865 0.360352 0.321136
0.135865 0.360352 0.460784
0.135865 0.360352 0.600433
0.135865 0.360352 0.734222
0.135865 0.360352 0.856292
0.135865 0.360352 0.960784
0.135865 0.500000 0.000000
0.135865 0.500000 0.065277
0.135865 0.500000 0.187347
0.135865 0.500000 0.321136
0.135865 0.500000 0.460784
0.135865 0.500000 0.600433
0.135865 0.500000 0.734222
0.135865 0.500000 0.856292
0.135865 0.500000 0.960784
0.135865 0.639648 0.000000
0.135865 0.639648 0.065277
0.135865 0.639648 0.187347
0.135865 0.639648 0.321136
0.135865 0.639648 0.460784
0.135865 0.639648 0.600433
0.135865 0.639648 0.734222
0.135865 0.639648 0.856292
0.135865 0.639648 0.960784
0.135865 0.773438 0.000000
0.135865 0.773438 0.065277
0.135865 0.773438 0.187347
0.135865 0.773438 0.321136
0.135865 0.773438 0.460784
0.135865 0.773438 0.600433
0.135865 0.773438 0.734222
0.135865 0.773438 0.856292
0.135865 0.773438 0.960784
0.135865 0.895508 0.000000
0.135865 0.895508 0.065277
0.135865 0.895508 0.187347
0.135865 0.895508 0.321136
0.135865 0.895508 0.460784
0.135865 0.895508 0.600433
0.135865 0.895508 0.734222
0.135865 0.895508 0.856292
0.135865 0.895508 0.960784
0.135865 1.000000 0.000000
0.135865 1.000000 0.065277
0.135865 1.000000 0.187347
0.135865 1.000000 0.321136
0.135865 1.000000 0.460784
0.135865 1.000000 0.600433
0.135865 1.000000 0.734222
0.135865 1.000000 0.856292
0.135865 1.000000 0.960784
0.257935 0.000000 0.000000
0.257935 0.000000 0.065277
0.257935 0.000000 0.187347
0.257935 0.000000 0.321136
0.257935 0.000000 0.460784
0.257935 0.000000 0.600433
0.257935 0.000000 0.734222
0.257935 0.000000 0.856292
0.257935 0.000000 0.960784
0.257935 0.104492 0.000000
0.257935 0.104492 0.065277
0.257935 0.104492 0.187347
0.257935 0.104492 0.321136
0.257935 0.104492 0.460784
0.257935 0.104492 0.600433
0.257935 0.104492 0.734222
0.257935 0.104492 0.856292
0.257935 0.104492 0.960784
0.257935 0.226562 0.000000
0.257935 0.226562 0.065277
0.257935 0.226562 0.187347
0.257935 0.226562 0.321136
0.257935 0.226562 0.460784
0.257935 0.226562 0.600433
0.257935 0.226562 0.734222
0.257935 0.226562 0.856292
0.257935 0.226562 0.960784
0.257935 0.360352 0.000000
0.257935 0.360352 0.065277
0.257935 0.360352 0.187347
0.257935 0.360352 0.321136
0.257935 0.360352 0.460784
0.257935 0.360352 0.600433
0.257935 0.360352 0.734222
0.257935 0.360352 0.856292
0.257935 0.360352 0.960784
0.257935 0.500000 0.000000
0.257935 0.500000 0.065277
0.257935 0.500000 0.187347
0.257935 0.500000 0.321136
0.257935 0.500000 0.460784
0.257935 0.500000 0.600433
0.257935 0.500000 0.734222
0.257935 0.500000 0.856292
0.257935 0.500000 0.960784
0.257935 0.639648 0.000000
0.257935 0.639648 0.065277
0.257935 0.639648 0.187347
0.257935 0.639648 0.321136
0.257935 0.639648 0.460784
0.257935 0.639648 0.600433
0.257935 0.639648 0.734222
0.257935 0.639648 0.856292
0.257935 0.639648 0.960784
0.257935 0.773438 0.000000
0.257935 0.773438 0.065277
0.257935 0.773438 0.187347
0.257935 0.773438 0.321136
0.257935 0.773438 0.460784
0.257935 0.773438 0.600433
0.257935 0.773438 0.734222
0.257935 0.773438 0.856292
0.257935 0.773438 0.960784
0.257935 0.895508 0.000000
0.257935 0.895508 0.065277
0.257935 0.895508 0.187347
0.257935 0.895508 0.321136
0.257935 0.895508 0.460784
0.257935 0.895508 0.600433
0.257935 0.895508 0.734222
0.257935 0.895508 0.856292
0.257935 0.895508 0.960784
0.257935 1.000000 0.000000
0.257935 1.000000 0.065277
0.257935 1.000000 0.187347
0.257935 1.000000 0.321136
0.257935 1.000000 0.460784
0.257935 1.000000 0.600433
0.257935 1.000000 0.734222
0.257935 1.000000 0.856292
0.257935 1.000000 0.960784
0.391724 0.000000 0.000000
0.391724 0.000000 0.065277
0.391724 0.000000 0.187347
0.391724 0.000000 0.321136
0.391724 0.000000 0.460784
0.391724 0.000000 0.600433
0.391724 0.000000 0.734222
0.391724 0.000000 0.856292
0.391724 0.000000 0.960784
0.391724 0.104492 0.000000
0.391724 0.104492 0.065277
0.391724 0.104492 0.187347
0.391724 0.104492 0.321136
0.391724 0.104492 0.460784
0.391724 0.104492 0.600433
0.391724 0.104492 0.734222
0.391724 0.104492 0.856292
0.391724 0.104492 0.960784
0.391724 0.226562 0.000000
0.391724 0.226562 0.065277
0.391724 0.226562 0.187347
0.391724 0.226562 0.321136
0.391724 0.226562 0.460784
0.391724 0.226562 0.600433
0.391724 0.226562 0.734222
0.391724 0.226562 0.856292
0.391724 0.226562 0.960784
0.391724 0.360352 0.000000
0.391724 0.360352 0.065277
0.391724 0.360352 0.187347
0.391724 0.360352 0.321136
0.391724 0.360352 0.460784
0.391724 0.360352 0.600433
0.391724 0.360352 0.734222
0.391724 0.360352 0.856292
0.391724 0.360352 0.960784
0.391724 0.500000 0.000000
0.391724 0.500000 0.065277
0.391724 0.500000 0.187347
0.391724 0.500000 0.321136
0.391724 0.500000 0.460784
0.391724 0.500000 0.600433
0.391724 0.500000 0.734222
0.391724 0.500000 0.856292
0.391724 0.500000 0.960784
0.391724 0.639648 0.000000
0.391724 0.639648 0.065277
0.391724 0.639648 0.187347
0.391724 0.639648 0.321136
0.391724 0.639648 0.460784
0.391724 0.639648 0.600433
0.391724 0.639648 0.734222
0.391724 0.639648 0.856292
0.391724 0.639648 0.960784
0.391724 0.773438 0.000000
0.391724 0.773438 0.065277
0.391724 0.773438 0.187347
0.391724 0.773438 0.321136
0.391724 0.773438 0.460784
0.391724 0.773438 0.600433
0.391724 0.773438 0.734222
0.391724 0.773438 0.856292
0.391724 0.773438 0.960784
0.391724 0.895508 0.000000
0.391724 0.895508 0.065277
0.391724 0.895508 0.187347
0.391724 0.895508 0.321136
0.391724 0.895508 0.460784
0.391724 0.895508 0.600433
0.391724 0.895508 0.734222
0.391724 0.895508 0.856292
0.391724 0.895508 0.960784
0.391724 1.000000 0.000000
0.391724 1.000000 0.065277
0.391724 1.000000 0.187347
0.391724 1.000000 0.321136
0.391724 1.000000 0.460784
0.391724 1.000000 0.600433
0.391724 1.000000 0.734222
0.391724 1.000000 0.856292
0.391724 1.000000 0.960784
0.531373 0.000000 0.000000
0.531373 0.000000 0.065277
0.531373 0.000000 0.187347
0.531373 0.000000 0.321136
0.531373 0.000000 0.460784
0.531373 0.000000 0.600433
0.531373 0.000000 0.734222
0.531373 0.000000 0.856292
0.531373 0.000000 0.960784
0.531373 0.104492 0.000000
0.531373 0.104492 0.065277
0.531373 0.104492 0.187347
0.531373 0.104492 0.321136
0.531373 0.104492 0.460784
0.531373 0.104492 0.600433
0.531373 0.104492 0.734222
0.531373 0.104492 0.856292
0.531373 0.104492 0.960784
0.531373 0.226562 0.000000
0.531373 0.226562 0.065277
0.531373 0.226562 0.187347
0.531373 0.226562 0.321136
0.531373 0.226562 0.460784
0.531373 0.226562 0.600433
0.531373 0.226562 0.734222
0.531373 0.226562 0.856292
0.531373 0.226562 0.960784
0.531373 0.360352 0.000000
0.531373 0.360352 0.065277
0.531373 0.360352 0.187347
0.531373 0.360352 0.321136
0.531373 0.360352 0.460784
0.531373 0.360352 0.600433
0.531373 0.360352 0.734222
0.531373 0.360352 0.856292
0.531373 0.360352 0.960784
0.531373 0.500000 0.000000
0.531373 0.500000 0.065277
0.531373 0.500000 0.187347
0.531373 0.500000 0.321136
0.531373 0.500000 0.460784
0.531373 0.500000 0.600433
0.531373 0.500000 0.734222
0.531373 0.500000 0.856292
0.531373 0.500000 0.960784
0.531373 0.639648 0.000000
0.531373 0.639648 0.065277
0.531373 0.639648 0.187347
0.531373 0.639648 0.321136
0.531373 0.639648 0.460784
0.531373 0.639648 0.600433
0.531373 0.639648 0.734222
0.531373 0.639648 0.856292
0.531373 0.639648 0.960784
0.531373 0.773438 0.000000
0.531373 0.773438 0.065277
0.531373 0.773438 0.187347
0.531373 0.773438 0.321136
0.531373 0.773438 0.460784
0.531373 0.773438 0.600433
0.531373 0.773438 0.734222
0.531373 0.773438 0.856292
0.531373 0.773438 0.960784
0.531373 0.895508 0.000000
0.531373 0.895508 0.065277
0.531373 0.895508 0.187347
0.531373 0.895508 0.321136
0.531373 0.895508 0.460784
0.531373 0.895508 0.600433
0.531373 0.895508 0.734222
0.531373 0.895508 0.856292
0.531373 0.895508 0.960784
0.531373 1.000000 0.000000
0.531373 1.000000 0.065277
0.531373 1.000000 0.187347
0.531373 1.000000 0.321136
0.531373 1.000000 0.460784
0.531373 1.000000 0.600433
0.531373 1.000000 0.734222
0.531373 1.000000 0.856292
0.531373 1.000000 0.960784
0.671021 0.000000 0.000000
0.671021 0.000000 0.065277
0.671021 0.000000 0.187347
0.671021 0.000000 0.321136
0.671021 0.000000 0.460784
0.671021 0.000000 0.600433
0.671021 0.000000 0.734222
0.671021 0.000000 0.856292
0.671021 0.000000 0.960784
0.671021 0.104492 0.000000
0.671021 0.104492 0.065277
0.671021 0.104492 0.187347
0.671021 0.104492 0.321136
0.671021 0.104492 0.460784
0.671021 0.104492 0.600433
0.671021 0.104492 0.734222
0.671021 0.104492 0.856292
0.671021 0.104492 0.960784
0.671021 0.226562 0.000000
0.671021 0.226562 0.065277
0.671021 0.226562 0.187347
0.671021 0.226562 0.321136
0.671021 0.226562 0.460784
0.671021 0.226562 0.600433
0.671021 0.226562 0.734222
0.671021 0.226562 0.856292
0.671021 0.226562 0.960784
0.671021 0.360352 0.000000
0.671021 0.360352 0.065277
0.671021 0.360352 0.187347
0.671021 0.360352 0.321136
0.671021 0.360352 0.460784
0.671021 0.360352 0.600433
0.671021 0.360352 0.734222
0.671021 0.360352 0.856292
0.671021 0.360352 0.960784
0.671021 0.500000 0.000000
0.671021 0.500000 0.065277
0.671021 0.500000 0.187347
0.671021 0.500000 0.321136
0.671021 0.500000 0.460784
0.671021 0.500000 0.600433
0.671021 0.500000 0.734222
0.671021 0.500000 0.856292
0.671021 0.500000 0.960784
0.671021 0.639648 0.000000
0.671021 0.639648 0.065277
0.671021 0.639648 0.187347
0.671021 0.639648 0.321136
0.671021 0.639648 0.460784
0.671021 0.639648 0.600433
0.671021 0.639648 0.734222
0.671021 0.639648 0.856292
0.671021 0.639648 0.960784
0.671021 0.773438 0.000000
0.671021 0.773438 0.065277
0.671021 0.773438 0.187347
0.671021 0.773438 0.321136
0.671021 0.773438 0.460784
0.671021 0.773438 0.600433
0.671021 0.773438 0.734222
0.671021 0.773438 0.856292
0.671021 0.773438 0.960784
0.671021 0.895508 0.000000
0.671021 0.895508 0.065277
0.671021 0.895508 0.187347
0.671021 0.895508 0.321136
0.671021 0.895508 0.460784
0.671021 0.895508 0.600433
0.671021 0.895508 0.734222
0.671021 0.895508 0.856292
0.671021 0.895508 0.960784
0.671021 1.000000 0.000000
0.671021 1.000000 0.065277
0.671021 1.000000 0.187347
0.671021 1.000000 0.321136
0.671021 1.000000 0.460784
0.671021 1.000000 0.600433
0.671021 1.000000 0.734222
0.671021 1.000000 0.856292
0.671021 1.000000 0.960784
0.804810 0.000000 0.000000
0.804810 0.000000 0.065277
0.804810 0.000000 0.187347
0.804810 0.000000 0.321136
0.804810 0.000000 0.460784
0.804810 0.000000 0.600433
0.804810 0.000000 0.734222
0.804810 0.000000 0.856292
0.804810 0.000000 0.960784
0.804810 0.104492 0.000000
0.804810 0.104492 0.065277
0.804810 0.104492 0.187347
0.804810 0.104492 0.321136
0.804810 0.104492 0.460784
0.804810 0.104492 0.600433
0.804810 0.104492 0.734222
0.804810 0.104492 0.856292
0.804810 0.104492 0.960784
0.804810 0.226562 0.000000
0.804810 0.226562 0.065277
0.804810 0.226562 0.187347
0.804810 0.226562 0.321136
0.804810 0.226562 0.460784
0.804810 0.226562 0.600433
0.804810 0.226562 0.734222
0.804810 0.226562 0.856292
0.804810 0.226562 0.960784
0.804810 0.360352 0.000000
0.804810 0.360352 0.065277
0.804810 0.360352 0.187347
0.804810 0.360352 0.321136
0.804810 0.360352 0.460784
0.804810 0.360352 0.600433
0.804810 0.360352 0.734222
0.804810 0.360352 0.856292
0.804810 0.360352 0.960784
0.804810 0.500000 0.000000
0.804810 0.500000 0.065277
0.804810 0.500000 0.187347
0.804810 0.500000 0.321136
0.804810 0.500000 0.460784
0.804810 0.500000 0.600433
0.804810 0.500000 0.734222
0.804810 0.500000 0.856292
0.804810 0.500000 0.960784
0.804810 0.639648 0.000000
0.804810 0.639648 0.065277
0.804810 0.639648 0.187347
0.804810 0.639648 0.321136
0.804810 0.639648 0.460784
0.804810 0.639648 0.600433
0.804810 0.639648 0.734222
0.804810 0.639648 0.856292
0.804810 0.639648 0.960784
0.804810 0.773438 0.000000
0.804810 0.773438 0.065277
0.804810 0.773438 0.187347
0.804810 0.773438 0.321136
0.804810 0.773438 0.460784
0.804810 0.773438 0.600433
0.804810 0.773438 0.734222
0.804810 0.773438 0.856292
0.804810 0.773438 0.960784
0.804810 0.895508 0.000000
0.804810 0.895508 0.065277
0.804810 0.895508 0.187347
0.804810 0.895508 0.321136
0.804810 0.895508 0.460784
0.804810 0.895508 0.600433
0.804810 0.895508 0.734222
0.804810 0.895508 0.856292
0.804810 0.895508 0.960784
0.804810 1.000000 0.000000
0.804810 1.000000 0.065277
0.804810 1.000000 0.187347
0.804810 1.000000 0.321136
0.804810 1.000000 0.460784
0.804810 1.000000 0.600433
0.804810 1.000000 0.734222
0.804810 1.000000 0.856292
0.804810 1.000000 0.960784
0.926880 0.000000 0.000000
0.926880 0.000000 0.065277
0.926880 0.000000 0.187347
0.926880 0.000000 0.321136
0.926880 0.000000 0.460784
0.926880 0.000000 0.600433
0.926880 0.000000 0.734222
0.926880 0.000000 0.856292
0.926880 0.000000 0.960784
0.926880 0.104492 0.000000
0.926880 0.104492 0.065277
0.926880 0.104492 0.187347
0.926880 0.104492 0.321136
0.926880 0.104492 0.460784
0.926880 0.104492 0.600433
0.926880 0.104492 0.734222
0.926880 0.104492 0.856292
0.926880 0.104492 0.960784
0.926880 0.226562 0.000000
0.926880 0.226562 0.065277
0.926880 0.226562 0.187347
0.926880 0.226562 0.321136
0.926880 0.226562 0.460784
0.926880 0.226562 0.600433
0.926880 0.226562 0.734222
0.926880 0.226562 0.856292
0.926880 0.226562 0.960784
0.926880 0.360352 0.000000
0.926880 0.360352 0.065277
0.926880 0.360352 0.187347
0.926880 0.360352 0.321136
0.926880 0.360352 0.460784
0.926880 0.360352 0.600433
0.926880 0.360352 0.734222
0.926880 0.360352 0.856292
0.926880 0.360352 0.960784
0.926880 0.500000 0.000000
0.926880 0.500000 0.065277
0.926880 0.500000 0.187347
0.926880 0.500000 0.321136
0.926880 0.500000 0.460784
0.926880 0.500000 0.600433
0.926880 0.500000 0.734222
0.926880 0.500000 0.856292
0.926880 0.500000 0.960784
0.926880 0.639648 0.000000
0.926880 0.639648 0.065277
0.926880 0.639648 0.187347
0.926880 0.639648 0.321136
0.926880 0.639648 0.460784
0.926880 0.639648 0.600433
0.926880 0.639648 0.734222
0.926880 0.639648 0.856292
0.926880 0.639648 0.960784
0.926880 0.773438 0.000000
0.926880 0.773438 0.065277
0.926880 0.773438 0.187347
0.926880 0.773438 0.321136
0.926880 0.773438 0.460784
0.926880 0.773438 0.600433
0.926880 0.773438 0.734222
0.926880 0.773438 0.856292
0.926880 0.773438 0.960784
0.926880 0.895508 0.000000
0.926880 0.895508 0.065277
0.926880 0.895508 0.187347
0.926880 0.895508 0.321136
0.926880 0.895508 0.460784
0.926880 0.895508 0.600433
0.926880 0.895508 0.734222
0.926880 0.895508 0.856292
0.926880 0.895508 0.960784
0.926880 1.000000 0.000000
0.926880 1.000000 0.065277
0.926880 1.000000 0.187347
0.926880 1.000000 0.321136
0.926880 1.000000 0.460784
0.926880 1.000000 0.600433
0.926880 1.000000 0.734222
0.926880 1.000000 0.856292
0.926880 1.000000 0.960784
1.000000 0.000000 0.000000
1.000000 0.000000 0.065277
1.000000 0.000000 0.187347
1.000000 0.000000 0.321136
1.000000 0.000000 0.460784
1.000000 0.000000 0.600433
1.000000 0.000000 0.734222
1.000000 0.000000 0.856292
1.000000 0.000000 0.960784
1.000000 0.104492 0.000000
1.000000 0.104492 0.065277
1.000000 0.104492 0.187347
1.000000 0.104492 0.321136
1.000000 0.104492 0.460784
1.000000 0.104492 0.600433
1.000000 0.104492 0.734222
1.000000 0.104492 0.856292
1.000000 0.104492 0.960784
1.000000 0.226562 0.000000
1.000000 0.226562 0.065277
1.000000 0.226562 0.187347
1.000000 0.226562 0.321136
1.000000 0.226562 0.460784
1.000000 0.226562 0.600433
1.000000 0.226562 0.734222
1.000000 0.226562 0.856292
1.000000 0.226562 0.960784
1.000000 0.360352 0.000000
1.000000 0.360352 0.065277
1.000000 0.360352 0.187347
1.000000 0.360352 0.321136
1.000000 0.360352 0.460784
1.000000 0.360352 0.600433
1.000000 0.360352 0.734222
1.000000 0.360352 0.856292
1.000000 0.360352 0.960784
1.000000 0.500000 0.000000
1.000000 0.500000 0.065277
1.000000 0.500000 0.187347
1.000000 0.500000 0.321136
1.000000 0.500000 0.460784
1.000000 0.500000 0.600433
1.000000 0.500000 0.734222
1.000000 0.500000 0.856292
1.000000 0.500000 0.960784
1.000000 0.639648 0.000000
1.000000 0.639648 0.065277
1.000000 0.639648 0.187347
1.000000 0.639648 0.321136
1.000000 0.639648 0.460784
1.000000 0.639648 0.600433
1.000000 0.639648 0.734222
1.000000 0.639648 0.856292
1.000000 0.639648 0.960784
1.000000 0.773438 0.000000
1.000000 0.773438 0.065277
1.000000 0.773438 0.187347
1.000000 0.773438 0.321136
1.000000 0.773438 0.460784
1.000000 0.773438 0.600433
1.000000 0.773438 0.734222
1.000000 0.773438 0.856292
1.000000 0.773438 0.960784
1.000000 0.895508 0.000000
1.000000 0.895508 0.065277
1.000000 0.895508 0.187347
1.000000 0.895508 0.321136
1.000000 0.895508 0.460784
1.000000 0.895508 0.600433
1.000000 0.895508 0.734222
1.000000 0.895508 0.856292
1.000000 0.895508 0.960784
1.000000 1.000000 0.000000
1.000000 1.000000 0.065277
1.000000 1.000000 0.187347
1.000000 1.000000 0.321136
1.000000 1.000000 0.460784
1.000000 1.000000 0.600433
1.000000 1.000000 0.734222
1.000000 1.000000 0.856292
1.000000 1.000000 0.960784
