camera/src/main/assets/lut_cinematic.cube
# SPECTRA Cinematic
LUT_3D_SIZE 9
0.078431 0.095809 0.113187
0.078431 0.095212 0.217386
0.078431 0.094616 0.321584
0.078431 0.094019 0.425783
0.078431 0.093422 0.529981
0.078431 0.092825 0.634180
0.078431 0.092228 0.738378
0.078431 0.091632 0.842577
0.078431 0.091035 0.946776
0.078431 0.195290 0.101363
0.078431 0.194693 0.205562
0.078431 0.194096 0.309761
0.078431 0.193499 0.413959
0.078431 0.192902 0.518158
0.078431 0.192306 0.622356
0.078431 0.191709 0.726555
0.078431 0.191112 0.830753
0.078431 0.190515 0.934952
0.078431 0.294770 0.089540
0.078431 0.294173 0.193738
0.078431 0.293576 0.297937
0.078431 0.292979 0.402135
0.078431 0.292383 0.506334
0.078431 0.291786 0.610532
0.078431 0.291189 0.714731
0.078431 0.290592 0.818929
0.078431 0.289995 0.923128
0.078431 0.394608 0.078431
0.078431 0.394608 0.183824
0.078431 0.394608 0.289216
0.078431 0.394608 0.394608
0.078431 0.394608 0.500000
0.078431 0.394608 0.605392
0.078431 0.394608 0.710784
0.078431 0.394608 0.816176
0.078431 0.394608 0.921569
0.078431 0.500000 0.078431
0.078431 0.500000 0.183824
0.078431 0.500000 0.289216
0.078431 0.500000 0.394608
0.078431 0.500000 0.500000
0.078431 0.500000 0.605392
0.078431 0.500000 0.710784
0.078431 0.500000 0.816176
0.078431 0.500000 0.921569
0.078431 0.605392 0.078431
0.078431 0.605392 0.183824
0.078431 0.605392 0.289216
0.078431 0.605392 0.394608
0.078431 0.605392 0.500000
0.078431 0.605392 0.605392
0.078431 0.605392 0.710784
0.078431 0.605392 0.816176
0.078431 0.605392 0.921569
0.078431 0.710784 0.078431
0.078431 0.710784 0.183824
0.078431 0.710784 0.289216
0.078431 0.710784 0.394608
0.078431 0.710784 0.500000
0.078431 0.710784 0.605392
0.078431 0.710784 0.710784
0.078431 0.710784 0.816176
0.078431 0.710784 0.921569
0.078431 0.816176 0.078431
0.078431 0.816176 0.183824
0.078431 0.816176 0.289216
0.078431 0.816176 0.394608
0.078431 0.816176 0.500000
0.078431 0.816176 0.605392
0.078431 0.816176 0.710784
0.078431 0.816176 0.816176
0.078431 0.816176 0.921569
0.078431 0.921569 0.078431
0.078431 0.921569 0.183824
0.078431 0.921569 0.289216
0.078766 0.921569 0.394385
0.079363 0.921569 0.499379
0.079960 0.921569 0.604373
0.080557 0.921569 0.709367
0.081154 0.921569 0.814362
0.081750 0.921569 0.919356
0.183824 0.094052 0.109673
0.183824 0.093455 0.213871
0.183824 0.092858 0.318070
0.183824 0.092262 0.422268
0.183824 0.091665 0.526467
0.183824 0.091068 0.630665
0.183824 0.090471 0.734864
0.183824 0.089874 0.839062
0.183824 0.089277 0.943261
0.183824 0.193532 0.097849
0.183824 0.192935 0.202047
0.183824 0.192339 0.306246
0.183824 0.191742 0.410444
0.183824 0.191145 0.514643
0.183824 0.190548 0.618841
0.183824 0.189951 0.723040
0.183824 0.189355 0.827239
0.183824 0.188758 0.931437
0.183824 0.293012 0.086025
0.183824 0.292416 0.190224
0.183824 0.291819 0.294422
0.183824 0.291222 0.398621
0.183824 0.290625 0.502819
0.183824 0.290028 0.607018
0.183824 0.289432 0.711216
0.183824 0.289216 0.816176
0.183824 0.289216 0.921569
0.183824 0.394608 0.078431
0.183824 0.394608 0.183824
0.183824 0.394608 0.289216
0.183824 0.394608 0.394608
0.183824 0.394608 0.500000
0.183824 0.394608 0.605392
0.183824 0.394608 0.710784
0.183824 0.394608 0.816176
0.183824 0.394608 0.921569
0.183824 0.500000 0.078431
0.183824 0.500000 0.183824
0.183824 0.500000 0.289216
0.183824 0.500000 0.394608
0.183824 0.500000 0.500000
0.183824 0.500000 0.605392
0.183824 0.500000 0.710784
0.183824 0.500000 0.816176
0.183824 0.500000 0.921569
0.183824 0.605392 0.078431
0.183824 0.605392 0.183824
0.183824 0.605392 0.289216
0.183824 0.605392 0.394608
0.183824 0.605392 0.500000
0.183824 0.605392 0.605392
0.183824 0.605392 0.710784
0.183824 0.605392 0.816176
0.183824 0.605392 0.921569
0.183824 0.710784 0.078431
0.183824 0.710784 0.183824
0.183824 0.710784 0.289216
0.183824 0.710784 0.394608
0.183824 0.710784 0.500000
0.183824 0.710784 0.605392
0.183824 0.710784 0.710784
0.183824 0.710784 0.816176
0.183824 0.710784 0.921569
0.183824 0.816176 0.078431
0.183824 0.816176 0.183824
0.183824 0.816176 0.289216
0.183824 0.816176 0.394608
0.183824 0.816176 0.500000
0.183824 0.816176 0.605392
0.183824 0.816176 0.710784
0.183824 0.816176 0.816176
0.183824 0.816176 0.921569
0.184125 0.921569 0.078230
0.184722 0.921569 0.183224
0.185319 0.921569 0.288219
0.185916 0.921569 0.393213
0.186513 0.921569 0.498207
0.187109 0.921569 0.603202
0.187706 0.921569 0.708196
0.188303 0.921569 0.813190
0.188900 0.921569 0.918184
0.289216 0.092295 0.106158
0.289216 0.091698 0.210356
0.289216 0.091101 0.314555
0.289216 0.090504 0.418753
0.289216 0.089907 0.522952
0.289216 0.089311 0.627150
0.289216 0.088714 0.731349
0.289216 0.088117 0.835548
0.289216 0.087520 0.939746
0.289216 0.191775 0.094334
0.289216 0.191178 0.198533
0.289216 0.190581 0.302731
0.289216 0.189984 0.406930
0.289216 0.189388 0.511128
0.289216 0.188791 0.615327
0.289216 0.188194 0.719525
0.289216 0.187597 0.823724
0.289216 0.187000 0.927922
0.289216 0.291255 0.082510
0.289216 0.290658 0.186709
0.289216 0.290062 0.290907
0.289216 0.289465 0.395106
0.289216 0.289216 0.500000
0.289216 0.289216 0.605392
0.289216 0.289216 0.710784
0.289216 0.289216 0.816176
0.289216 0.289216 0.921569
0.289216 0.394608 0.078431
0.289216 0.394608 0.183824
0.289216 0.394608 0.289216
0.289216 0.394608 0.394608
0.289216 0.394608 0.500000
0.289216 0.394608 0.605392
0.289216 0.394608 0.710784
0.289216 0.394608 0.816176
0.289216 0.394608 0.921569
0.289216 0.500000 0.078431
0.289216 0.500000 0.183824
0.289216 0.500000 0.289216
0.289216 0.500000 0.394608
0.289216 0.500000 0.500000
0.289216 0.500000 0.605392
0.289216 0.500000 0.710784
0.289216 0.500000 0.816176
0.289216 0.500000 0.921569
0.289216 0.605392 0.078431
0.289216 0.605392 0.183824
0.289216 0.605392 0.289216
0.289216 0.605392 0.394608
0.289216 0.605392 0.500000
0.289216 0.605392 0.605392
0.289216 0.605392 0.710784
0.289216 0.605392 0.816176
0.289216 0.605392 0.921569
0.289216 0.710784 0.078431
0.289216 0.710784 0.183824
0.289216 0.710784 0.289216
0.289216 0.710784 0.394608
0.289216 0.710784 0.500000
0.289216 0.710784 0.605392
0.289216 0.710784 0.710784
0.289216 0.710784 0.816176
0.289216 0.710784 0.921569
0.289216 0.816176 0.078431
0.289216 0.816176 0.183824
0.289216 0.816176 0.289216
0.289216 0.816176 0.394608
0.289216 0.816176 0.500000
0.289216 0.816176 0.605392
0.289216 0.816176 0.710784
0.289541 0.816176 0.815960
0.290138 0.816176 0.920954
0.291275 0.921569 0.077059
0.291872 0.921569 0.182053
0.292469 0.921569 0.287047
0.293065 0.921569 0.392041
0.293662 0.921569 0.497036
0.294259 0.921569 0.602030
0.294856 0.921569 0.707024
0.295453 0.921569 0.812019
0.296049 0.921569 0.917013
0.394608 0.090537 0.102643
0.394608 0.089940 0.206842
0.394608 0.089344 0.311040
0.394608 0.088747 0.415239
0.394608 0.088150 0.519437
0.394608 0.087553 0.623636
0.394608 0.086956 0.727834
0.394608 0.086360 0.832033
0.394608 0.085763 0.936231
0.394608 0.190017 0.090819
0.394608 0.189421 0.195018
0.394608 0.188824 0.299216
0.394608 0.188227 0.403415
0.394608 0.187630 0.507613
0.394608 0.187033 0.611812
0.394608 0.186437 0.716011
0.394608 0.185840 0.820209
0.394608 0.185243 0.924408
0.394608 0.289498 0.078996
0.394608 0.289216 0.183824
0.394608 0.289216 0.289216
0.394608 0.289216 0.394608
0.394608 0.289216 0.500000
0.394608 0.289216 0.605392
0.394608 0.289216 0.710784
0.394608 0.289216 0.816176
0.394608 0.289216 0.921569
0.394608 0.394608 0.078431
0.394608 0.394608 0.183824
0.394608 0.394608 0.289216
0.394608 0.394608 0.394608
0.394608 0.394608 0.500000
0.394608 0.394608 0.605392
0.394608 0.394608 0.710784
0.394608 0.394608 0.816176
0.394608 0.394608 0.921569
0.394608 0.500000 0.078431
0.394608 0.500000 0.183824
0.394608 0.500000 0.289216
0.394608 0.500000 0.394608
0.394608 0.500000 0.500000
0.394608 0.500000 0.605392
0.394608 0.500000 0.710784
0.394608 0.500000 0.816176
0.394608 0.500000 0.921569
0.394608 0.605392 0.078431
0.394608 0.605392 0.183824
0.394608 0.605392 0.289216
0.394608 0.605392 0.394608
0.394608 0.605392 0.500000
0.394608 0.605392 0.605392
0.394608 0.605392 0.710784
0.394608 0.605392 0.816176
0.394608 0.605392 0.921569
0.394608 0.710784 0.078431
0.394608 0.710784 0.183824
0.394608 0.710784 0.289216
0.394608 0.710784 0.394608
0.394608 0.710784 0.500000
0.394608 0.710784 0.605392
0.394608 0.710784 0.710784
0.394608 0.710784 0.816176
0.394608 0.710784 0.921569
0.394608 0.816176 0.078431
0.394608 0.816176 0.183824
0.394608 0.816176 0.289216
0.394608 0.816176 0.394608
0.394900 0.816176 0.499805
0.395497 0.816176 0.604800
0.396093 0.816176 0.709794
0.396690 0.816176 0.814788
0.397287 0.816176 0.919782
0.398424 0.921569 0.075887
0.399021 0.921569 0.180881
0.399618 0.921569 0.285876
0.400215 0.921569 0.390870
0.400812 0.921569 0.495864
0.401409 0.921569 0.600858
0.402005 0.921569 0.705853
0.402602 0.921569 0.810847
0.403199 0.921569 0.915841
0.500000 0.088780 0.099128
0.500000 0.088183 0.203327
0.500000 0.087586 0.307525
0.500000 0.086989 0.411724
0.500000 0.086393 0.515922
0.500000 0.085796 0.620121
0.500000 0.085199 0.724320
0.500000 0.084602 0.828518
0.500000 0.084005 0.932717
0.500000 0.188260 0.087305
0.500000 0.187663 0.191503
0.500000 0.187067 0.295702
0.500000 0.186470 0.399900
0.500000 0.185873 0.504099
0.500000 0.185276 0.608297
0.500000 0.184679 0.712496
0.500000 0.184082 0.816694
0.500000 0.183824 0.921569
0.500000 0.289216 0.078431
0.500000 0.289216 0.183824
0.500000 0.289216 0.289216
0.500000 0.289216 0.394608
0.500000 0.289216 0.500000
0.500000 0.289216 0.605392
0.500000 0.289216 0.710784
0.500000 0.289216 0.816176
0.500000 0.289216 0.921569
0.500000 0.394608 0.078431
0.500000 0.394608 0.183824
0.500000 0.394608 0.289216
0.500000 0.394608 0.394608
0.500000 0.394608 0.500000
0.500000 0.394608 0.605392
0.500000 0.394608 0.710784
0.500000 0.394608 0.816176
0.500000 0.394608 0.921569
0.500000 0.500000 0.078431
0.500000 0.500000 0.183824
0.500000 0.500000 0.289216
0.500000 0.500000 0.394608
0.500000 0.500000 0.500000
0.500000 0.500000 0.605392
0.500000 0.500000 0.710784
0.500000 0.500000 0.816176
0.500000 0.500000 0.921569
0.500000 0.605392 0.078431
0.500000 0.605392 0.183824
0.500000 0.605392 0.289216
0.500000 0.605392 0.394608
0.500000 0.605392 0.500000
0.500000 0.605392 0.605392
0.500000 0.605392 0.710784
0.500000 0.605392 0.816176
0.500000 0.605392 0.921569
0.500000 0.710784 0.078431
0.500000 0.710784 0.183824
0.500000 0.710784 0.289216
0.500000 0.710784 0.394608
0.500000 0.710784 0.500000
0.500000 0.710784 0.605392
0.500000 0.710784 0.710784
0.500000 0.710784 0.816176
0.500000 0.710784 0.921569
0.500000 0.816176 0.078431
0.500259 0.816176 0.183651
0.500856 0.816176 0.288645
0.501453 0.816176 0.393639
0.502049 0.816176 0.498634
0.502646 0.816176 0.603628
0.503243 0.816176 0.708622
0.503840 0.816176 0.813617
0.504437 0.816176 0.918611
0.505574 0.921569 0.074715
0.506171 0.921569 0.179710
0.506768 0.921569 0.284704
0.507364 0.921569 0.389698
0.507961 0.921569 0.494693
0.508558 0.921569 0.599687
0.509155 0.921569 0.704681
0.509752 0.921569 0.809675
0.510348 0.921569 0.914670
0.605392 0.087022 0.095614
0.605392 0.086426 0.199812
0.605392 0.085829 0.304011
0.605392 0.085232 0.408209
0.605392 0.084635 0.512408
0.605392 0.084038 0.616606
0.605392 0.083442 0.720805
0.605392 0.082845 0.825003
0.605392 0.082248 0.929202
0.605392 0.186503 0.083790
0.605392 0.185906 0.187988
0.605392 0.185309 0.292187
0.605392 0.184712 0.396385
0.605392 0.184116 0.500584
0.605392 0.183824 0.605392
0.605392 0.183824 0.710784
0.605392 0.183824 0.816176
0.605392 0.183824 0.921569
0.605392 0.289216 0.078431
0.605392 0.289216 0.183824
0.605392 0.289216 0.289216
0.605392 0.289216 0.394608
0.605392 0.289216 0.500000
0.605392 0.289216 0.605392
0.605392 0.289216 0.710784
0.605392 0.289216 0.816176
0.605392 0.289216 0.921569
0.605392 0.394608 0.078431
0.605392 0.394608 0.183824
0.605392 0.394608 0.289216
0.605392 0.394608 0.394608
0.605392 0.394608 0.500000
0.605392 0.394608 0.605392
0.605392 0.394608 0.710784
0.605392 0.394608 0.816176
0.605392 0.394608 0.921569
0.605392 0.500000 0.078431
0.605392 0.500000 0.183824
0.605392 0.500000 0.289216
0.605392 0.500000 0.394608
0.605392 0.500000 0.500000
0.605392 0.500000 0.605392
0.605392 0.500000 0.710784
0.605392 0.500000 0.816176
0.605392 0.500000 0.921569
0.605392 0.605392 0.078431
0.605392 0.605392 0.183824
0.605392 0.605392 0.289216
0.605392 0.605392 0.394608
0.605392 0.605392 0.500000
0.605392 0.605392 0.605392
0.605392 0.605392 0.710784
0.605392 0.605392 0.816176
0.605392 0.605392 0.921569
0.605392 0.710784 0.078431
0.605392 0.710784 0.183824
0.605392 0.710784 0.289216
0.605392 0.710784 0.394608
0.605392 0.710784 0.500000
0.605392 0.710784 0.605392
0.605392 0.710784 0.710784
0.605392 0.710784 0.816176
0.605674 0.710784 0.921381
0.606812 0.816176 0.077485
0.607408 0.816176 0.182479
0.608005 0.816176 0.287474
0.608602 0.816176 0.392468
0.609199 0.816176 0.497462
0.609796 0.816176 0.602456
0.610393 0.816176 0.707451
0.610989 0.816176 0.812445
0.611586 0.816176 0.917439
0.612724 0.921569 0.073544
0.613320 0.921569 0.178538
0.613917 0.921569 0.283532
0.614514 0.921569 0.388527
0.615111 0.921569 0.493521
0.615708 0.921569 0.598515
0.616304 0.921569 0.703509
0.616901 0.921569 0.808504
0.617498 0.921569 0.913498
0.710784 0.085265 0.092099
0.710784 0.084668 0.196297
0.710784 0.084072 0.300496
0.710784 0.083475 0.404695
0.710784 0.082878 0.508893
0.710784 0.082281 0.613092
0.710784 0.081684 0.717290
0.710784 0.081087 0.821489
0.710784 0.080491 0.925687
0.710784 0.184745 0.080275
0.710784 0.184149 0.184474
0.710784 0.183824 0.289216
0.710784 0.183824 0.394608
0.710784 0.183824 0.500000
0.710784 0.183824 0.605392
0.710784 0.183824 0.710784
0.710784 0.183824 0.816176
0.710784 0.183824 0.921569
0.710784 0.289216 0.078431
0.710784 0.289216 0.183824
0.710784 0.289216 0.289216
0.710784 0.289216 0.394608
0.710784 0.289216 0.500000
0.710784 0.289216 0.605392
0.710784 0.289216 0.710784
0.710784 0.289216 0.816176
0.710784 0.289216 0.921569
0.710784 0.394608 0.078431
0.710784 0.394608 0.183824
0.710784 0.394608 0.289216
0.710784 0.394608 0.394608
0.710784 0.394608 0.500000
0.710784 0.394608 0.605392
0.710784 0.394608 0.710784
0.710784 0.394608 0.816176
0.710784 0.394608 0.921569
0.710784 0.500000 0.078431
0.710784 0.500000 0.183824
0.710784 0.500000 0.289216
0.710784 0.500000 0.394608
0.710784 0.500000 0.500000
0.710784 0.500000 0.605392
0.710784 0.500000 0.710784
0.710784 0.500000 0.816176
0.710784 0.500000 0.921569
0.710784 0.605392 0.078431
0.710784 0.605392 0.183824
0.710784 0.605392 0.289216
0.710784 0.605392 0.394608
0.710784 0.605392 0.500000
0.710784 0.605392 0.605392
0.710784 0.605392 0.710784
0.710784 0.605392 0.816176
0.710784 0.605392 0.921569
0.710784 0.710784 0.078431
0.710784 0.710784 0.183824
0.710784 0.710784 0.289216
0.710784 0.710784 0.394608
0.710784 0.710784 0.500000
0.711033 0.710784 0.605226
0.711630 0.710784 0.710220
0.712227 0.710784 0.815215
0.712824 0.710784 0.920209
0.713961 0.816176 0.076313
0.714558 0.816176 0.181308
0.715155 0.816176 0.286302
0.715752 0.816176 0.391296
0.716348 0.816176 0.496291
0.716945 0.816176 0.601285
0.717542 0.816176 0.706279
0.718139 0.816176 0.811273
0.718736 0.816176 0.916268
0.719873 0.921569 0.072372
0.720470 0.921569 0.177367
0.721067 0.921569 0.282361
0.721663 0.921569 0.387355
0.722260 0.921569 0.492349
0.722857 0.921569 0.597344
0.723454 0.921569 0.702338
0.724051 0.921569 0.807332
0.724648 0.921569 0.912326
0.816176 0.083508 0.088584
0.816176 0.082911 0.192783
0.816176 0.082314 0.296981
0.816176 0.081717 0.401180
0.816176 0.081121 0.505378
0.816176 0.080524 0.609577
0.816176 0.079927 0.713775
0.816176 0.079330 0.817974
0.816176 0.078733 0.922172
0.816176 0.183824 0.078431
0.816176 0.183824 0.183824
0.816176 0.183824 0.289216
0.816176 0.183824 0.394608
0.816176 0.183824 0.500000
0.816176 0.183824 0.605392
0.816176 0.183824 0.710784
0.816176 0.183824 0.816176
0.816176 0.183824 0.921569
0.816176 0.289216 0.078431
0.816176 0.289216 0.183824
0.816176 0.289216 0.289216
0.816176 0.289216 0.394608
0.816176 0.289216 0.500000
0.816176 0.289216 0.605392
0.816176 0.289216 0.710784
0.816176 0.289216 0.816176
0.816176 0.289216 0.921569
0.816176 0.394608 0.078431
0.816176 0.394608 0.183824
0.816176 0.394608 0.289216
0.816176 0.394608 0.394608
0.816176 0.394608 0.500000
0.816176 0.394608 0.605392
0.816176 0.394608 0.710784
0.816176 0.394608 0.816176
0.816176 0.394608 0.921569
0.816176 0.500000 0.078431
0.816176 0.500000 0.183824
0.816176 0.500000 0.289216
0.816176 0.500000 0.394608
0.816176 0.500000 0.500000
0.816176 0.500000 0.605392
0.816176 0.500000 0.710784
0.816176 0.500000 0.816176
0.816176 0.500000 0.921569
0.816176 0.605392 0.078431
0.816176 0.605392 0.183824
0.816176 0.605392 0.289216
0.816176 0.605392 0.394608
0.816176 0.605392 0.500000
0.816176 0.605392 0.605392
0.816176 0.605392 0.710784
0.816176 0.605392 0.816176
0.816176 0.605392 0.921569
0.816176 0.710784 0.078431
0.816176 0.710784 0.183824
0.816392 0.710784 0.289072
0.816989 0.710784 0.394066
0.817586 0.710784 0.499060
0.818183 0.710784 0.604055
0.818780 0.710784 0.709049
0.819376 0.710784 0.814043
0.819973 0.710784 0.919037
0.821111 0.816176 0.075142
0.821707 0.816176 0.180136
0.822304 0.816176 0.285130
0.822901 0.816176 0.390125
0.823498 0.816176 0.495119
0.824095 0.816176 0.600113
0.824692 0.816176 0.705108
0.825288 0.816176 0.810102
0.825885 0.816176 0.915096
0.827023 0.921569 0.071201
0.827619 0.921569 0.176195
0.828216 0.921569 0.281189
0.828813 0.921569 0.386183
0.829410 0.921569 0.491178
0.830007 0.921569 0.596172
0.830603 0.921569 0.701166
0.831200 0.921569 0.806161
0.831797 0.921569 0.911155
0.921569 0.081750 0.085069
0.921569 0.081154 0.189268
0.921569 0.080557 0.293467
0.921569 0.079960 0.397665
0.921569 0.079363 0.501864
0.921569 0.078766 0.606062
0.921569 0.078431 0.710784
0.921569 0.078431 0.816176
0.921569 0.078431 0.921569
0.921569 0.183824 0.078431
0.921569 0.183824 0.183824
0.921569 0.183824 0.289216
0.921569 0.183824 0.394608
0.921569 0.183824 0.500000
0.921569 0.183824 0.605392
0.921569 0.183824 0.710784
0.921569 0.183824 0.816176
0.921569 0.183824 0.921569
0.921569 0.289216 0.078431
0.921569 0.289216 0.183824
0.921569 0.289216 0.289216
0.921569 0.289216 0.394608
0.921569 0.289216 0.500000
0.921569 0.289216 0.605392
0.921569 0.289216 0.710784
0.921569 0.289216 0.816176
0.921569 0.289216 0.921569
0.921569 0.394608 0.078431
0.921569 0.394608 0.183824
0.921569 0.394608 0.289216
0.921569 0.394608 0.394608
0.921569 0.394608 0.500000
0.921569 0.394608 0.605392
0.921569 0.394608 0.710784
0.921569 0.394608 0.816176
0.921569 0.394608 0.921569
0.921569 0.500000 0.078431
0.921569 0.500000 0.183824
0.921569 0.500000 0.289216
0.921569 0.500000 0.394608
0.921569 0.500000 0.500000
0.921569 0.500000 0.605392
0.921569 0.500000 0.710784
0.921569 0.500000 0.816176
0.921569 0.500000 0.921569
0.921569 0.605392 0.078431
0.921569 0.605392 0.183824
0.921569 0.605392 0.289216
0.921569 0.605392 0.394608
0.921569 0.605392 0.500000
0.921569 0.605392 0.605392
0.921569 0.605392 0.710784
0.921569 0.605392 0.816176
0.921569 0.605392 0.921569
0.922348 0.710784 0.077912
0.922945 0.710784 0.182906
0.923542 0.710784 0.287900
0.924139 0.710784 0.392894
0.924736 0.710784 0.497889
0.925332 0.710784 0.602883
0.925929 0.710784 0.707877
0.926526 0.710784 0.812872
0.927123 0.710784 0.917866
0.928260 0.816176 0.073970
0.928857 0.816176 0.178965
0.929454 0.816176 0.283959
0.930051 0.816176 0.388953
0.930647 0.816176 0.493947
0.931244 0.816176 0.598942
0.931841 0.816176 0.703936
0.932438 0.816176 0.808930
0.933035 0.816176 0.913925
0.934172 0.921569 0.070029
0.934769 0.921569 0.175023
0.935366 0.921569 0.280018
0.935963 0.921569 0.385012
0.936559 0.921569 0.490006
0.937156 0.921569 0.595000
0.937753 0.921569 0.699995
0.938350 0.921569 0.804989
0.938947 0.921569 0.909983
