camera/src/main/assets/lut_warm.cube
# SPECTRA Warm
LUT_3D_SIZE 33
0.031373 0.000000 0.000000
0.031373 0.000000 0.000000
0.031373 0.000000 0.010467
0.031373 0.000000 0.037277
0.031373 0.000000 0.065277
0.031373 0.000000 0.094375
0.031373 0.000000 0.124481
0.031373 0.000000 0.155502
0.031373 0.000000 0.187347
0.031373 0.000000 0.219924
0.031373 0.000000 0.253143
0.031373 0.000000 0.286910
0.031373 0.000000 0.321136
0.031373 0.000000 0.355728
0.031373 0.000000 0.390594
0.031373 0.000000 0.425643
0.031373 0.000000 0.460784
0.031373 0.000000 0.495925
0.031373 0.000000 0.530975
0.031373 0.000000 0.565841
0.031373 0.000000 0.600433
0.031373 0.000000 0.634658
0.031373 0.000000 0.668426
0.031373 0.000000 0.701644
0.031373 0.000000 0.734222
0.031373 0.000000 0.766067
0.031373 0.000000 0.797088
0.031373 0.000000 0.827194
0.031373 0.000000 0.856292
0.031373 0.000000 0.884292
0.031373 0.000000 0.911102
0.031373 0.000000 0.936630
0.031373 0.000000 0.960784
0.031373 0.024155 0.000000
0.031373 0.024155 0.000000
0.031373 0.024155 0.010467
0.031373 0.024155 0.037277
0.031373 0.024155 0.065277
0.031373 0.024155 0.094375
0.031373 0.024155 0.124481
0.031373 0.024155 0.155502
0.031373 0.024155 0.187347
0.031373 0.024155 0.219924
0.031373 0.024155 0.253143
0.031373 0.024155 0.286910
0.031373 0.024155 0.321136
0.031373 0.024155 0.355728
0.031373 0.024155 0.390594
0.031373 0.024155 0.425643
0.031373 0.024155 0.460784
0.031373 0.024155 0.495925
0.031373 0.024155 0.530975
0.031373 0.024155 0.565841
0.031373 0.024155 0.600433
0.031373 0.024155 0.634658
0.031373 0.024155 0.668426
0.031373 0.024155 0.701644
0.031373 0.024155 0.734222
0.031373 0.024155 0.766067
0.031373 0.024155 0.797088
0.031373 0.024155 0.827194
0.031373 0.024155 0.856292
0.031373 0.024155 0.884292
0.031373 0.024155 0.911102
0.031373 0.024155 0.936630
0.031373 0.024155 0.960784
0.031373 0.049683 0.000000
0.031373 0.049683 0.000000
0.031373 0.049683 0.010467
0.031373 0.049683 0.037277
0.031373 0.049683 0.065277
0.031373 0.049683 0.094375
0.031373 0.049683 0.124481
0.031373 0.049683 0.155502
0.031373 0.049683 0.187347
0.031373 0.049683 0.219924
0.031373 0.049683 0.253143
0.031373 0.049683 0.286910
0.031373 0.049683 0.321136
0.031373 0.049683 0.355728
0.031373 0.049683 0.390594
0.031373 0.049683 0.425643
0.031373 0.049683 0.460784
0.031373 0.049683 0.495925
0.031373 0.049683 0.530975
0.031373 0.049683 0.565841
0.031373 0.049683 0.600433
0.031373 0.049683 0.634658
0.031373 0.049683 0.668426
0.031373 0.049683 0.701644
0.031373 0.049683 0.734222
0.031373 0.049683 0.766067
0.031373 0.049683 0.797088
0.031373 0.049683 0.827194
0.031373 0.049683 0.856292
0.031373 0.049683 0.884292
0.031373 0.049683 0.911102
0.031373 0.049683 0.936630
0.031373 0.049683 0.960784
0.031373 0.076492 0.000000
0.031373 0.076492 0.000000
0.031373 0.076492 0.010467
0.031373 0.076492 0.037277
0.031373 0.076492 0.065277
0.031373 0.076492 0.094375
0.031373 0.076492 0.124481
0.031373 0.076492 0.155502
0.031373 0.076492 0.187347
0.031373 0.076492 0.219924
0.031373 0.076492 0.253143
0.031373 0.076492 0.286910
0.031373 0.076492 0.321136
0.031373 0.076492 0.355728
0.031373 0.076492 0.390594
0.031373 0.076492 0.425643
0.031373 0.076492 0.460784
0.031373 0.076492 0.495925
0.031373 0.076492 0.530975
0.031373 0.076492 0.565841
0.031373 0.076492 0.600433
0.031373 0.076492 0.634658
0.031373 0.076492 0.668426
0.031373 0.076492 0.701644
0.031373 0.076492 0.734222
0.031373 0.076492 0.766067
0.031373 0.076492 0.797088
0.031373 0.076492 0.827194
0.031373 0.076492 0.856292
0.031373 0.076492 0.884292
0.031373 0.076492 0.911102
0.031373 0.076492 0.936630
0.031373 0.076492 0.960784
0.031373 0.104492 0.000000
0.031373 0.104492 0.000000
0.031373 0.104492 0.010467
0.031373 0.104492 0.037277
0.031373 0.104492 0.065277
0.031373 0.104492 0.094375
0.031373 0.104492 0.124481
0.031373 0.104492 0.155502
0.031373 0.104492 0.187347
0.031373 0.104492 0.219924
0.031373 0.104492 0.253143
0.031373 0.104492 0.286910
0.031373 0.104492 0.321136
0.031373 0.104492 0.355728
0.031373 0.104492 0.390594
0.031373 0.104492 0.425643
0.031373 0.104492 0.460784
0.031373 0.104492 0.495925
0.031373 0.104492 0.530975
0.031373 0.104492 0.565841
0.031373 0.104492 0.600433
0.031373 0.104492 0.634658
0.031373 0.104492 0.668426
0.031373 0.104492 0.701644
0.031373 0.104492 0.734222
0.031373 0.104492 0.766067
0.031373 0.104492 0.797088
0.031373 0.104492 0.827194
0.031373 0.104492 0.856292
0.031373 0.104492 0.884292
0.031373 0.104492 0.911102
0.031373 0.104492 0.936630
0.031373 0.104492 0.960784
0.031373 0.133591 0.000000
0.031373 0.133591 0.000000
0.031373 0.133591 0.010467
0.031373 0.133591 0.037277
0.031373 0.133591 0.065277
0.031373 0.133591 0.094375
0.031373 0.133591 0.124481
0.031373 0.133591 0.155502
0.031373 0.133591 0.187347
0.031373 0.133591 0.219924
0.031373 0.133591 0.253143
0.031373 0.133591 0.286910
0.031373 0.133591 0.321136
0.031373 0.133591 0.355728
0.031373 0.133591 0.390594
0.031373 0.133591 0.425643
0.031373 0.133591 0.460784
0.031373 0.133591 0.495925
0.031373 0.133591 0.530975
0.031373 0.133591 0.565841
0.031373 0.133591 0.600433
0.031373 0.133591 0.634658
0.031373 0.133591 0.668426
0.031373 0.133591 0.701644
0.031373 0.133591 0.734222
0.031373 0.133591 0.766067
0.031373 0.133591 0.797088
0.031373 0.133591 0.827194
0.031373 0.133591 0.856292
0.031373 0.133591 0.884292
0.031373 0.133591 0.911102
0.031373 0.133591 0.936630
0.031373 0.133591 0.960784
0.031373 0.163696 0.000000
0.031373 0.163696 0.000000
0.031373 0.163696 0.010467
0.031373 0.163696 0.037277
0.031373 0.163696 0.065277
0.031373 0.163696 0.094375
0.031373 0.163696 0.124481
0.031373 0.163696 0.155502
0.031373 0.163696 0.187347
0.031373 0.163696 0.219924
0.031373 0.163696 0.253143
0.031373 0.163696 0.286910
0.031373 0.163696 0.321136
0.031373 0.163696 0.355728
0.031373 0.163696 0.390594
0.031373 0.163696 0.425643
0.031373 0.163696 0.460784
0.031373 0.163696 0.495925
0.031373 0.163696 0.530975
0.031373 0.163696 0.565841
0.031373 0.163696 0.600433
0.031373 0.163696 0.634658
0.031373 0.163696 0.668426
0.031373 0.163696 0.701644
0.031373 0.163696 0.734222
0.031373 0.163696 0.766067
0.031373 0.163696 0.797088
0.031373 0.163696 0.827194
0.031373 0.163696 0.856292
0.031373 0.163696 0.884292
0.031373 0.163696 0.911102
0.031373 0.163696 0.936630
0.031373 0.163696 0.960784
0.031373 0.194717 0.000000
0.031373 0.194717 0.000000
0.031373 0.194717 0.010467
0.031373 0.194717 0.037277
0.031373 0.194717 0.065277
0.031373 0.194717 0.094375
0.031373 0.194717 0.124481
0.031373 0.194717 0.155502
0.031373 0.194717 0.187347
0.031373 0.194717 0.219924
0.031373 0.194717 0.253143
0.031373 0.194717 0.286910
0.031373 0.194717 0.321136
0.031373 0.194717 0.355728
0.031373 0.194717 0.390594
0.031373 0.194717 0.425643
0.031373 0.194717 0.460784
0.031373 0.194717 0.495925
0.031373 0.194717 0.530975
0.031373 0.194717 0.565841
0.031373 0.194717 0.600433
0.031373 0.194717 0.634658
0.031373 0.194717 0.668426
0.031373 0.194717 0.701644
0.031373 0.194717 0.734222
0.031373 0.194717 0.766067
0.031373 0.194717 0.797088
0.031373 0.194717 0.827194
0.031373 0.194717 0.856292
0.031373 0.194717 0.884292
0.031373 0.194717 0.911102
0.031373 0.194717 0.936630
0.031373 0.194717 0.960784
0.031373 0.226562 0.000000
0.031373 0.226562 0.000000
0.031373 0.226562 0.010467
0.031373 0.226562 0.037277
0.031373 0.226562 0.065277
0.031373 0.226562 0.094375
0.031373 0.226562 0.124481
0.031373 0.226562 0.155502
0.031373 0.226562 0.187347
0.031373 0.226562 0.219924
0.031373 0.226562 0.253143
0.031373 0.226562 0.286910
0.031373 0.226562 0.321136
0.031373 0.226562 0.355728
0.031373 0.226562 0.390594
0.031373 0.226562 0.425643
0.031373 0.226562 0.460784
0.031373 0.226562 0.495925
0.031373 0.226562 0.530975
0.031373 0.226562 0.565841
0.031373 0.226562 0.600433
0.031373 0.226562 0.634658
0.031373 0.226562 0.668426
0.031373 0.226562 0.701644
0.031373 0.226562 0.734222
0.031373 0.226562 0.766067
0.031373 0.226562 0.797088
0.031373 0.226562 0.827194
0.031373 0.226562 0.856292
0.031373 0.226562 0.884292
0.031373 0.226562 0.911102
0.031373 0.226562 0.936630
0.031373 0.226562 0.960784
0.031373 0.259140 0.000000
0.031373 0.259140 0.000000
0.031373 0.259140 0.010467
0.031373 0.259140 0.037277
0.031373 0.259140 0.065277
0.031373 0.259140 0.094375
0.031373 0.259140 0.124481
0.031373 0.259140 0.155502
0.031373 0.259140 0.187347
0.031373 0.259140 0.219924
0.031373 0.259140 0.253143
0.031373 0.259140 0.286910
0.031373 0.259140 0.321136
0.031373 0.259140 0.355728
0.031373 0.259140 0.390594
0.031373 0.259140 0.425643
0.031373 0.259140 0.460784
0.031373 0.259140 0.495925
0.031373 0.259140 0.530975
0.031373 0.259140 0.565841
0.031373 0.259140 0.600433
0.031373 0.259140 0.634658
0.031373 0.259140 0.668426
0.031373 0.259140 0.701644
0.031373 0.259140 0.734222
0.031373 0.259140 0.766067
0.031373 0.259140 0.797088
0.031373 0.259140 0.827194
0.031373 0.259140 0.856292
0.031373 0.259140 0.884292
0.031373 0.259140 0.911102
0.031373 0.259140 0.936630
0.031373 0.259140 0.960784
0.031373 0.292358 0.000000
0.031373 0.292358 0.000000
0.031373 0.292358 0.010467
0.031373 0.292358 0.037277
0.031373 0.292358 0.065277
0.031373 0.292358 0.094375
0.031373 0.292358 0.124481
0.031373 0.292358 0.155502
0.031373 0.292358 0.187347
0.031373 0.292358 0.219924
0.031373 0.292358 0.253143
0.031373 0.292358 0.286910
0.031373 0.292358 0.321136
0.031373 0.292358 0.355728
0.031373 0.292358 0.390594
0.031373 0.292358 0.425643
0.031373 0.292358 0.460784
0.031373 0.292358 0.495925
0.031373 0.292358 0.530975
0.031373 0.292358 0.565841
0.031373 0.292358 0.600433
0.031373 0.292358 0.634658
0.031373 0.292358 0.668426
0.031373 0.292358 0.701644
0.031373 0.292358 0.734222
0.031373 0.292358 0.766067
0.031373 0.292358 0.797088
0.031373 0.292358 0.827194
0.031373 0.292358 0.856292
0.031373 0.292358 0.884292
0.031373 0.292358 0.911102
0.031373 0.292358 0.936630
0.031373 0.292358 0.960784
0.031373 0.326126 0.000000
0.031373 0.326126 0.000000
0.031373 0.326126 0.010467
0.031373 0.326126 0.037277
0.031373 0.326126 0.065277
0.031373 0.326126 0.094375
0.031373 0.326126 0.124481
0.031373 0.326126 0.155502
0.031373 0.326126 0.187347
0.031373 0.326126 0.219924
0.031373 0.326126 0.253143
0.031373 0.326126 0.286910
0.031373 0.326126 0.321136
0.031373 0.326126 0.355728
0.031373 0.326126 0.390594
0.031373 0.326126 0.425643
0.031373 0.326126 0.460784
0.031373 0.326126 0.495925
0.031373 0.326126 0.530975
0.031373 0.326126 0.565841
0.031373 0.326126 0.600433
0.031373 0.326126 0.634658
0.031373 0.326126 0.668426
0.031373 0.326126 0.701644
0.031373 0.326126 0.734222
0.031373 0.326126 0.766067
0.031373 0.326126 0.797088
0.031373 0.326126 0.827194
0.031373 0.326126 0.856292
0.031373 0.326126 0.884292
0.031373 0.326126 0.911102
0.031373 0.326126 0.936630
0.031373 0.326126 0.960784
0.031373 0.360352 0.000000
0.031373 0.360352 0.000000
0.031373 0.360352 0.010467
0.031373 0.360352 0.037277
0.031373 0.360352 0.065277
0.031373 0.360352 0.094375
0.031373 0.360352 0.124481
0.031373 0.360352 0.155502
0.031373 0.360352 0.187347
0.031373 0.360352 0.219924
0.031373 0.360352 0.253143
0.031373 0.360352 0.286910
0.031373 0.360352 0.321136
0.031373 0.360352 0.355728
0.031373 0.360352 0.390594
0.031373 0.360352 0.425643
0.031373 0.360352 0.460784
0.031373 0.360352 0.495925
0.031373 0.360352 0.530975
0.031373 0.360352 0.565841
0.031373 0.360352 0.600433
0.031373 0.360352 0.634658
0.031373 0.360352 0.668426
0.031373 0.360352 0.701644
0.031373 0.360352 0.734222
0.031373 0.360352 0.766067
0.031373 0.360352 0.797088
0.031373 0.360352 0.827194
0.031373 0.360352 0.856292
0.031373 0.360352 0.884292
0.031373 0.360352 0.911102
0.031373 0.360352 0.936630
0.031373 0.360352 0.960784
0.031373 0.394943 0.000000
0.031373 0.394943 0.000000
0.031373 0.394943 0.010467
0.031373 0.394943 0.037277
0.031373 0.394943 0.065277
0.031373 0.394943 0.094375
0.031373 0.394943 0.124481
0.031373 0.394943 0.155502
0.031373 0.394943 0.187347
0.031373 0.394943 0.219924
0.031373 0.394943 0.253143
0.031373 0.394943 0.286910
0.031373 0.394943 0.321136
0.031373 0.394943 0.355728
0.031373 0.394943 0.390594
0.031373 0.394943 0.425643
0.031373 0.394943 0.460784
0.031373 0.394943 0.495925
0.031373 0.394943 0.530975
0.031373 0.394943 0.565841
0.031373 0.394943 0.600433
0.031373 0.394943 0.634658
0.031373 0.394943 0.668426
0.031373 0.394943 0.701644
0.031373 0.394943 0.734222
0.031373 0.394943 0.766067
0.031373 0.394943 0.797088
0.031373 0.394943 0.827194
0.031373 0.394943 0.856292
0.031373 0.394943 0.884292
0.031373 0.394943 0.911102
0.031373 0.394943 0.936630
0.031373 0.394943 0.960784
0.031373 0.429810 0.000000
0.031373 0.429810 0.000000
0.031373 0.429810 0.010467
0.031373 0.429810 0.037277
0.031373 0.429810 0.065277
0.031373 0.429810 0.094375
0.031373 0.429810 0.124481
0.031373 0.429810 0.155502
0.031373 0.429810 0.187347
0.031373 0.429810 0.219924
0.031373 0.429810 0.253143
0.031373 0.429810 0.286910
0.031373 0.429810 0.321136
0.031373 0.429810 0.355728
0.031373 0.429810 0.390594
0.031373 0.429810 0.425643
0.031373 0.429810 0.460784
0.031373 0.429810 0.495925
0.031373 0.429810 0.530975
0.031373 0.429810 0.565841
0.031373 0.429810 0.600433
0.031373 0.429810 0.634658
0.031373 0.429810 0.668426
0.031373 0.429810 0.701644
0.031373 0.429810 0.734222
0.031373 0.429810 0.766067
0.031373 0.429810 0.797088
0.031373 0.429810 0.827194
0.031373 0.429810 0.856292
0.031373 0.429810 0.884292
0.031373 0.429810 0.911102
0.031373 0.429810 0.936630
0.031373 0.429810 0.960784
0.031373 0.464859 0.000000
0.031373 0.464859 0.000000
0.031373 0.464859 0.010467
0.031373 0.464859 0.037277
0.031373 0.464859 0.065277
0.031373 0.464859 0.094375
0.031373 0.464859 0.124481
0.031373 0.464859 0.155502
0.031373 0.464859 0.187347
0.031373 0.464859 0.219924
0.031373 0.464859 0.253143
0.031373 0.464859 0.286910
0.031373 0.464859 0.321136
0.031373 0.464859 0.355728
0.031373 0.464859 0.390594
0.031373 0.464859 0.425643
0.031373 0.464859 0.460784
0.031373 0.464859 0.495925
0.031373 0.464859 0.530975
0.031373 0.464859 0.565841
0.031373 0.464859 0.600433
0.031373 0.464859 0.634658
0.031373 0.464859 0.668426
0.031373 0.464859 0.701644
0.031373 0.464859 0.734222
0.031373 0.464859 0.766067
0.031373 0.464859 0.797088
0.031373 0.464859 0.827194
0.031373 0.464859 0.856292
0.031373 0.464859 0.884292
0.031373 0.464859 0.911102
0.031373 0.464859 0.936630
0.031373 0.464859 0.960784
0.031373 0.500000 0.000000
0.031373 0.500000 0.000000
0.031373 0.500000 0.010467
0.031373 0.500000 0.037277
0.031373 0.500000 0.065277
0.031373 0.500000 0.094375
0.031373 0.500000 0.124481
0.031373 0.500000 0.155502
0.031373 0.500000 0.187347
0.031373 0.500000 0.219924
0.031373 0.500000 0.253143
0.031373 0.500000 0.286910
0.031373 0.500000 0.321136
0.031373 0.500000 0.355728
0.031373 0.500000 0.390594
0.031373 0.500000 0.425643
0.031373 0.500000 0.460784
0.031373 0.500000 0.495925
0.031373 0.500000 0.530975
0.031373 0.500000 0.565841
0.031373 0.500000 0.600433
0.031373 0.500000 0.634658
0.031373 0.500000 0.668426
0.031373 0.500000 0.701644
0.031373 0.500000 0.734222
0.031373 0.500000 0.766067
0.031373 0.500000 0.797088
0.031373 0.500000 0.827194
0.031373 0.500000 0.856292
0.031373 0.500000 0.884292
0.031373 0.500000 0.911102
0.031373 0.500000 0.936630
0.031373 0.500000 0.960784
0.031373 0.535141 0.000000
0.031373 0.535141 0.000000
0.031373 0.535141 0.010467
0.031373 0.535141 0.037277
0.031373 0.535141 0.065277
0.031373 0.535141 0.094375
0.031373 0.535141 0.124481
0.031373 0.535141 0.155502
0.031373 0.535141 0.187347
0.031373 0.535141 0.219924
0.031373 0.535141 0.253143
0.031373 0.535141 0.286910
0.031373 0.535141 0.321136
0.031373 0.535141 0.355728
0.031373 0.535141 0.390594
0.031373 0.535141 0.425643
0.031373 0.535141 0.460784
0.031373 0.535141 0.495925
0.031373 0.535141 0.530975
0.031373 0.535141 0.565841
0.031373 0.535141 0.600433
0.031373 0.535141 0.634658
0.031373 0.535141 0.668426
0.031373 0.535141 0.701644
0.031373 0.535141 0.734222
0.031373 0.535141 0.766067
0.031373 0.535141 0.797088
0.031373 0.535141 0.827194
0.031373 0.535141 0.856292
0.031373 0.535141 0.884292
0.031373 0.535141 0.911102
0.031373 0.535141 0.936630
0.031373 0.535141 0.960784
0.031373 0.570190 0.000000
0.031373 0.570190 0.000000
0.031373 0.570190 0.010467
0.031373 0.570190 0.037277
0.031373 0.570190 0.065277
0.031373 0.570190 0.094375
0.031373 0.570190 0.124481
0.031373 0.570190 0.155502
0.031373 0.570190 0.187347
0.031373 0.570190 0.219924
0.031373 0.570190 0.253143
0.031373 0.570190 0.286910
0.031373 0.570190 0.321136
0.031373 0.570190 0.355728
0.031373 0.570190 0.390594
0.031373 0.570190 0.425643
0.031373 0.570190 0.460784
0.031373 0.570190 0.495925
0.031373 0.570190 0.530975
0.031373 0.570190 0.565841
0.031373 0.570190 0.600433
0.031373 0.570190 0.634658
0.031373 0.570190 0.668426
0.031373 0.570190 0.701644
0.031373 0.570190 0.734222
0.031373 0.570190 0.766067
0.031373 0.570190 0.797088
0.031373 0.570190 0.827194
0.031373 0.570190 0.856292
0.031373 0.570190 0.884292
0.031373 0.570190 0.911102
0.031373 0.570190 0.936630
0.031373 0.570190 0.960784
0.031373 0.605057 0.000000
0.031373 0.605057 0.000000
0.031373 0.605057 0.010467
0.031373 0.605057 0.037277
0.031373 0.605057 0.065277
0.031373 0.605057 0.094375
0.031373 0.605057 0.124481
0.031373 0.605057 0.155502
0.031373 0.605057 0.187347
0.031373 0.605057 0.219924
0.031373 0.605057 0.253143
0.031373 0.605057 0.286910
0.031373 0.605057 0.321136
0.031373 0.605057 0.355728
0.031373 0.605057 0.390594
0.031373 0.605057 0.425643
0.031373 0.605057 0.460784
0.031373 0.605057 0.495925
0.031373 0.605057 0.530975
0.031373 0.605057 0.565841
0.031373 0.605057 0.600433
0.031373 0.605057 0.634658
0.031373 0.605057 0.668426
0.031373 0.605057 0.701644
0.031373 0.605057 0.734222
0.031373 0.605057 0.766067
0.031373 0.605057 0.797088
0.031373 0.605057 0.827194
0.031373 0.605057 0.856292
0.031373 0.605057 0.884292
0.031373 0.605057 0.911102
0.031373 0.605057 0.936630
0.031373 0.605057 0.960784
0.031373 0.639648 0.000000
0.031373 0.639648 0.000000
0.031373 0.639648 0.010467
0.031373 0.639648 0.037277
0.031373 0.639648 0.065277
0.031373 0.639648 0.094375
0.031373 0.639648 0.124481
0.031373 0.639648 0.155502
0.031373 0.639648 0.187347
0.031373 0.639648 0.219924
0.031373 0.639648 0.253143
0.031373 0.639648 0.286910
0.031373 0.639648 0.321136
0.031373 0.639648 0.355728
0.031373 0.639648 0.390594
0.031373 0.639648 0.425643
0.031373 0.639648 0.460784
0.031373 0.639648 0.495925
0.031373 0.639648 0.530975
0.031373 0.639648 0.565841
0.031373 0.639648 0.600433
0.031373 0.639648 0.634658
0.031373 0.639648 0.668426
0.031373 0.639648 0.701644
0.031373 0.639648 0.734222
0.031373 0.639648 0.766067
0.031373 0.639648 0.797088
0.031373 0.639648 0.827194
0.031373 0.639648 0.856292
0.031373 0.639648 0.884292
0.031373 0.639648 0.911102
0.031373 0.639648 0.936630
0.031373 0.639648 0.960784
0.031373 0.673874 0.000000
0.031373 0.673874 0.000000
0.031373 0.673874 0.010467
0.031373 0.673874 0.037277
0.031373 0.673874 0.065277
0.031373 0.673874 0.094375
0.031373 0.673874 0.124481
0.031373 0.673874 0.155502
0.031373 0.673874 0.187347
0.031373 0.673874 0.219924
0.031373 0.673874 0.253143
0.031373 0.673874 0.286910
0.031373 0.673874 0.321136
0.031373 0.673874 0.355728
0.031373 0.673874 0.390594
0.031373 0.673874 0.425643
0.031373 0.673874 0.460784
0.031373 0.673874 0.495925
0.031373 0.673874 0.530975
0.031373 0.673874 0.565841
0.031373 0.673874 0.600433
0.031373 0.673874 0.634658
0.031373 0.673874 0.668426
0.031373 0.673874 0.701644
0.031373 0.673874 0.734222
0.031373 0.673874 0.766067
0.031373 0.673874 0.797088
0.031373 0.673874 0.827194
0.031373 0.673874 0.856292
0.031373 0.673874 0.884292
0.031373 0.673874 0.911102
0.031373 0.673874 0.936630
0.031373 0.673874 0.960784
0.031373 0.707642 0.000000
0.031373 0.707642 0.000000
0.031373 0.707642 0.010467
0.031373 0.707642 0.037277
0.031373 0.707642 0.065277
0.031373 0.707642 0.094375
0.031373 0.707642 0.124481
0.031373 0.707642 0.155502
0.031373 0.707642 0.187347
0.031373 0.707642 0.219924
0.031373 0.707642 0.253143
0.031373 0.707642 0.286910
0.031373 0.707642 0.321136
0.031373 0.707642 0.355728
0.031373 0.707642 0.390594
0.031373 0.707642 0.425643
0.031373 0.707642 0.460784
0.031373 0.707642 0.495925
0.031373 0.707642 0.530975
0.031373 0.707642 0.565841
0.031373 0.707642 0.600433
0.031373 0.707642 0.634658
0.031373 0.707642 0.668426
0.031373 0.707642 0.701644
0.031373 0.707642 0.734222
0.031373 0.707642 0.766067
0.031373 0.707642 0.797088
0.031373 0.707642 0.827194
0.031373 0.707642 0.856292
0.031373 0.707642 0.884292
0.031373 0.707642 0.911102
0.031373 0.707642 0.936630
0.031373 0.707642 0.960784
0.031373 0.740860 0.000000
0.031373 0.740860 0.000000
0.031373 0.740860 0.010467
0.031373 0.740860 0.037277
0.031373 0.740860 0.065277
0.031373 0.740860 0.094375
0.031373 0.740860 0.124481
0.031373 0.740860 0.155502
0.031373 0.740860 0.187347
0.031373 0.740860 0.219924
0.031373 0.740860 0.253143
0.031373 0.740860 0.286910
0.031373 0.740860 0.321136
0.031373 0.740860 0.355728
0.031373 0.740860 0.390594
0.031373 0.740860 0.425643
0.031373 0.740860 0.460784
0.031373 0.740860 0.495925
0.031373 0.740860 0.530975
0.031373 0.740860 0.565841
0.031373 0.740860 0.600433
0.031373 0.740860 0.634658
0.031373 0.740860 0.668426
0.031373 0.740860 0.701644
0.031373 0.740860 0.734222
0.031373 0.740860 0.766067
0.031373 0.740860 0.797088
0.031373 0.740860 0.827194
0.031373 0.740860 0.856292
0.031373 0.740860 0.884292
0.031373 0.740860 0.911102
0.031373 0.740860 0.936630
0.031373 0.740860 0.960784
0.031373 0.773438 0.000000
0.031373 0.773438 0.000000
0.031373 0.773438 0.010467
0.031373 0.773438 0.037277
0.031373 0.773438 0.065277
0.031373 0.773438 0.094375
0.031373 0.773438 0.124481
0.031373 0.773438 0.155502
0.031373 0.773438 0.187347
0.031373 0.773438 0.219924
0.031373 0.773438 0.253143
0.031373 0.773438 0.286910
0.031373 0.773438 0.321136
0.031373 0.773438 0.355728
0.031373 0.773438 0.390594
0.031373 0.773438 0.425643
0.031373 0.773438 0.460784
0.031373 0.773438 0.495925
0.031373 0.773438 0.530975
0.031373 0.773438 0.565841
0.031373 0.773438 0.600433
0.031373 0.773438 0.634658
0.031373 0.773438 0.668426
0.031373 0.773438 0.701644
0.031373 0.773438 0.734222
0.031373 0.773438 0.766067
0.031373 0.773438 0.797088
0.031373 0.773438 0.827194
0.031373 0.773438 0.856292
0.031373 0.773438 0.884292
0.031373 0.773438 0.911102
0.031373 0.773438 0.936630
0.031373 0.773438 0.960784
0.031373 0.805283 0.000000
0.031373 0.805283 0.000000
0.031373 0.805283 0.010467
0.031373 0.805283 0.037277
0.031373 0.805283 0.065277
0.031373 0.805283 0.094375
0.031373 0.805283 0.124481
0.031373 0.805283 0.155502
0.031373 0.805283 0.187347
0.031373 0.805283 0.219924
0.031373 0.805283 0.253143
0.031373 0.805283 0.286910
0.031373 0.805283 0.321136
0.031373 0.805283 0.355728
0.031373 0.805283 0.390594
0.031373 0.805283 0.425643
0.031373 0.805283 0.460784
0.031373 0.805283 0.495925
0.031373 0.805283 0.530975
0.031373 0.805283 0.565841
0.031373 0.805283 0.600433
0.031373 0.805283 0.634658
0.031373 0.805283 0.668426
0.031373 0.805283 0.701644
0.031373 0.805283 0.734222
0.031373 0.805283 0.766067
0.031373 0.805283 0.797088
0.031373 0.805283 0.827194
0.031373 0.805283 0.856292
0.031373 0.805283 0.884292
0.031373 0.805283 0.911102
0.031373 0.805283 0.936630
0.031373 0.805283 0.960784
0.031373 0.836304 0.000000
0.031373 0.836304 0.000000
0.031373 0.836304 0.010467
0.031373 0.836304 0.037277
0.031373 0.836304 0.065277
0.031373 0.836304 0.094375
0.031373 0.836304 0.124481
0.031373 0.836304 0.155502
0.031373 0.836304 0.187347
0.031373 0.836304 0.219924
0.031373 0.836304 0.253143
0.031373 0.836304 0.286910
0.031373 0.836304 0.321136
0.031373 0.836304 0.355728
0.031373 0.836304 0.390594
0.031373 0.836304 0.425643
0.031373 0.836304 0.460784
0.031373 0.836304 0.495925
0.031373 0.836304 0.530975
0.031373 0.836304 0.565841
0.031373 0.836304 0.600433
0.031373 0.836304 0.634658
0.031373 0.836304 0.668426
0.031373 0.836304 0.701644
0.031373 0.836304 0.734222
0.031373 0.836304 0.766067
0.031373 0.836304 0.797088
0.031373 0.836304 0.827194
0.031373 0.836304 0.856292
