camera/src/main/assets/lut_vivid.cube
# SPECTRA Vivid
LUT_3D_SIZE 9
0.011765 0.000000 0.000000
0.011462 0.000000 0.087829
0.011031 0.000000 0.223551
0.010517 0.000000 0.385971
0.009960 0.000000 0.561742
0.009403 0.000000 0.737512
0.008888 0.000000 0.899933
0.008458 0.000000 1.000000
0.008155 0.000000 1.000000
0.008761 0.087572 0.000000
0.008458 0.086663 0.078819
0.008028 0.085372 0.214541
0.007513 0.083828 0.376962
0.006956 0.082157 0.552732
0.006399 0.080486 0.728502
0.005885 0.078942 0.890923
0.005455 0.077652 1.000000
0.005151 0.076742 1.000000
0.004501 0.211803 0.000000
0.004198 0.210893 0.066038
0.003768 0.209603 0.201760
0.003253 0.208059 0.364180
0.002696 0.206388 0.539951
0.002139 0.204716 0.715721
0.001624 0.203172 0.878142
0.001194 0.201882 1.000000
0.000891 0.200972 1.000000
0.000000 0.360472 0.000000
0.000000 0.359562 0.050742
0.000000 0.358272 0.186464
0.000000 0.356728 0.348884
0.000000 0.355057 0.524655
0.000000 0.353386 0.700425
0.000000 0.351841 0.862846
0.000000 0.350551 0.998567
0.000000 0.349642 1.000000
0.000000 0.521360 0.000000
0.000000 0.520450 0.034189
0.000000 0.519160 0.169911
0.000000 0.517616 0.332331
0.000000 0.515945 0.508102
0.000000 0.514274 0.683872
0.000000 0.512730 0.846293
0.000000 0.511440 0.982014
0.000000 0.510530 1.000000
0.000000 0.682248 0.000000
0.000000 0.681339 0.017636
0.000000 0.680049 0.153358
0.000000 0.678504 0.315779
0.000000 0.676833 0.491549
0.000000 0.675162 0.667319
0.000000 0.673618 0.829740
0.000000 0.672328 0.965461
0.000000 0.671418 1.000000
0.000000 0.830917 0.000000
0.000000 0.830008 0.002341
0.000000 0.828718 0.138062
0.000000 0.827174 0.300483
0.000000 0.825503 0.476253
0.000000 0.823831 0.652023
0.000000 0.822287 0.814444
0.000000 0.820997 0.950166
0.000000 0.820087 1.000000
0.000000 0.955148 0.000000
0.000000 0.954238 0.000000
0.000000 0.952948 0.125281
0.000000 0.951404 0.287701
0.000000 0.949733 0.463472
0.000000 0.948062 0.639242
0.000000 0.946518 0.801663
0.000000 0.945227 0.937384
0.000000 0.944318 1.000000
0.000000 1.000000 0.000000
0.000000 1.000000 0.000000
0.000000 1.000000 0.116271
0.000000 1.000000 0.278691
0.000000 1.000000 0.454462
0.000000 1.000000 0.630232
0.000000 1.000000 0.792653
0.000000 1.000000 0.928374
0.000000 1.000000 1.000000
0.095749 0.000000 0.000000
0.095749 0.000000 0.076141
0.095749 0.000000 0.195282
0.095749 0.000000 0.337860
0.095749 0.000000 0.492157
0.096694 0.000000 0.734834
0.096179 0.000000 0.897255
0.095749 0.000000 1.000000
0.095446 0.000000 1.000000
0.096052 0.084894 0.000000
0.095749 0.083984 0.076141
0.095319 0.082694 0.211863
0.094804 0.081150 0.374283
0.094247 0.079479 0.550054
0.093690 0.077808 0.725824
0.093176 0.076264 0.888245
0.092745 0.074973 1.000000
0.092442 0.074064 1.000000
0.091792 0.209124 0.000000
0.091489 0.208215 0.063360
0.091059 0.206924 0.199081
0.090544 0.205380 0.361502
0.089987 0.203709 0.537272
0.089430 0.202038 0.713043
0.088915 0.200494 0.875463
0.088485 0.199204 1.000000
0.088182 0.198294 1.000000
0.086693 0.357793 0.000000
0.086390 0.356884 0.048064
0.085960 0.355593 0.183785
0.085445 0.354049 0.346206
0.084888 0.352378 0.521977
0.084331 0.350707 0.697747
0.083816 0.349163 0.860168
0.083386 0.347873 0.995889
0.083083 0.346963 1.000000
0.081176 0.518682 0.000000
0.080872 0.517772 0.031511
0.080442 0.516482 0.167233
0.079928 0.514938 0.329653
0.079371 0.513267 0.505424
0.078814 0.511596 0.681194
0.078299 0.510052 0.843615
0.077869 0.508761 0.979336
0.077566 0.507852 1.000000
0.075658 0.679570 0.000000
0.075355 0.678661 0.014958
0.074925 0.677370 0.150680
0.074410 0.675826 0.313100
0.073853 0.674155 0.488871
0.073296 0.672484 0.664641
0.072781 0.670940 0.827062
0.072351 0.669650 0.962783
0.072048 0.668740 1.000000
0.070559 0.828239 0.000000
0.070256 0.827330 0.000000
0.069826 0.826039 0.135384
0.069311 0.824495 0.297804
0.068754 0.822824 0.473575
0.068197 0.821153 0.649345
0.067683 0.819609 0.811766
0.067252 0.818319 0.947487
0.066949 0.817409 1.000000
0.066299 0.952470 0.000000
0.065996 0.951560 0.000000
0.065566 0.950270 0.122602
0.065051 0.948726 0.285023
0.064494 0.947055 0.460793
0.063937 0.945384 0.636564
0.063422 0.943839 0.798985
0.062992 0.942549 0.934706
0.062689 0.941640 1.000000
0.063296 1.000000 0.000000
0.062992 1.000000 0.000000
0.062562 1.000000 0.113593
0.062048 1.000000 0.276013
0.061491 1.000000 0.451784
0.060934 1.000000 0.627554
0.060419 1.000000 0.789975
0.059989 1.000000 0.925696
0.059686 1.000000 1.000000
0.214890 0.000000 0.000000
0.214890 0.000000 0.076141
0.214890 0.000000 0.195282
0.214890 0.000000 0.337860
0.214890 0.000000 0.492157
0.214890 0.000000 0.646454
0.214890 0.000000 0.789032
0.214890 0.000000 0.908172
0.214890 0.000000 0.992157
0.214890 0.083984 0.000000
0.214890 0.083984 0.076141
0.214890 0.083984 0.195282
0.214890 0.083984 0.337860
0.214890 0.083984 0.492157
0.214890 0.083984 0.646454
0.214890 0.083984 0.789032
0.214890 0.083984 0.908172
0.214890 0.083984 0.992157
0.215623 0.205325 0.000000
0.215320 0.204415 0.059560
0.214890 0.203125 0.195282
0.214375 0.201581 0.357703
0.213818 0.199910 0.533473
0.213261 0.198239 0.709243
0.212746 0.196695 0.871664
0.212316 0.195404 1.000000
0.212013 0.194495 1.000000
0.210524 0.353994 0.000000
0.210221 0.353084 0.044265
0.209791 0.351794 0.179986
0.209276 0.350250 0.342407
0.208719 0.348579 0.518177
0.208162 0.346908 0.693948
0.207648 0.345364 0.856368
0.207218 0.344073 0.992090
0.206914 0.343164 1.000000
0.205007 0.514882 0.000000
0.204704 0.513973 0.027712
0.204273 0.512683 0.163433
0.203759 0.511138 0.325854
0.203202 0.509467 0.501624
0.202645 0.507796 0.677395
0.202130 0.506252 0.839815
0.201700 0.504962 0.975537
0.201397 0.504052 1.000000
0.199489 0.675771 0.000000
0.199186 0.674861 0.011159
0.198756 0.673571 0.146880
0.198241 0.672027 0.309301
0.197684 0.670356 0.485071
0.197127 0.668685 0.660842
0.196612 0.667141 0.823262
0.196182 0.665850 0.958984
0.195879 0.664941 1.000000
0.194390 0.824440 0.000000
0.194087 0.823530 0.000000
0.193657 0.822240 0.131584
0.193142 0.820696 0.294005
0.192585 0.819025 0.469775
0.192028 0.817354 0.645546
0.191514 0.815810 0.807967
0.191084 0.814519 0.943688
0.190780 0.813610 1.000000
0.190130 0.948670 0.000000
0.189827 0.947761 0.000000
0.189397 0.946470 0.118803
0.188882 0.944926 0.281224
0.188325 0.943255 0.456994
0.187768 0.941584 0.632764
0.187253 0.940040 0.795185
0.186823 0.938750 0.930907
0.186520 0.937840 1.000000
0.187127 1.000000 0.000000
0.186824 1.000000 0.000000
0.186393 1.000000 0.109793
0.185879 1.000000 0.272214
0.185322 1.000000 0.447984
0.184765 1.000000 0.623755
0.184250 1.000000 0.786175
0.183820 1.000000 0.921897
0.183517 1.000000 1.000000
0.357468 0.000000 0.000000
0.357468 0.000000 0.076141
0.357468 0.000000 0.195282
0.357468 0.000000 0.337860
0.357468 0.000000 0.492157
0.357468 0.000000 0.646454
0.357468 0.000000 0.789032
0.357468 0.000000 0.908172
0.357468 0.000000 0.992157
0.357468 0.083984 0.000000
0.357468 0.083984 0.076141
0.357468 0.083984 0.195282
0.357468 0.083984 0.337860
0.357468 0.083984 0.492157
0.357468 0.083984 0.646454
0.357468 0.083984 0.789032
0.357468 0.083984 0.908172
0.357468 0.083984 0.992157
0.357468 0.203125 0.000000
0.357468 0.203125 0.076141
0.357468 0.203125 0.195282
0.357468 0.203125 0.337860
0.357468 0.203125 0.492157
0.357468 0.203125 0.646454
0.357468 0.203125 0.789032
0.357468 0.203125 0.908172
0.357468 0.203125 0.992157
0.357468 0.345703 0.000000
0.358413 0.348538 0.039718
0.357983 0.347247 0.175439
0.357468 0.345703 0.337860
0.356911 0.344032 0.513630
0.356354 0.342361 0.689401
0.355839 0.340817 0.851821
0.355409 0.339527 0.987543
0.355106 0.338617 1.000000
0.353198 0.510336 0.000000
0.352895 0.509426 0.023165
0.352465 0.508136 0.158886
0.351950 0.506592 0.321307
0.351393 0.504921 0.497077
0.350836 0.503249 0.672848
0.350321 0.501705 0.835268
0.349891 0.500415 0.970990
0.349588 0.499506 1.000000
0.347681 0.671224 0.000000
0.347377 0.670314 0.006612
0.346947 0.669024 0.142333
0.346433 0.667480 0.304754
0.345876 0.665809 0.480524
0.345318 0.664138 0.656295
0.344804 0.662594 0.818716
0.344374 0.661304 0.954437
0.344071 0.660394 1.000000
0.342582 0.819893 0.000000
0.342279 0.818983 0.000000
0.341849 0.817693 0.127038
0.341334 0.816149 0.289458
0.340777 0.814478 0.465229
0.340220 0.812807 0.640999
0.339705 0.811263 0.803420
0.339275 0.809973 0.939141
0.338972 0.809063 1.000000
0.338321 0.944123 0.000000
0.338018 0.943214 0.000000
0.337588 0.941923 0.114256
0.337073 0.940379 0.276677
0.336516 0.938708 0.452447
0.335959 0.937037 0.628218
0.335445 0.935493 0.790638
0.335015 0.934203 0.926360
0.334711 0.933293 1.000000
0.335318 1.000000 0.000000
0.335015 1.000000 0.000000
0.334585 1.000000 0.105246
0.334070 1.000000 0.267667
0.333513 1.000000 0.443437
0.332956 1.000000 0.619208
0.332441 1.000000 0.781628
0.332011 1.000000 0.917350
0.331708 1.000000 1.000000
0.511765 0.000000 0.000000
0.511765 0.000000 0.076141
0.511765 0.000000 0.195282
0.511765 0.000000 0.337860
0.511765 0.000000 0.492157
0.511765 0.000000 0.646454
0.511765 0.000000 0.789032
0.511765 0.000000 0.908172
0.511765 0.000000 0.992157
0.511765 0.083984 0.000000
0.511765 0.083984 0.076141
0.511765 0.083984 0.195282
0.511765 0.083984 0.337860
0.511765 0.083984 0.492157
0.511765 0.083984 0.646454
0.511765 0.083984 0.789032
0.511765 0.083984 0.908172
0.511765 0.083984 0.992157
0.511765 0.203125 0.000000
0.511765 0.203125 0.076141
0.511765 0.203125 0.195282
0.511765 0.203125 0.337860
0.511765 0.203125 0.492157
0.511765 0.203125 0.646454
0.511765 0.203125 0.789032
0.511765 0.203125 0.908172
0.511765 0.203125 0.992157
0.511765 0.345703 0.000000
0.511765 0.345703 0.076141
0.511765 0.345703 0.195282
0.511765 0.345703 0.337860
0.511765 0.345703 0.492157
0.511765 0.345703 0.646454
0.511765 0.345703 0.789032
0.511765 0.345703 0.908172
0.511765 0.345703 0.992157
0.511765 0.500000 0.000000
0.511765 0.500000 0.076141
0.511765 0.500000 0.195282
0.512322 0.501671 0.316386
0.511765 0.500000 0.492157
0.511208 0.498329 0.667927
0.510693 0.496785 0.830348
0.510263 0.495495 0.966069
0.509960 0.494585 1.000000
0.508052 0.666303 0.000000
0.507749 0.665394 0.001691
0.507319 0.664104 0.137413
0.506804 0.662559 0.299834
0.506247 0.660888 0.475604
0.505690 0.659217 0.651374
0.505175 0.657673 0.813795
0.504745 0.656383 0.949516
0.504442 0.655473 1.000000
0.502953 0.814972 0.000000
0.502650 0.814063 0.000000
0.502220 0.812773 0.122117
0.501705 0.811229 0.284538
0.501148 0.809558 0.460308
0.500591 0.807886 0.636078
0.500077 0.806342 0.798499
0.499647 0.805052 0.934221
0.499343 0.804142 1.000000
0.498693 0.939203 0.000000
0.498390 0.938293 0.000000
0.497960 0.937003 0.109336
0.497445 0.935459 0.271756
0.496888 0.933788 0.447527
0.496331 0.932117 0.623297
0.495816 0.930573 0.785718
0.495386 0.929282 0.921439
0.495083 0.928373 1.000000
0.495690 1.000000 0.000000
0.495387 1.000000 0.000000
0.494956 1.000000 0.100326
0.494442 1.000000 0.262746
0.493885 1.000000 0.438517
0.493328 1.000000 0.614287
0.492813 1.000000 0.776708
0.492383 1.000000 0.912429
0.492080 1.000000 1.000000
0.666062 0.000000 0.000000
0.666062 0.000000 0.076141
0.666062 0.000000 0.195282
0.666062 0.000000 0.337860
0.666062 0.000000 0.492157
0.666062 0.000000 0.646454
0.666062 0.000000 0.789032
0.666062 0.000000 0.908172
0.666062 0.000000 0.992157
0.666062 0.083984 0.000000
0.666062 0.083984 0.076141
0.666062 0.083984 0.195282
0.666062 0.083984 0.337860
0.666062 0.083984 0.492157
0.666062 0.083984 0.646454
0.666062 0.083984 0.789032
0.666062 0.083984 0.908172
0.666062 0.083984 0.992157
0.666062 0.203125 0.000000
0.666062 0.203125 0.076141
0.666062 0.203125 0.195282
0.666062 0.203125 0.337860
0.666062 0.203125 0.492157
0.666062 0.203125 0.646454
0.666062 0.203125 0.789032
0.666062 0.203125 0.908172
0.666062 0.203125 0.992157
0.666062 0.345703 0.000000
0.666062 0.345703 0.076141
0.666062 0.345703 0.195282
0.666062 0.345703 0.337860
0.666062 0.345703 0.492157
0.666062 0.345703 0.646454
0.666062 0.345703 0.789032
0.666062 0.345703 0.908172
0.666062 0.345703 0.992157
0.666062 0.500000 0.000000
0.666062 0.500000 0.076141
0.666062 0.500000 0.195282
0.666062 0.500000 0.337860
0.666062 0.500000 0.492157
0.666062 0.500000 0.646454
0.666062 0.500000 0.789032
0.666062 0.500000 0.908172
0.666062 0.500000 0.992157
0.666062 0.654297 0.000000
0.666062 0.654297 0.076141
0.666062 0.654297 0.195282
0.666062 0.654297 0.337860
0.666619 0.655968 0.470683
0.666062 0.654297 0.646454
0.665547 0.652753 0.808874
0.665117 0.651462 0.944596
0.664814 0.650553 1.000000
0.663325 0.810052 0.000000
0.663022 0.809142 0.000000
0.662592 0.807852 0.117196
0.662077 0.806308 0.279617
0.661520 0.804637 0.455388
0.660963 0.802966 0.631158
0.660448 0.801422 0.793579
0.660018 0.800132 0.929300
0.659715 0.799222 1.000000
0.659065 0.934282 0.000000
0.658761 0.933373 0.000000
0.658331 0.932082 0.104415
0.657817 0.930538 0.266836
0.657260 0.928867 0.442606
0.656703 0.927196 0.618377
0.656188 0.925652 0.780797
0.655758 0.924362 0.916519
0.655455 0.923452 1.000000
0.656061 1.000000 0.000000
0.655758 1.000000 0.000000
0.655328 1.000000 0.095405
0.654813 1.000000 0.257826
0.654256 1.000000 0.433596
0.653699 1.000000 0.609367
0.653185 1.000000 0.771787
0.652754 1.000000 0.907509
0.652451 1.000000 1.000000
0.808640 0.000000 0.000000
0.808640 0.000000 0.076141
0.808640 0.000000 0.195282
0.808640 0.000000 0.337860
0.808640 0.000000 0.492157
0.808640 0.000000 0.646454
0.808640 0.000000 0.789032
0.808640 0.000000 0.908172
0.808640 0.000000 0.992157
0.808640 0.083984 0.000000
0.808640 0.083984 0.076141
0.808640 0.083984 0.195282
0.808640 0.083984 0.337860
0.808640 0.083984 0.492157
0.808640 0.083984 0.646454
0.808640 0.083984 0.789032
0.808640 0.083984 0.908172
0.808640 0.083984 0.992157
0.808640 0.203125 0.000000
0.808640 0.203125 0.076141
0.808640 0.203125 0.195282
0.808640 0.203125 0.337860
0.808640 0.203125 0.492157
0.808640 0.203125 0.646454
0.808640 0.203125 0.789032
0.808640 0.203125 0.908172
0.808640 0.203125 0.992157
0.808640 0.345703 0.000000
0.808640 0.345703 0.076141
0.808640 0.345703 0.195282
0.808640 0.345703 0.337860
0.808640 0.345703 0.492157
0.808640 0.345703 0.646454
0.808640 0.345703 0.789032
0.808640 0.345703 0.908172
0.808640 0.345703 0.992157
0.808640 0.500000 0.000000
0.808640 0.500000 0.076141
0.808640 0.500000 0.195282
0.808640 0.500000 0.337860
0.808640 0.500000 0.492157
0.808640 0.500000 0.646454
0.808640 0.500000 0.789032
0.808640 0.500000 0.908172
0.808640 0.500000 0.992157
0.808640 0.654297 0.000000
0.808640 0.654297 0.076141
0.808640 0.654297 0.195282
0.808640 0.654297 0.337860
0.808640 0.654297 0.492157
0.808640 0.654297 0.646454
0.808640 0.654297 0.789032
0.808640 0.654297 0.908172
0.808640 0.654297 0.992157
0.808640 0.796875 0.000000
0.808640 0.796875 0.076141
0.808640 0.796875 0.195282
0.808640 0.796875 0.337860
0.808640 0.796875 0.492157
0.809154 0.798419 0.626611
0.808640 0.796875 0.789032
0.808210 0.795585 0.924753
0.807906 0.794675 1.000000
0.807256 0.929735 0.000000
0.806953 0.928826 0.000000
0.806523 0.927536 0.099868
0.806008 0.925992 0.262289
0.805451 0.924320 0.438059
0.804894 0.922649 0.613830
0.804379 0.921105 0.776250
0.803949 0.919815 0.911972
0.803646 0.918905 1.000000
0.804253 1.000000 0.000000
0.803949 1.000000 0.000000
0.803519 1.000000 0.090858
0.803005 1.000000 0.253279
0.802448 1.000000 0.429050
0.801891 1.000000 0.604820
0.801376 1.000000 0.767241
0.800946 1.000000 0.902962
0.800643 1.000000 0.998635
0.927780 0.000000 0.000000
0.927780 0.000000 0.076141
0.927780 0.000000 0.195282
0.927780 0.000000 0.337860
0.927780 0.000000 0.492157
0.927780 0.000000 0.646454
0.927780 0.000000 0.789032
0.927780 0.000000 0.908172
0.927780 0.000000 0.992157
0.927780 0.083984 0.000000
0.927780 0.083984 0.076141
0.927780 0.083984 0.195282
0.927780 0.083984 0.337860
0.927780 0.083984 0.492157
0.927780 0.083984 0.646454
0.927780 0.083984 0.789032
0.927780 0.083984 0.908172
0.927780 0.083984 0.992157
0.927780 0.203125 0.000000
0.927780 0.203125 0.076141
0.927780 0.203125 0.195282
0.927780 0.203125 0.337860
0.927780 0.203125 0.492157
0.927780 0.203125 0.646454
0.927780 0.203125 0.789032
0.927780 0.203125 0.908172
0.927780 0.203125 0.992157
0.927780 0.345703 0.000000
0.927780 0.345703 0.076141
0.927780 0.345703 0.195282
0.927780 0.345703 0.337860
0.927780 0.345703 0.492157
0.927780 0.345703 0.646454
0.927780 0.345703 0.789032
0.927780 0.345703 0.908172
0.927780 0.345703 0.992157
0.927780 0.500000 0.000000
0.927780 0.500000 0.076141
0.927780 0.500000 0.195282
0.927780 0.500000 0.337860
0.927780 0.500000 0.492157
0.927780 0.500000 0.646454
0.927780 0.500000 0.789032
0.927780 0.500000 0.908172
0.927780 0.500000 0.992157
0.927780 0.654297 0.000000
0.927780 0.654297 0.076141
0.927780 0.654297 0.195282
0.927780 0.654297 0.337860
0.927780 0.654297 0.492157
0.927780 0.654297 0.646454
0.927780 0.654297 0.789032
0.927780 0.654297 0.908172
0.927780 0.654297 0.992157
0.927780 0.796875 0.000000
0.927780 0.796875 0.076141
0.927780 0.796875 0.195282
0.927780 0.796875 0.337860
0.927780 0.796875 0.492157
0.927780 0.796875 0.646454
0.927780 0.796875 0.789032
0.927780 0.796875 0.908172
0.927780 0.796875 0.992157
0.927780 0.916016 0.000000
0.927780 0.916016 0.076141
0.927780 0.916016 0.195282
0.927780 0.916016 0.337860
0.927780 0.916016 0.492157
0.928725 0.918850 0.610030
0.928210 0.917306 0.772451
0.927780 0.916016 0.908172
0.927477 0.915106 1.000000
0.928084 1.000000 0.000000
0.927781 1.000000 0.000000
0.927351 1.000000 0.087059
0.926836 1.000000 0.249480
0.926279 1.000000 0.425250
0.925722 1.000000 0.601020
0.925207 1.000000 0.763441
0.924777 1.000000 0.899163
0.924474 1.000000 0.994835
1.000000 0.000000 0.000000
1.000000 0.000000 0.076141
1.000000 0.000000 0.195282
1.000000 0.000000 0.337860
1.000000 0.000000 0.492157
1.000000 0.000000 0.646454
1.000000 0.000000 0.789032
1.000000 0.000000 0.908172
1.000000 0.000000 0.992157
1.000000 0.083984 0.000000
1.000000 0.083984 0.076141
1.000000 0.083984 0.195282
1.000000 0.083984 0.337860
1.000000 0.083984 0.492157
1.000000 0.083984 0.646454
1.000000 0.083984 0.789032
1.000000 0.083984 0.908172
1.000000 0.083984 0.992157
1.000000 0.203125 0.000000
1.000000 0.203125 0.076141
1.000000 0.203125 0.195282
1.000000 0.203125 0.337860
1.000000 0.203125 0.492157
1.000000 0.203125 0.646454
1.000000 0.203125 0.789032
1.000000 0.203125 0.908172
1.000000 0.203125 0.992157
1.000000 0.345703 0.000000
1.000000 0.345703 0.076141
1.000000 0.345703 0.195282
1.000000 0.345703 0.337860
1.000000 0.345703 0.492157
1.000000 0.345703 0.646454
1.000000 0.345703 0.789032
1.000000 0.345703 0.908172
1.000000 0.345703 0.992157
1.000000 0.500000 0.000000
1.000000 0.500000 0.076141
1.000000 0.500000 0.195282
1.000000 0.500000 0.337860
1.000000 0.500000 0.492157
1.000000 0.500000 0.646454
1.000000 0.500000 0.789032
1.000000 0.500000 0.908172
1.000000 0.500000 0.992157
1.000000 0.654297 0.000000
1.000000 0.654297 0.076141
1.000000 0.654297 0.195282
1.000000 0.654297 0.337860
1.000000 0.654297 0.492157
1.000000 0.654297 0.646454
1.000000 0.654297 0.789032
1.000000 0.654297 0.908172
1.000000 0.654297 0.992157
1.000000 0.796875 0.000000
1.000000 0.796875 0.076141
1.000000 0.796875 0.195282
1.000000 0.796875 0.337860
1.000000 0.796875 0.492157
1.000000 0.796875 0.646454
1.000000 0.796875 0.789032
1.000000 0.796875 0.908172
1.000000 0.796875 0.992157
1.000000 0.916016 0.000000
1.000000 0.916016 0.076141
1.000000 0.916016 0.195282
1.000000 0.916016 0.337860
1.000000 0.916016 0.492157
1.000000 0.916016 0.646454
1.000000 0.916016 0.789032
1.000000 0.916016 0.908172
1.000000 0.916016 0.992157
1.000000 1.000000 0.000000
1.000000 1.000000 0.076141
1.000000 1.000000 0.195282
1.000000 1.000000 0.337860
1.000000 1.000000 0.492157
1.000000 1.000000 0.646454
1.000000 1.000000 0.760763
1.000000 1.000000 0.896484
1.000000 1.000000 0.992157
