camera/src/main/assets/lut_film.cube
# SPECTRA Film
LUT_3D_SIZE 33
0.073232 0.059045 0.044858
0.073312 0.059242 0.069989
0.073392 0.059439 0.095119
0.073472 0.059637 0.120250
0.073552 0.059834 0.145380
0.073632 0.060031 0.170511
0.073713 0.060228 0.195641
0.073793 0.060426 0.220772
0.073873 0.060623 0.245902
0.073953 0.060820 0.271033
0.074033 0.061017 0.296163
0.074113 0.061215 0.321294
0.074193 0.061412 0.346424
0.074274 0.061609 0.371555
0.074354 0.061806 0.396686
0.074434 0.062004 0.421816
0.074514 0.062201 0.446947
0.074594 0.062398 0.472077
0.074674 0.062595 0.497208
0.074755 0.062793 0.522338
0.074835 0.062990 0.547469
0.074915 0.063187 0.572599
0.074995 0.063384 0.597730
0.075075 0.063582 0.622860
0.075155 0.063779 0.647991
0.075235 0.063976 0.673121
0.075316 0.064173 0.698252
0.075396 0.064371 0.723382
0.075476 0.064568 0.748513
0.075556 0.064765 0.773644
0.075636 0.064962 0.798774
0.075716 0.065160 0.823905
0.075796 0.065357 0.849035
0.074026 0.085815 0.047972
0.074106 0.086012 0.073103
0.074186 0.086209 0.098233
0.074266 0.086407 0.123364
0.074346 0.086604 0.148494
0.074426 0.086801 0.173625
0.074507 0.086999 0.198755
0.074587 0.087196 0.223886
0.074667 0.087393 0.249016
0.074747 0.087590 0.274147
0.074827 0.087788 0.299277
0.074907 0.087985 0.324408
0.074987 0.088182 0.349538
0.075068 0.088379 0.374669
0.075148 0.088577 0.399800
0.075228 0.088774 0.424930
0.075308 0.088971 0.450061
0.075388 0.089168 0.475191
0.075468 0.089366 0.500322
0.075548 0.089563 0.525452
0.075629 0.089760 0.550583
0.075709 0.089957 0.575713
0.075789 0.090155 0.600844
0.075869 0.090352 0.625974
0.075949 0.090549 0.651105
0.076029 0.090746 0.676235
0.076109 0.090944 0.701366
0.076190 0.091141 0.726496
0.076270 0.091338 0.751627
0.076350 0.091535 0.776758
0.076430 0.091733 0.801888
0.076510 0.091930 0.827019
0.076590 0.092127 0.852149
0.074820 0.112585 0.051086
0.074900 0.112782 0.076217
0.074980 0.112980 0.101347
0.075060 0.113177 0.126478
0.075140 0.113374 0.151608
0.075220 0.113571 0.176739
0.075300 0.113769 0.201869
0.075381 0.113966 0.227000
0.075461 0.114163 0.252130
0.075541 0.114360 0.277261
0.075621 0.114558 0.302391
0.075701 0.114755 0.327522
0.075781 0.114952 0.352652
0.075861 0.115149 0.377783
0.075942 0.115347 0.402914
0.076022 0.115544 0.428044
0.076102 0.115741 0.453175
0.076182 0.115938 0.478305
0.076262 0.116136 0.503436
0.076342 0.116333 0.528566
0.076423 0.116530 0.553697
0.076503 0.116727 0.578827
0.076583 0.116925 0.603958
0.076663 0.117122 0.629088
0.076743 0.117319 0.654219
0.076823 0.117516 0.679349
0.076903 0.117714 0.704480
0.076984 0.117911 0.729610
0.077064 0.118108 0.754741
0.077144 0.118305 0.779872
0.077224 0.118503 0.805002
0.077304 0.118700 0.830133
0.077384 0.118897 0.855263
0.075613 0.139355 0.054200
0.075694 0.139553 0.079331
0.075774 0.139750 0.104461
0.075854 0.139947 0.129592
0.075934 0.140144 0.154722
0.076014 0.140342 0.179853
0.076094 0.140539 0.204983
0.076175 0.140736 0.230114
0.076255 0.140933 0.255244
0.076335 0.141131 0.280375
0.076415 0.141328 0.305505
0.076495 0.141525 0.330636
0.076575 0.141722 0.355766
0.076655 0.141920 0.380897
0.076736 0.142117 0.406028
0.076816 0.142314 0.431158
0.076896 0.142511 0.456289
0.076976 0.142709 0.481419
0.077056 0.142906 0.506550
0.077136 0.143103 0.531680
0.077216 0.143300 0.556811
0.077297 0.143498 0.581941
0.077377 0.143695 0.607072
0.077457 0.143892 0.632202
0.077537 0.144089 0.657333
0.077617 0.144287 0.682463
0.077697 0.144484 0.707594
0.077777 0.144681 0.732724
0.077858 0.144878 0.757855
0.077938 0.145076 0.782986
0.078018 0.145273 0.808116
0.078098 0.145470 0.833247
0.078178 0.145667 0.858377
0.076407 0.166125 0.057314
0.076488 0.166323 0.082445
0.076568 0.166520 0.107575
0.076648 0.166717 0.132706
0.076728 0.166914 0.157836
0.076808 0.167112 0.182967
0.076888 0.167309 0.208097
0.076968 0.167506 0.233228
0.077049 0.167703 0.258358
0.077129 0.167901 0.283489
0.077209 0.168098 0.308619
0.077289 0.168295 0.333750
0.077369 0.168492 0.358880
0.077449 0.168690 0.384011
0.077529 0.168887 0.409141
0.077610 0.169084 0.434272
0.077690 0.169281 0.459403
0.077770 0.169479 0.484533
0.077850 0.169676 0.509664
0.077930 0.169873 0.534794
0.078010 0.170070 0.559925
0.078091 0.170268 0.585055
0.078171 0.170465 0.610186
0.078251 0.170662 0.635316
0.078331 0.170859 0.660447
0.078411 0.171057 0.685577
0.078491 0.171254 0.710708
0.078571 0.171451 0.735838
0.078652 0.171649 0.760969
0.078732 0.171846 0.786100
0.078812 0.172043 0.811230
0.078892 0.172240 0.836361
0.078972 0.172438 0.861491
0.077201 0.192896 0.060428
0.077281 0.193093 0.085559
0.077362 0.193290 0.110689
0.077442 0.193487 0.135820
0.077522 0.193685 0.160950
0.077602 0.193882 0.186081
0.077682 0.194079 0.211211
0.077762 0.194276 0.236342
0.077843 0.194474 0.261472
0.077923 0.194671 0.286603
0.078003 0.194868 0.311733
0.078083 0.195065 0.336864
0.078163 0.195263 0.361994
0.078243 0.195460 0.387125
0.078323 0.195657 0.412255
0.078404 0.195854 0.437386
0.078484 0.196052 0.462517
0.078564 0.196249 0.487647
0.078644 0.196446 0.512778
0.078724 0.196643 0.537908
0.078804 0.196841 0.563039
0.078884 0.197038 0.588169
0.078965 0.197235 0.613300
0.079045 0.197432 0.638430
0.079125 0.197630 0.663561
0.079205 0.197827 0.688691
0.079285 0.198024 0.713822
0.079365 0.198221 0.738952
0.079445 0.198419 0.764083
0.079526 0.198616 0.789214
0.079606 0.198813 0.814344
0.079686 0.199010 0.839475
0.079766 0.199208 0.864605
0.077995 0.219666 0.063542
0.078075 0.219863 0.088673
0.078156 0.220060 0.113803
0.078236 0.220257 0.138934
0.078316 0.220455 0.164064
0.078396 0.220652 0.189195
0.078476 0.220849 0.214325
0.078556 0.221046 0.239456
0.078636 0.221244 0.264586
0.078717 0.221441 0.289717
0.078797 0.221638 0.314847
0.078877 0.221835 0.339978
0.078957 0.222033 0.365108
0.079037 0.222230 0.390239
0.079117 0.222427 0.415369
0.079197 0.222624 0.440500
0.079278 0.222822 0.465631
0.079358 0.223019 0.490761
0.079438 0.223216 0.515892
0.079518 0.223414 0.541022
0.079598 0.223611 0.566153
0.079678 0.223808 0.591283
0.079759 0.224005 0.616414
0.079839 0.224203 0.641544
0.079919 0.224400 0.666675
0.079999 0.224597 0.691805
0.080079 0.224794 0.716936
0.080159 0.224992 0.742066
0.080239 0.225189 0.767197
0.080320 0.225386 0.792328
0.080400 0.225583 0.817458
0.080480 0.225781 0.842589
0.080560 0.225978 0.867719
0.078789 0.246436 0.066656
0.078869 0.246633 0.091787
0.078949 0.246830 0.116917
0.079030 0.247028 0.142048
0.079110 0.247225 0.167178
0.079190 0.247422 0.192309
0.079270 0.247619 0.217439
0.079350 0.247817 0.242570
0.079430 0.248014 0.267700
0.079511 0.248211 0.292831
0.079591 0.248408 0.317961
0.079671 0.248606 0.343092
0.079751 0.248803 0.368222
0.079831 0.249000 0.393353
0.079911 0.249197 0.418483
0.079991 0.249395 0.443614
0.080072 0.249592 0.468745
0.080152 0.249789 0.493875
0.080232 0.249986 0.519006
0.080312 0.250184 0.544136
0.080392 0.250381 0.569267
0.080472 0.250578 0.594397
0.080552 0.250775 0.619528
0.080633 0.250973 0.644658
0.080713 0.251170 0.669789
0.080793 0.251367 0.694919
0.080873 0.251564 0.720050
0.080953 0.251762 0.745180
0.081033 0.251959 0.770311
0.081113 0.252156 0.795442
0.081194 0.252353 0.820572
0.081274 0.252551 0.845703
0.081354 0.252748 0.870833
0.079583 0.273206 0.069770
0.079663 0.273403 0.094901
0.079743 0.273600 0.120031
0.079824 0.273798 0.145162
0.079904 0.273995 0.170292
0.079984 0.274192 0.195423
0.080064 0.274389 0.220553
0.080144 0.274587 0.245684
0.080224 0.274784 0.270814
0.080304 0.274981 0.295945
0.080385 0.275178 0.321075
0.080465 0.275376 0.346206
0.080545 0.275573 0.371336
0.080625 0.275770 0.396467
0.080705 0.275968 0.421597
0.080785 0.276165 0.446728
0.080865 0.276362 0.471859
0.080946 0.276559 0.496989
0.081026 0.276757 0.522120
0.081106 0.276954 0.547250
0.081186 0.277151 0.572381
0.081266 0.277348 0.597511
0.081346 0.277546 0.622642
0.081427 0.277743 0.647772
0.081507 0.277940 0.672903
0.081587 0.278137 0.698033
0.081667 0.278335 0.723164
0.081747 0.278532 0.748294
0.081827 0.278729 0.773425
0.081907 0.278926 0.798556
0.081988 0.279124 0.823686
0.082068 0.279321 0.848817
0.082148 0.279518 0.873947
0.080377 0.299976 0.072884
0.080457 0.300173 0.098015
0.080537 0.300371 0.123145
0.080617 0.300568 0.148276
0.080698 0.300765 0.173406
0.080778 0.300962 0.198537
0.080858 0.301160 0.223667
0.080938 0.301357 0.248798
0.081018 0.301554 0.273928
0.081098 0.301751 0.299059
0.081179 0.301949 0.324189
0.081259 0.302146 0.349320
0.081339 0.302343 0.374450
0.081419 0.302540 0.399581
0.081499 0.302738 0.424711
0.081579 0.302935 0.449842
0.081659 0.303132 0.474973
0.081740 0.303329 0.500103
0.081820 0.303527 0.525234
0.081900 0.303724 0.550364
0.081980 0.303921 0.575495
0.082060 0.304118 0.600625
0.082140 0.304316 0.625756
0.082220 0.304513 0.650886
0.082301 0.304710 0.676017
0.082381 0.304907 0.701147
0.082461 0.305105 0.726278
0.082541 0.305302 0.751408
0.082621 0.305499 0.776539
0.082701 0.305696 0.801670
0.082781 0.305894 0.826800
0.082862 0.306091 0.851931
0.082943 0.306288 0.877060
0.081171 0.326746 0.075998
0.081251 0.326943 0.101128
0.081331 0.327141 0.126259
0.081411 0.327338 0.151390
0.081492 0.327535 0.176520
0.081572 0.327733 0.201651
0.081652 0.327930 0.226781
0.081732 0.328127 0.251912
0.081812 0.328324 0.277042
0.081892 0.328522 0.302173
0.081972 0.328719 0.327303
0.082053 0.328916 0.352434
0.082133 0.329113 0.377564
0.082213 0.329311 0.402695
0.082293 0.329508 0.427825
0.082373 0.329705 0.452956
0.082453 0.329902 0.478087
0.082533 0.330100 0.503217
0.082614 0.330297 0.528348
0.082694 0.330494 0.553478
0.082774 0.330691 0.578609
0.082854 0.330889 0.603739
0.082934 0.331086 0.628870
0.083123 0.331285 0.653895
0.083322 0.331484 0.678910
0.083521 0.331683 0.703926
0.083720 0.331882 0.728941
0.083919 0.332081 0.753956
0.084118 0.332280 0.778971
0.084317 0.332479 0.803987
0.084517 0.332678 0.829002
0.084716 0.332877 0.854017
0.084915 0.333076 0.879032
0.081965 0.353516 0.079112
0.082045 0.353714 0.104242
0.082125 0.353911 0.129373
0.082205 0.354108 0.154504
0.082285 0.354305 0.179634
0.082366 0.354503 0.204765
0.082446 0.354700 0.229895
0.082526 0.354897 0.255026
0.082606 0.355094 0.280156
0.082686 0.355292 0.305287
0.082766 0.355489 0.330417
0.082847 0.355686 0.355548
0.082927 0.355883 0.380678
0.083104 0.356082 0.405715
0.083303 0.356281 0.430730
0.083502 0.356480 0.455745
0.083701 0.356679 0.480760
0.083901 0.356878 0.505776
0.084100 0.357078 0.530791
0.084299 0.357277 0.555806
0.084498 0.357476 0.580821
0.084697 0.357675 0.605837
0.084896 0.357874 0.630852
0.085095 0.358073 0.655867
0.085294 0.358272 0.680882
0.085493 0.358471 0.705898
0.085692 0.358670 0.730913
0.085891 0.358869 0.755928
0.086090 0.359068 0.780943
0.086290 0.359267 0.805959
0.086489 0.359467 0.830974
0.086688 0.359666 0.855989
0.086887 0.359865 0.881004
0.082759 0.380287 0.082226
0.082839 0.380484 0.107356
0.082919 0.380681 0.132487
0.083085 0.380880 0.157534
0.083285 0.381079 0.182549
0.083484 0.381278 0.207565
0.083683 0.381477 0.232580
0.083882 0.381676 0.257595
0.084081 0.381875 0.282610
0.084280 0.382074 0.307626
0.084479 0.382273 0.332641
0.084678 0.382472 0.357656
0.084877 0.382671 0.382671
0.085076 0.382870 0.407687
0.085275 0.383069 0.432702
0.085474 0.383269 0.457717
0.085674 0.383468 0.482732
0.085873 0.383667 0.507748
0.086072 0.383866 0.532763
0.086271 0.384065 0.557778
0.086470 0.384264 0.582793
0.086669 0.384463 0.607809
0.086868 0.384662 0.632824
0.087067 0.384861 0.657839
0.087266 0.385060 0.682854
0.087465 0.385259 0.707870
0.087664 0.385458 0.732885
0.087863 0.385658 0.757900
0.088062 0.385857 0.782915
0.088262 0.386056 0.807931
0.088461 0.386255 0.832946
0.088660 0.386454 0.857961
0.088859 0.386653 0.882976
0.084460 0.407071 0.084460
0.084659 0.407270 0.109476
0.084858 0.407469 0.134491
0.085058 0.407668 0.159506
0.085257 0.407867 0.184521
0.085456 0.408066 0.209537
0.085655 0.408265 0.234552
0.085854 0.408464 0.259567
0.086053 0.408663 0.284582
0.086252 0.408862 0.309598
0.086451 0.409061 0.334613
0.086650 0.409260 0.359628
0.086849 0.409460 0.384643
0.087048 0.409659 0.409659
0.087247 0.409858 0.434674
0.087447 0.410057 0.459689
0.087646 0.410256 0.484704
0.087845 0.410455 0.509720
0.088044 0.410654 0.534735
0.088243 0.410853 0.559750
0.088442 0.411052 0.584765
0.088641 0.411251 0.609781
0.088840 0.411450 0.634796
0.089039 0.411649 0.659811
0.089238 0.411849 0.684826
0.089437 0.412048 0.709842
0.089636 0.412247 0.734857
0.089835 0.412446 0.759872
0.090035 0.412645 0.784887
0.090234 0.412844 0.809903
0.090433 0.413043 0.834918
0.090632 0.413242 0.859933
0.090831 0.413441 0.884949
0.086432 0.433859 0.086432
0.086631 0.434058 0.111448
0.086831 0.434257 0.136463
0.087030 0.434456 0.161478
0.087229 0.434655 0.186493
0.087428 0.434854 0.211509
0.087627 0.435053 0.236524
0.087826 0.435252 0.261539
0.088025 0.435451 0.286554
0.088224 0.435651 0.311570
0.088423 0.435850 0.336585
0.088622 0.436049 0.361600
0.088821 0.436248 0.386615
0.089020 0.436447 0.411631
0.089219 0.436646 0.436646
0.089419 0.436845 0.461661
0.089618 0.437044 0.486676
0.089817 0.437243 0.511692
0.090016 0.437442 0.536707
0.090215 0.437641 0.561722
0.090414 0.437840 0.586738
0.090613 0.438040 0.611753
0.090812 0.438239 0.636768
0.091011 0.438438 0.661783
0.091210 0.438637 0.686799
0.091409 0.438836 0.711814
0.091608 0.439035 0.736829
0.091808 0.439234 0.761844
0.092007 0.439433 0.786860
0.092206 0.439632 0.811875
0.092405 0.439831 0.836890
0.092604 0.440030 0.861905
0.092803 0.440229 0.886921
0.088404 0.460647 0.088404
0.088603 0.460846 0.113420
0.088803 0.461045 0.138435
0.089002 0.461244 0.163450
0.089201 0.461443 0.188465
0.089400 0.461642 0.213481
0.089599 0.461842 0.238496
0.089798 0.462041 0.263511
0.089997 0.462240 0.288526
0.090196 0.462439 0.313542
0.090395 0.462638 0.338557
0.090594 0.462837 0.363572
0.090793 0.463036 0.388587
0.090992 0.463235 0.413603
0.091192 0.463434 0.438618
0.091391 0.463633 0.463633
0.091590 0.463832 0.488649
0.091789 0.464031 0.513664
0.091988 0.464231 0.538679
0.092187 0.464430 0.563694
0.092386 0.464629 0.588710
0.092585 0.464828 0.613725
0.092784 0.465027 0.638740
0.092983 0.465226 0.663755
0.093182 0.465425 0.688771
0.093381 0.465624 0.713786
0.093581 0.465823 0.738801
0.093780 0.466022 0.763816
0.093979 0.466221 0.788832
0.094178 0.466420 0.813847
0.094377 0.466619 0.838862
0.094576 0.466819 0.863877
0.094775 0.467018 0.888893
0.090376 0.487435 0.090376
0.090576 0.487634 0.115392
0.090775 0.487833 0.140407
0.090974 0.488033 0.165422
0.091173 0.488232 0.190438
0.091372 0.488431 0.215453
0.091571 0.488630 0.240468
0.091770 0.488829 0.265483
0.091969 0.489028 0.290499
0.092168 0.489227 0.315514
0.092367 0.489426 0.340529
0.092566 0.489625 0.365544
0.092765 0.489824 0.390560
0.092965 0.490023 0.415575
0.093164 0.490222 0.440590
0.093363 0.490422 0.465605
0.093562 0.490621 0.490621
0.093761 0.490820 0.515636
0.093960 0.491019 0.540651
0.094159 0.491218 0.565666
0.094358 0.491417 0.590682
0.094557 0.491616 0.615697
0.094756 0.491815 0.640712
0.094955 0.492014 0.665727
0.095154 0.492213 0.690743
0.095353 0.492412 0.715758
0.095553 0.492611 0.740773
0.095752 0.492810 0.765788
0.095951 0.493010 0.790804
0.096150 0.493209 0.815819
0.096349 0.493408 0.840834
0.096548 0.493607 0.865849
0.096747 0.493806 0.890865
0.092349 0.514224 0.092349
0.092548 0.514423 0.117364
0.092747 0.514622 0.142379
0.092946 0.514821 0.167394
0.093145 0.515020 0.192410
0.093344 0.515219 0.217425
0.093543 0.515418 0.242440
0.093742 0.515617 0.267455
0.093941 0.515816 0.292471
0.094140 0.516015 0.317486
0.094339 0.516214 0.342501
0.094538 0.516413 0.367516
0.094737 0.516613 0.392532
0.094937 0.516812 0.417547
0.095136 0.517011 0.442562
0.095335 0.517210 0.467577
0.095534 0.517409 0.492593
0.095733 0.517608 0.517608
0.095932 0.517807 0.542623
0.096131 0.518006 0.567638
0.096330 0.518205 0.592654
0.096529 0.518404 0.617669
0.096728 0.518603 0.642684
0.096927 0.518802 0.667699
0.097126 0.519001 0.692715
0.097326 0.519201 0.717730
0.097525 0.519400 0.742745
0.097724 0.519599 0.767760
0.097923 0.519798 0.792776
0.098122 0.519997 0.817791
0.098321 0.520196 0.842806
0.098520 0.520395 0.867822
0.098719 0.520594 0.892837
0.094321 0.541012 0.094321
0.094520 0.541211 0.119336
0.094719 0.541410 0.144351
0.094918 0.541609 0.169366
0.095117 0.541808 0.194382
0.095316 0.542007 0.219397
0.095515 0.542206 0.244412
0.095714 0.542405 0.269427
0.095913 0.542604 0.294443
0.096112 0.542803 0.319458
0.096311 0.543003 0.344473
0.096510 0.543202 0.369488
0.096710 0.543401 0.394504
0.096909 0.543600 0.419519
0.097108 0.543799 0.444534
0.097307 0.543998 0.469549
0.097506 0.544197 0.494565
0.097705 0.544396 0.519580
0.097904 0.544595 0.544595
0.098103 0.544794 0.569610
0.098302 0.544993 0.594626
0.098501 0.545192 0.619641
0.098700 0.545392 0.644656
0.098899 0.545591 0.669672
0.099099 0.545790 0.694687
0.099298 0.545989 0.719702
0.099497 0.546188 0.744717
0.099696 0.546387 0.769733
0.099895 0.546586 0.794748
0.100094 0.546785 0.819763
0.100293 0.546984 0.844778
0.100492 0.547183 0.869794
0.100691 0.547382 0.894809
0.096293 0.567800 0.096293
0.096492 0.567999 0.121308
0.096691 0.568198 0.146323
0.096890 0.568397 0.171338
0.097089 0.568596 0.196354
0.097288 0.568795 0.221369
0.097487 0.568994 0.246384
0.097686 0.569194 0.271399
0.097885 0.569393 0.296415
0.098084 0.569592 0.321430
0.098283 0.569791 0.346445
0.098483 0.569990 0.371460
0.098682 0.570189 0.396476
0.098881 0.570388 0.421491
0.099080 0.570587 0.446506
0.099279 0.570786 0.471522
0.099478 0.570985 0.496537
0.099677 0.571184 0.521552
0.099876 0.571383 0.546567
0.100075 0.571583 0.571583
0.100274 0.571782 0.596598
0.100473 0.571981 0.621613
0.100672 0.572180 0.646628
0.100872 0.572379 0.671644
0.101071 0.572578 0.696659
0.101270 0.572777 0.721674
0.101469 0.572976 0.746689
0.101668 0.573175 0.771705
0.101867 0.573374 0.796720
0.102066 0.573573 0.821735
0.102265 0.573772 0.846750
0.102464 0.573972 0.871766
0.102663 0.574171 0.896781
0.098265 0.594588 0.098265
0.098464 0.594787 0.123280
0.098663 0.594986 0.148295
0.098862 0.595185 0.173310
0.099061 0.595385 0.198326
0.099260 0.595584 0.223341
0.099459 0.595783 0.248356
0.099658 0.595982 0.273372
0.099857 0.596181 0.298387
0.100056 0.596380 0.323402
0.100256 0.596579 0.348417
0.100455 0.596778 0.373433
0.100654 0.596977 0.398448
0.100853 0.597176 0.423463
0.101052 0.597375 0.448478
0.101251 0.597574 0.473494
0.101450 0.597774 0.498509
0.101649 0.597973 0.523524
0.101848 0.598172 0.548539
0.102047 0.598371 0.573555
0.102246 0.598570 0.598570
0.102445 0.598769 0.623585
0.102644 0.598968 0.648600
0.102844 0.599167 0.673616
0.103043 0.599366 0.698631
0.103242 0.599565 0.723646
0.103441 0.599764 0.748661
0.103640 0.599963 0.773677
0.103839 0.600163 0.798692
0.104038 0.600362 0.823707
0.104237 0.600561 0.848722
0.104436 0.600760 0.873738
0.104635 0.600959 0.898753
0.100237 0.621376 0.100237
0.100436 0.621576 0.125252
0.100635 0.621775 0.150267
0.100834 0.621974 0.175283
0.101033 0.622173 0.200298
0.101232 0.622372 0.225313
0.101431 0.622571 0.250328
0.101630 0.622770 0.275344
0.101829 0.622969 0.300359
0.102028 0.623168 0.325374
0.102228 0.623367 0.350389
0.102427 0.623566 0.375405
0.102626 0.623765 0.400420
0.102825 0.623965 0.425435
0.103024 0.624164 0.450450
0.103223 0.624363 0.475466
0.103422 0.624562 0.500481
0.103621 0.624761 0.525496
0.103820 0.624960 0.550511
0.104019 0.625159 0.575527
0.104218 0.625358 0.600542
0.104417 0.625557 0.625557
0.104617 0.625756 0.650572
0.104816 0.625955 0.675588
0.105015 0.626154 0.700603
0.105214 0.626353 0.725618
0.105413 0.626553 0.750633
0.105612 0.626752 0.775649
0.105811 0.626951 0.800664
0.106010 0.627150 0.825679
0.106209 0.627349 0.850694
0.106408 0.627548 0.875710
0.106607 0.627747 0.900725
0.102209 0.648165 0.102209
0.102408 0.648364 0.127224
0.102607 0.648563 0.152239
0.102806 0.648762 0.177255
0.103005 0.648961 0.202270
0.103204 0.649160 0.227285
0.103403 0.649359 0.252300
0.103602 0.649558 0.277316
0.103801 0.649757 0.302331
0.104001 0.649956 0.327346
0.104200 0.650156 0.352361
0.104399 0.650355 0.377377
0.104598 0.650554 0.402392
0.104797 0.650753 0.427407
0.104996 0.650952 0.452422
0.105195 0.651151 0.477438
0.105394 0.651350 0.502453
0.105593 0.651549 0.527468
0.105792 0.651748 0.552483
0.105991 0.651947 0.577499
0.106190 0.652146 0.602514
0.106390 0.652345 0.627529
0.106589 0.652544 0.652544
0.106788 0.652744 0.677560
0.106987 0.652943 0.702575
0.107186 0.653142 0.727590
0.107385 0.653341 0.752606
0.107584 0.653540 0.777621
0.107783 0.653739 0.802636
0.107982 0.653938 0.827651
0.108181 0.654137 0.852667
0.108380 0.654336 0.877682
0.108579 0.654535 0.902697
0.104181 0.674953 0.104181
0.104380 0.675152 0.129196
0.104579 0.675351 0.154211
0.104778 0.675550 0.179227
0.104977 0.675749 0.204242
0.105176 0.675948 0.229257
0.105375 0.676147 0.254272
0.105574 0.676347 0.279288
0.105774 0.676546 0.304303
0.105973 0.676745 0.329318
0.106172 0.676944 0.354333
0.106371 0.677143 0.379349
0.106570 0.677342 0.404364
0.106769 0.677541 0.429379
0.106968 0.677740 0.454394
0.107167 0.677939 0.479410
0.107366 0.678138 0.504425
0.107565 0.678337 0.529440
0.107764 0.678536 0.554456
0.107963 0.678735 0.579471
0.108162 0.678935 0.604486
0.108362 0.679134 0.629501
0.108561 0.679333 0.654517
0.108760 0.679532 0.679532
0.108959 0.679731 0.704547
0.109158 0.679930 0.729562
0.109357 0.680129 0.754578
0.109556 0.680328 0.779593
0.109755 0.680527 0.804608
0.109954 0.680726 0.829623
0.110153 0.680925 0.854639
0.110352 0.681124 0.879654
0.110551 0.681324 0.904669
0.106153 0.701741 0.106153
0.106352 0.701940 0.131168
0.106551 0.702139 0.156183
0.106750 0.702338 0.181199
0.106949 0.702538 0.206214
0.107148 0.702737 0.231229
0.107347 0.702936 0.256244
0.107547 0.703135 0.281260
0.107746 0.703334 0.306275
0.107945 0.703533 0.331290
0.108144 0.703732 0.356306
0.108343 0.703931 0.381321
0.108542 0.704130 0.406336
0.108741 0.704329 0.431351
0.108940 0.704528 0.456367
0.109139 0.704727 0.481382
0.109338 0.704926 0.506397
0.109537 0.705126 0.531412
0.109736 0.705325 0.556428
0.109935 0.705524 0.581443
0.110135 0.705723 0.606458
0.110334 0.705922 0.631473
0.110533 0.706121 0.656489
0.110732 0.706320 0.681504
0.110931 0.706519 0.706519
0.111130 0.706718 0.731534
0.111329 0.706917 0.756550
0.111528 0.707116 0.781565
0.111727 0.707315 0.806580
0.111926 0.707515 0.831595
0.112125 0.707714 0.856611
0.112324 0.707913 0.881626
0.112524 0.708112 0.906641
0.108125 0.728529 0.108125
0.108324 0.728728 0.133140
0.108523 0.728928 0.158156
0.108722 0.729127 0.183171
0.108921 0.729326 0.208186
0.109120 0.729525 0.233201
0.109319 0.729724 0.258217
0.109519 0.729923 0.283232
0.109718 0.730122 0.308247
0.109917 0.730321 0.333262
0.110116 0.730520 0.358278
0.110315 0.730719 0.383293
0.110514 0.730918 0.408308
0.110713 0.731117 0.433323
0.110912 0.731317 0.458339
0.111111 0.731516 0.483354
0.111310 0.731715 0.508369
0.111509 0.731914 0.533384
0.111708 0.732113 0.558400
0.111908 0.732312 0.583415
0.112107 0.732511 0.608430
0.112306 0.732710 0.633445
0.112505 0.732909 0.658461
0.112704 0.733108 0.683476
0.112903 0.733307 0.708491
0.113102 0.733506 0.733506
0.113301 0.733706 0.758522
0.113500 0.733905 0.783537
0.113699 0.734104 0.808552
0.113898 0.734303 0.833567
0.114097 0.734502 0.858583
0.114297 0.734701 0.883598
0.114496 0.734900 0.908613
0.110097 0.755318 0.110097
0.110296 0.755517 0.135112
0.110495 0.755716 0.160128
0.110694 0.755915 0.185143
0.110893 0.756114 0.210158
0.111092 0.756313 0.235173
0.111292 0.756512 0.260189
0.111491 0.756711 0.285204
0.111690 0.756910 0.310219
0.111889 0.757109 0.335234
0.112088 0.757308 0.360250
0.112287 0.757508 0.385265
0.112486 0.757707 0.410280
0.112685 0.757906 0.435295
0.112884 0.758105 0.460311
0.113083 0.758304 0.485326
0.113282 0.758503 0.510341
0.113481 0.758702 0.535356
0.113681 0.758901 0.560372
0.113880 0.759100 0.585387
0.114079 0.759299 0.610402
0.114278 0.759498 0.635417
0.114477 0.759697 0.660433
0.114676 0.759897 0.685448
0.114875 0.760096 0.710463
0.115074 0.760295 0.735478
0.115273 0.760494 0.760494
0.115472 0.760693 0.785509
0.115671 0.760892 0.810524
