camera/src/main/assets/lut_cinematic.cube
# SPECTRA Cinematic
LUT_3D_SIZE 5
0.078431 0.095809 0.113187
0.078431 0.094616 0.321584
0.078431 0.093422 0.529981
0.078431 0.092228 0.738378
0.078431 0.091035 0.946776
0.078431 0.294770 0.089540
0.078431 0.293576 0.297937
0.078431 0.292383 0.506334
0.078431 0.291189 0.714731
0.078431 0.289995 0.923128
0.078431 0.500000 0.078431
0.078431 0.500000 0.289216
0.078431 0.500000 0.500000
0.078431 0.500000 0.710784
0.078431 0.500000 0.921569
0.078431 0.710784 0.078431
0.078431 0.710784 0.289216
0.078431 0.710784 0.500000
0.078431 0.710784 0.710784
0.078431 0.710784 0.921569
0.078431 0.921569 0.078431
0.078431 0.921569 0.289216
0.079363 0.921569 0.499379
0.080557 0.921569 0.709367
0.081750 0.921569 0.919356
0.289216 0.092295 0.106158
0.289216 0.091101 0.314555
0.289216 0.089907 0.522952
0.289216 0.088714 0.731349
0.289216 0.087520 0.939746
0.289216 0.291255 0.082510
0.289216 0.290062 0.290907
0.289216 0.289216 0.500000
0.289216 0.289216 0.710784
0.289216 0.289216 0.921569
0.289216 0.500000 0.078431
0.289216 0.500000 0.289216
0.289216 0.500000 0.500000
0.289216 0.500000 0.710784
0.289216 0.500000 0.921569
0.289216 0.710784 0.078431
0.289216 0.710784 0.289216
0.289216 0.710784 0.500000
0.289216 0.710784 0.710784
0.289216 0.710784 0.921569
0.291275 0.921569 0.077059
0.292469 0.921569 0.287047
0.293662 0.921569 0.497036
0.294856 0.921569 0.707024
0.296049 0.921569 0.917013
0.500000 0.088780 0.099128
0.500000 0.087586 0.307525
0.500000 0.086393 0.515922
0.500000 0.085199 0.724320
0.500000 0.084005 0.932717
0.500000 0.289216 0.078431
0.500000 0.289216 0.289216
0.500000 0.289216 0.500000
0.500000 0.289216 0.710784
0.500000 0.289216 0.921569
0.500000 0.500000 0.078431
0.500000 0.500000 0.289216
0.500000 0.500000 0.500000
0.500000 0.500000 0.710784
0.500000 0.500000 0.921569
0.500000 0.710784 0.078431
0.500000 0.710784 0.289216
0.500000 0.710784 0.500000
0.500000 0.710784 0.710784
0.500000 0.710784 0.921569
0.505574 0.921569 0.074715
0.506768 0.921569 0.284704
0.507961 0.921569 0.494693
0.509155 0.921569 0.704681
0.510348 0.921569 0.914670
0.710784 0.085265 0.092099
0.710784 0.084072 0.300496
0.710784 0.082878 0.508893
0.710784 0.081684 0.717290
0.710784 0.080491 0.925687
0.710784 0.289216 0.078431
0.710784 0.289216 0.289216
0.710784 0.289216 0.500000
0.710784 0.289216 0.710784
0.710784 0.289216 0.921569
0.710784 0.500000 0.078431
0.710784 0.500000 0.289216
0.710784 0.500000 0.500000
0.710784 0.500000 0.710784
0.710784 0.500000 0.921569
0.710784 0.710784 0.078431
0.710784 0.710784 0.289216
0.710784 0.710784 0.500000
0.711630 0.710784 0.710220
0.712824 0.710784 0.920209
0.719873 0.921569 0.072372
0.721067 0.921569 0.282361
0.722260 0.921569 0.492349
0.723454 0.921569 0.702338
0.724648 0.921569 0.912326
0.921569 0.081750 0.085069
0.921569 0.080557 0.293467
0.921569 0.079363 0.501864
0.921569 0.078431 0.710784
0.921569 0.078431 0.921569
0.921569 0.289216 0.078431
0.921569 0.289216 0.289216
0.921569 0.289216 0.500000
0.921569 0.289216 0.710784
0.921569 0.289216 0.921569
0.921569 0.500000 0.078431
0.921569 0.500000 0.289216
0.921569 0.500000 0.500000
0.921569 0.500000 0.710784
0.921569 0.500000 0.921569
0.922348 0.710784 0.077912
0.923542 0.710784 0.287900
0.924736 0.710784 0.497889
0.925929 0.710784 0.707877
0.927123 0.710784 0.917866
0.934172 0.921569 0.070029
0.935366 0.921569 0.280018
0.936559 0.921569 0.490006
0.937753 0.921569 0.699995
0.938947 0.921569 0.909983
