camera/src/main/assets/lut_cinematic.cube
# SPECTRA Cinematic
LUT_3D_SIZE 33
0.078431 0.095809 0.113187
0.078431 0.095660 0.139237
0.078431 0.095511 0.165287
0.078431 0.095362 0.191336
0.078431 0.095212 0.217386
0.078431 0.095063 0.243435
0.078431 0.094914 0.269485
0.078431 0.094765 0.295535
0.078431 0.094616 0.321584
0.078431 0.094466 0.347634
0.078431 0.094317 0.373684
0.078431 0.094168 0.399733
0.078431 0.094019 0.425783
0.078431 0.093870 0.451832
0.078431 0.093720 0.477882
0.078431 0.093571 0.503932
0.078431 0.093422 0.529981
0.078431 0.093273 0.556031
0.078431 0.093124 0.582081
0.078431 0.092974 0.608130
0.078431 0.092825 0.634180
0.078431 0.092676 0.660230
0.078431 0.092527 0.686279
0.078431 0.092378 0.712329
0.078431 0.092228 0.738378
0.078431 0.092079 0.764428
0.078431 0.091930 0.790478
0.078431 0.091781 0.816527
0.078431 0.091632 0.842577
0.078431 0.091482 0.868627
0.078431 0.091333 0.894676
0.078431 0.091184 0.920726
0.078431 0.091035 0.946776
0.078431 0.120679 0.110231
0.078431 0.120530 0.136281
0.078431 0.120381 0.162331
0.078431 0.120232 0.188380
0.078431 0.120083 0.214430
0.078431 0.119933 0.240479
0.078431 0.119784 0.266529
0.078431 0.119635 0.292579
0.078431 0.119486 0.318628
0.078431 0.119337 0.344678
0.078431 0.119187 0.370728
0.078431 0.119038 0.396777
0.078431 0.118889 0.422827
0.078431 0.118740 0.448877
0.078431 0.118591 0.474926
0.078431 0.118441 0.500976
0.078431 0.118292 0.527025
0.078431 0.118143 0.553075
0.078431 0.117994 0.579125
0.078431 0.117845 0.605174
0.078431 0.117695 0.631224
0.078431 0.117546 0.657274
0.078431 0.117397 0.683323
0.078431 0.117248 0.709373
0.078431 0.117099 0.735423
0.078431 0.116949 0.761472
0.078431 0.116800 0.787522
0.078431 0.116651 0.813571
0.078431 0.116502 0.839621
0.078431 0.116353 0.865671
0.078431 0.116203 0.891720
0.078431 0.116054 0.917770
0.078431 0.115905 0.943820
0.078431 0.145549 0.107275
0.078431 0.145400 0.133325
0.078431 0.145251 0.159375
0.078431 0.145102 0.185424
0.078431 0.144953 0.211474
0.078431 0.144803 0.237524
0.078431 0.144654 0.263573
0.078431 0.144505 0.289623
0.078431 0.144356 0.315672
0.078431 0.144207 0.341722
0.078431 0.144057 0.367772
0.078431 0.143908 0.393821
0.078431 0.143759 0.419871
0.078431 0.143610 0.445921
0.078431 0.143461 0.471970
0.078431 0.143311 0.498020
0.078431 0.143162 0.524070
0.078431 0.143013 0.550119
0.078431 0.142864 0.576169
0.078431 0.142715 0.602218
0.078431 0.142565 0.628268
0.078431 0.142416 0.654318
0.078431 0.142267 0.680367
0.078431 0.142118 0.706417
0.078431 0.141969 0.732467
0.078431 0.141819 0.758516
0.078431 0.141670 0.784566
0.078431 0.141521 0.810615
0.078431 0.141372 0.836665
0.078431 0.141223 0.862715
0.078431 0.141073 0.888764
0.078431 0.140924 0.914814
0.078431 0.140775 0.940864
0.078431 0.170420 0.104319
0.078431 0.170270 0.130369
0.078431 0.170121 0.156419
0.078431 0.169972 0.182468
0.078431 0.169823 0.208518
0.078431 0.169674 0.234568
0.078431 0.169524 0.260617
0.078431 0.169375 0.286667
0.078431 0.169226 0.312716
0.078431 0.169077 0.338766
0.078431 0.168927 0.364816
0.078431 0.168778 0.390865
0.078431 0.168629 0.416915
0.078431 0.168480 0.442965
0.078431 0.168331 0.469014
0.078431 0.168181 0.495064
0.078431 0.168032 0.521114
0.078431 0.167883 0.547163
0.078431 0.167734 0.573213
0.078431 0.167585 0.599262
0.078431 0.167435 0.625312
0.078431 0.167286 0.651362
0.078431 0.167137 0.677411
0.078431 0.166988 0.703461
0.078431 0.166839 0.729511
0.078431 0.166689 0.755560
0.078431 0.166540 0.781610
0.078431 0.166391 0.807660
0.078431 0.166242 0.833709
0.078431 0.166093 0.859759
0.078431 0.165943 0.885808
0.078431 0.165794 0.911858
0.078431 0.165645 0.937908
0.078431 0.195290 0.101363
0.078431 0.195140 0.127413
0.078431 0.194991 0.153463
0.078431 0.194842 0.179512
0.078431 0.194693 0.205562
0.078431 0.194544 0.231612
0.078431 0.194394 0.257661
0.078431 0.194245 0.283711
0.078431 0.194096 0.309761
0.078431 0.193947 0.335810
0.078431 0.193798 0.361860
0.078431 0.193648 0.387909
0.078431 0.193499 0.413959
0.078431 0.193350 0.440009
0.078431 0.193201 0.466058
0.078431 0.193052 0.492108
0.078431 0.192902 0.518158
0.078431 0.192753 0.544207
0.078431 0.192604 0.570257
0.078431 0.192455 0.596307
0.078431 0.192306 0.622356
0.078431 0.192156 0.648406
0.078431 0.192007 0.674455
0.078431 0.191858 0.700505
0.078431 0.191709 0.726555
0.078431 0.191560 0.752604
0.078431 0.191410 0.778654
0.078431 0.191261 0.804704
0.078431 0.191112 0.830753
0.078431 0.190963 0.856803
0.078431 0.190814 0.882853
0.078431 0.190664 0.908902
0.078431 0.190515 0.934952
0.078431 0.220160 0.098408
0.078431 0.220010 0.124457
0.078431 0.219861 0.150507
0.078431 0.219712 0.176556
0.078431 0.219563 0.202606
0.078431 0.219414 0.228656
0.078431 0.219264 0.254705
0.078431 0.219115 0.280755
0.078431 0.218966 0.306805
0.078431 0.218817 0.332854
0.078431 0.218668 0.358904
0.078431 0.218518 0.384954
0.078431 0.218369 0.411003
0.078431 0.218220 0.437053
0.078431 0.218071 0.463102
0.078431 0.217922 0.489152
0.078431 0.217772 0.515202
0.078431 0.217623 0.541251
0.078431 0.217474 0.567301
0.078431 0.217325 0.593351
0.078431 0.217176 0.619400
0.078431 0.217026 0.645450
0.078431 0.216877 0.671500
0.078431 0.216728 0.697549
0.078431 0.216579 0.723599
0.078431 0.216430 0.749648
0.078431 0.216280 0.775698
0.078431 0.216131 0.801748
0.078431 0.215982 0.827797
0.078431 0.215833 0.853847
0.078431 0.215684 0.879897
0.078431 0.215534 0.905946
0.078431 0.215385 0.931996
0.078431 0.245030 0.095452
0.078431 0.244881 0.121501
0.078431 0.244731 0.147551
0.078431 0.244582 0.173600
0.078431 0.244433 0.199650
0.078431 0.244284 0.225700
0.078431 0.244135 0.251749
0.078431 0.243985 0.277799
0.078431 0.243836 0.303849
0.078431 0.243687 0.329898
0.078431 0.243538 0.355948
0.078431 0.243388 0.381998
0.078431 0.243239 0.408047
0.078431 0.243090 0.434097
0.078431 0.242941 0.460146
0.078431 0.242792 0.486196
0.078431 0.242642 0.512246
0.078431 0.242493 0.538295
0.078431 0.242344 0.564345
0.078431 0.242195 0.590395
0.078431 0.242046 0.616444
0.078431 0.241896 0.642494
0.078431 0.241747 0.668544
0.078431 0.241598 0.694593
0.078431 0.241449 0.720643
0.078431 0.241300 0.746692
0.078431 0.241150 0.772742
0.078431 0.241001 0.798792
0.078431 0.240852 0.824841
0.078431 0.240703 0.850891
0.078431 0.240554 0.876941
0.078431 0.240404 0.902990
0.078431 0.240255 0.929040
0.078431 0.269900 0.092496
0.078431 0.269751 0.118545
0.078431 0.269601 0.144595
0.078431 0.269452 0.170645
0.078431 0.269303 0.196694
0.078431 0.269154 0.222744
0.078431 0.269005 0.248793
0.078431 0.268855 0.274843
0.078431 0.268706 0.300893
0.078431 0.268557 0.326942
0.078431 0.268408 0.352992
0.078431 0.268259 0.379042
0.078431 0.268109 0.405091
0.078431 0.267960 0.431141
0.078431 0.267811 0.457191
0.078431 0.267662 0.483240
0.078431 0.267513 0.509290
0.078431 0.267363 0.535339
0.078431 0.267214 0.561389
0.078431 0.267065 0.587439
0.078431 0.266916 0.613488
0.078431 0.266767 0.639538
0.078431 0.266617 0.665588
0.078431 0.266468 0.691637
0.078431 0.266319 0.717687
0.078431 0.266170 0.743737
0.078431 0.266021 0.769786
0.078431 0.265871 0.795836
0.078431 0.265722 0.821885
0.078431 0.265573 0.847935
0.078431 0.265424 0.873985
0.078431 0.265275 0.900034
0.078431 0.265125 0.926084
0.078431 0.294770 0.089540
0.078431 0.294621 0.115589
0.078431 0.294471 0.141639
0.078431 0.294322 0.167689
0.078431 0.294173 0.193738
0.078431 0.294024 0.219788
0.078431 0.293875 0.245838
0.078431 0.293725 0.271887
0.078431 0.293576 0.297937
0.078431 0.293427 0.323986
0.078431 0.293278 0.350036
0.078431 0.293129 0.376086
0.078431 0.292979 0.402135
0.078431 0.292830 0.428185
0.078431 0.292681 0.454235
0.078431 0.292532 0.480284
0.078431 0.292383 0.506334
0.078431 0.292233 0.532384
0.078431 0.292084 0.558433
0.078431 0.291935 0.584483
0.078431 0.291786 0.610532
0.078431 0.291637 0.636582
0.078431 0.291487 0.662632
0.078431 0.291338 0.688681
0.078431 0.291189 0.714731
0.078431 0.291040 0.740781
0.078431 0.290891 0.766830
0.078431 0.290741 0.792880
0.078431 0.290592 0.818929
0.078431 0.290443 0.844979
0.078431 0.290294 0.871029
0.078431 0.290145 0.897078
0.078431 0.289995 0.923128
0.078431 0.319640 0.086584
0.078431 0.319491 0.112633
0.078431 0.319342 0.138683
0.078431 0.319192 0.164733
0.078431 0.319043 0.190782
0.078431 0.318894 0.216832
0.078431 0.318745 0.242882
0.078431 0.318596 0.268931
0.078431 0.318446 0.294981
0.078431 0.318297 0.321030
0.078431 0.318148 0.347080
0.078431 0.317999 0.373130
0.078431 0.317850 0.399179
0.078431 0.317700 0.425229
0.078431 0.317551 0.451279
0.078431 0.317402 0.477328
0.078431 0.317253 0.503378
0.078431 0.317103 0.529428
0.078431 0.316954 0.555477
0.078431 0.316805 0.581527
0.078431 0.316656 0.607576
0.078431 0.316507 0.633626
0.078431 0.316357 0.659676
0.078431 0.316208 0.685725
0.078431 0.316059 0.711775
0.078431 0.315910 0.737825
0.078431 0.315761 0.763874
0.078431 0.315611 0.789924
0.078431 0.315564 0.816176
0.078431 0.315564 0.842525
0.078431 0.315564 0.868873
0.078431 0.315564 0.895221
0.078431 0.315564 0.921569
0.078431 0.344510 0.083628
0.078431 0.344361 0.109677
0.078431 0.344212 0.135727
0.078431 0.344062 0.161777
0.078431 0.343913 0.187826
0.078431 0.343764 0.213876
0.078431 0.343615 0.239926
0.078431 0.343466 0.265975
0.078431 0.343316 0.292025
0.078431 0.343167 0.318075
0.078431 0.343018 0.344124
0.078431 0.342869 0.370174
0.078431 0.342720 0.396223
0.078431 0.342570 0.422273
0.078431 0.342421 0.448323
0.078431 0.342272 0.474372
0.078431 0.342123 0.500422
0.078431 0.341974 0.526472
0.078431 0.341912 0.552696
0.078431 0.341912 0.579044
0.078431 0.341912 0.605392
0.078431 0.341912 0.631740
0.078431 0.341912 0.658088
0.078431 0.341912 0.684436
0.078431 0.341912 0.710784
0.078431 0.341912 0.737132
0.078431 0.341912 0.763480
0.078431 0.341912 0.789828
0.078431 0.341912 0.816176
0.078431 0.341912 0.842525
0.078431 0.341912 0.868873
0.078431 0.341912 0.895221
0.078431 0.341912 0.921569
0.078431 0.369380 0.080672
0.078431 0.369231 0.106722
0.078431 0.369082 0.132771
0.078431 0.368932 0.158821
0.078431 0.368783 0.184870
0.078431 0.368634 0.210920
0.078431 0.368485 0.236970
0.078431 0.368336 0.263019
0.078431 0.368260 0.289216
0.078431 0.368260 0.315564
0.078431 0.368260 0.341912
0.078431 0.368260 0.368260
0.078431 0.368260 0.394608
0.078431 0.368260 0.420956
0.078431 0.368260 0.447304
0.078431 0.368260 0.473652
0.078431 0.368260 0.500000
0.078431 0.368260 0.526348
0.078431 0.368260 0.552696
0.078431 0.368260 0.579044
0.078431 0.368260 0.605392
0.078431 0.368260 0.631740
0.078431 0.368260 0.658088
0.078431 0.368260 0.684436
0.078431 0.368260 0.710784
0.078431 0.368260 0.737132
0.078431 0.368260 0.763480
0.078431 0.368260 0.789828
0.078431 0.368260 0.816176
0.078431 0.368260 0.842525
0.078431 0.368260 0.868873
0.078431 0.368260 0.895221
0.078431 0.368260 0.921569
0.078431 0.394608 0.078431
0.078431 0.394608 0.104779
0.078431 0.394608 0.131127
0.078431 0.394608 0.157475
0.078431 0.394608 0.183824
0.078431 0.394608 0.210172
0.078431 0.394608 0.236520
0.078431 0.394608 0.262868
0.078431 0.394608 0.289216
0.078431 0.394608 0.315564
0.078431 0.394608 0.341912
0.078431 0.394608 0.368260
0.078431 0.394608 0.394608
0.078431 0.394608 0.420956
0.078431 0.394608 0.447304
0.078431 0.394608 0.473652
0.078431 0.394608 0.500000
0.078431 0.394608 0.526348
0.078431 0.394608 0.552696
0.078431 0.394608 0.579044
0.078431 0.394608 0.605392
0.078431 0.394608 0.631740
0.078431 0.394608 0.658088
0.078431 0.394608 0.684436
0.078431 0.394608 0.710784
0.078431 0.394608 0.737132
0.078431 0.394608 0.763480
0.078431 0.394608 0.789828
0.078431 0.394608 0.816176
0.078431 0.394608 0.842525
0.078431 0.394608 0.868873
0.078431 0.394608 0.895221
0.078431 0.394608 0.921569
0.078431 0.420956 0.078431
0.078431 0.420956 0.104779
0.078431 0.420956 0.131127
0.078431 0.420956 0.157475
0.078431 0.420956 0.183824
0.078431 0.420956 0.210172
0.078431 0.420956 0.236520
0.078431 0.420956 0.262868
0.078431 0.420956 0.289216
0.078431 0.420956 0.315564
0.078431 0.420956 0.341912
0.078431 0.420956 0.368260
0.078431 0.420956 0.394608
0.078431 0.420956 0.420956
0.078431 0.420956 0.447304
0.078431 0.420956 0.473652
0.078431 0.420956 0.500000
0.078431 0.420956 0.526348
0.078431 0.420956 0.552696
0.078431 0.420956 0.579044
0.078431 0.420956 0.605392
0.078431 0.420956 0.631740
0.078431 0.420956 0.658088
0.078431 0.420956 0.684436
0.078431 0.420956 0.710784
0.078431 0.420956 0.737132
0.078431 0.420956 0.763480
0.078431 0.420956 0.789828
0.078431 0.420956 0.816176
0.078431 0.420956 0.842525
0.078431 0.420956 0.868873
0.078431 0.420956 0.895221
0.078431 0.420956 0.921569
0.078431 0.447304 0.078431
0.078431 0.447304 0.104779
0.078431 0.447304 0.131127
0.078431 0.447304 0.157475
0.078431 0.447304 0.183824
0.078431 0.447304 0.210172
0.078431 0.447304 0.236520
0.078431 0.447304 0.262868
0.078431 0.447304 0.289216
0.078431 0.447304 0.315564
0.078431 0.447304 0.341912
0.078431 0.447304 0.368260
0.078431 0.447304 0.394608
0.078431 0.447304 0.420956
0.078431 0.447304 0.447304
0.078431 0.447304 0.473652
0.078431 0.447304 0.500000
0.078431 0.447304 0.526348
0.078431 0.447304 0.552696
0.078431 0.447304 0.579044
0.078431 0.447304 0.605392
0.078431 0.447304 0.631740
0.078431 0.447304 0.658088
0.078431 0.447304 0.684436
0.078431 0.447304 0.710784
0.078431 0.447304 0.737132
0.078431 0.447304 0.763480
0.078431 0.447304 0.789828
0.078431 0.447304 0.816176
0.078431 0.447304 0.842525
0.078431 0.447304 0.868873
0.078431 0.447304 0.895221
0.078431 0.447304 0.921569
0.078431 0.473652 0.078431
0.078431 0.473652 0.104779
0.078431 0.473652 0.131127
0.078431 0.473652 0.157475
0.078431 0.473652 0.183824
0.078431 0.473652 0.210172
0.078431 0.473652 0.236520
0.078431 0.473652 0.262868
0.078431 0.473652 0.289216
0.078431 0.473652 0.315564
0.078431 0.473652 0.341912
0.078431 0.473652 0.368260
0.078431 0.473652 0.394608
0.078431 0.473652 0.420956
0.078431 0.473652 0.447304
0.078431 0.473652 0.473652
0.078431 0.473652 0.500000
0.078431 0.473652 0.526348
0.078431 0.473652 0.552696
0.078431 0.473652 0.579044
0.078431 0.473652 0.605392
0.078431 0.473652 0.631740
0.078431 0.473652 0.658088
0.078431 0.473652 0.684436
0.078431 0.473652 0.710784
0.078431 0.473652 0.737132
0.078431 0.473652 0.763480
0.078431 0.473652 0.789828
0.078431 0.473652 0.816176
0.078431 0.473652 0.842525
0.078431 0.473652 0.868873
0.078431 0.473652 0.895221
0.078431 0.473652 0.921569
0.078431 0.500000 0.078431
0.078431 0.500000 0.104779
0.078431 0.500000 0.131127
0.078431 0.500000 0.157475
0.078431 0.500000 0.183824
0.078431 0.500000 0.210172
0.078431 0.500000 0.236520
0.078431 0.500000 0.262868
0.078431 0.500000 0.289216
0.078431 0.500000 0.315564
0.078431 0.500000 0.341912
0.078431 0.500000 0.368260
0.078431 0.500000 0.394608
0.078431 0.500000 0.420956
0.078431 0.500000 0.447304
0.078431 0.500000 0.473652
0.078431 0.500000 0.500000
0.078431 0.500000 0.526348
0.078431 0.500000 0.552696
0.078431 0.500000 0.579044
0.078431 0.500000 0.605392
0.078431 0.500000 0.631740
0.078431 0.500000 0.658088
0.078431 0.500000 0.684436
0.078431 0.500000 0.710784
0.078431 0.500000 0.737132
0.078431 0.500000 0.763480
0.078431 0.500000 0.789828
0.078431 0.500000 0.816176
0.078431 0.500000 0.842525
0.078431 0.500000 0.868873
0.078431 0.500000 0.895221
0.078431 0.500000 0.921569
0.078431 0.526348 0.078431
0.078431 0.526348 0.104779
0.078431 0.526348 0.131127
0.078431 0.526348 0.157475
0.078431 0.526348 0.183824
0.078431 0.526348 0.210172
0.078431 0.526348 0.236520
0.078431 0.526348 0.262868
0.078431 0.526348 0.289216
0.078431 0.526348 0.315564
0.078431 0.526348 0.341912
0.078431 0.526348 0.368260
0.078431 0.526348 0.394608
0.078431 0.526348 0.420956
0.078431 0.526348 0.447304
0.078431 0.526348 0.473652
0.078431 0.526348 0.500000
0.078431 0.526348 0.526348
0.078431 0.526348 0.552696
0.078431 0.526348 0.579044
0.078431 0.526348 0.605392
0.078431 0.526348 0.631740
0.078431 0.526348 0.658088
0.078431 0.526348 0.684436
0.078431 0.526348 0.710784
0.078431 0.526348 0.737132
0.078431 0.526348 0.763480
0.078431 0.526348 0.789828
0.078431 0.526348 0.816176
0.078431 0.526348 0.842525
0.078431 0.526348 0.868873
0.078431 0.526348 0.895221
0.078431 0.526348 0.921569
0.078431 0.552696 0.078431
0.078431 0.552696 0.104779
0.078431 0.552696 0.131127
0.078431 0.552696 0.157475
0.078431 0.552696 0.183824
0.078431 0.552696 0.210172
0.078431 0.552696 0.236520
0.078431 0.552696 0.262868
0.078431 0.552696 0.289216
0.078431 0.552696 0.315564
0.078431 0.552696 0.341912
0.078431 0.552696 0.368260
0.078431 0.552696 0.394608
0.078431 0.552696 0.420956
0.078431 0.552696 0.447304
0.078431 0.552696 0.473652
0.078431 0.552696 0.500000
0.078431 0.552696 0.526348
0.078431 0.552696 0.552696
0.078431 0.552696 0.579044
0.078431 0.552696 0.605392
0.078431 0.552696 0.631740
0.078431 0.552696 0.658088
0.078431 0.552696 0.684436
0.078431 0.552696 0.710784
0.078431 0.552696 0.737132
0.078431 0.552696 0.763480
0.078431 0.552696 0.789828
0.078431 0.552696 0.816176
0.078431 0.552696 0.842525
0.078431 0.552696 0.868873
0.078431 0.552696 0.895221
0.078431 0.552696 0.921569
0.078431 0.579044 0.078431
0.078431 0.579044 0.104779
0.078431 0.579044 0.131127
0.078431 0.579044 0.157475
0.078431 0.579044 0.183824
0.078431 0.579044 0.210172
0.078431 0.579044 0.236520
0.078431 0.579044 0.262868
0.078431 0.579044 0.289216
0.078431 0.579044 0.315564
0.078431 0.579044 0.341912
0.078431 0.579044 0.368260
0.078431 0.579044 0.394608
0.078431 0.579044 0.420956
0.078431 0.579044 0.447304
0.078431 0.579044 0.473652
0.078431 0.579044 0.500000
0.078431 0.579044 0.526348
0.078431 0.579044 0.552696
0.078431 0.579044 0.579044
0.078431 0.579044 0.605392
0.078431 0.579044 0.631740
0.078431 0.579044 0.658088
0.078431 0.579044 0.684436
0.078431 0.579044 0.710784
0.078431 0.579044 0.737132
0.078431 0.579044 0.763480
0.078431 0.579044 0.789828
0.078431 0.579044 0.816176
0.078431 0.579044 0.842525
0.078431 0.579044 0.868873
0.078431 0.579044 0.895221
0.078431 0.579044 0.921569
0.078431 0.605392 0.078431
0.078431 0.605392 0.104779
0.078431 0.605392 0.131127
0.078431 0.605392 0.157475
0.078431 0.605392 0.183824
0.078431 0.605392 0.210172
0.078431 0.605392 0.236520
0.078431 0.605392 0.262868
0.078431 0.605392 0.289216
0.078431 0.605392 0.315564
0.078431 0.605392 0.341912
0.078431 0.605392 0.368260
0.078431 0.605392 0.394608
0.078431 0.605392 0.420956
0.078431 0.605392 0.447304
0.078431 0.605392 0.473652
0.078431 0.605392 0.500000
0.078431 0.605392 0.526348
0.078431 0.605392 0.552696
0.078431 0.605392 0.579044
0.078431 0.605392 0.605392
0.078431 0.605392 0.631740
0.078431 0.605392 0.658088
0.078431 0.605392 0.684436
0.078431 0.605392 0.710784
0.078431 0.605392 0.737132
0.078431 0.605392 0.763480
0.078431 0.605392 0.789828
0.078431 0.605392 0.816176
0.078431 0.605392 0.842525
0.078431 0.605392 0.868873
0.078431 0.605392 0.895221
0.078431 0.605392 0.921569
0.078431 0.631740 0.078431
0.078431 0.631740 0.104779
0.078431 0.631740 0.131127
0.078431 0.631740 0.157475
0.078431 0.631740 0.183824
0.078431 0.631740 0.210172
0.078431 0.631740 0.236520
0.078431 0.631740 0.262868
0.078431 0.631740 0.289216
0.078431 0.631740 0.315564
0.078431 0.631740 0.341912
0.078431 0.631740 0.368260
0.078431 0.631740 0.394608
0.078431 0.631740 0.420956
0.078431 0.631740 0.447304
0.078431 0.631740 0.473652
0.078431 0.631740 0.500000
0.078431 0.631740 0.526348
0.078431 0.631740 0.552696
0.078431 0.631740 0.579044
0.078431 0.631740 0.605392
0.078431 0.631740 0.631740
0.078431 0.631740 0.658088
0.078431 0.631740 0.684436
0.078431 0.631740 0.710784
0.078431 0.631740 0.737132
0.078431 0.631740 0.763480
0.078431 0.631740 0.789828
0.078431 0.631740 0.816176
0.078431 0.631740 0.842525
0.078431 0.631740 0.868873
0.078431 0.631740 0.895221
0.078431 0.631740 0.921569
0.078431 0.658088 0.078431
0.078431 0.658088 0.104779
0.078431 0.658088 0.131127
0.078431 0.658088 0.157475
0.078431 0.658088 0.183824
0.078431 0.658088 0.210172
0.078431 0.658088 0.236520
0.078431 0.658088 0.262868
0.078431 0.658088 0.289216
0.078431 0.658088 0.315564
0.078431 0.658088 0.341912
0.078431 0.658088 0.368260
0.078431 0.658088 0.394608
0.078431 0.658088 0.420956
0.078431 0.658088 0.447304
0.078431 0.658088 0.473652
0.078431 0.658088 0.500000
0.078431 0.658088 0.526348
0.078431 0.658088 0.552696
0.078431 0.658088 0.579044
0.078431 0.658088 0.605392
0.078431 0.658088 0.631740
0.078431 0.658088 0.658088
0.078431 0.658088 0.684436
0.078431 0.658088 0.710784
0.078431 0.658088 0.737132
0.078431 0.658088 0.763480
0.078431 0.658088 0.789828
0.078431 0.658088 0.816176
0.078431 0.658088 0.842525
0.078431 0.658088 0.868873
0.078431 0.658088 0.895221
0.078431 0.658088 0.921569
0.078431 0.684436 0.078431
0.078431 0.684436 0.104779
0.078431 0.684436 0.131127
0.078431 0.684436 0.157475
0.078431 0.684436 0.183824
0.078431 0.684436 0.210172
0.078431 0.684436 0.236520
0.078431 0.684436 0.262868
0.078431 0.684436 0.289216
0.078431 0.684436 0.315564
0.078431 0.684436 0.341912
0.078431 0.684436 0.368260
0.078431 0.684436 0.394608
0.078431 0.684436 0.420956
0.078431 0.684436 0.447304
0.078431 0.684436 0.473652
0.078431 0.684436 0.500000
0.078431 0.684436 0.526348
0.078431 0.684436 0.552696
0.078431 0.684436 0.579044
0.078431 0.684436 0.605392
0.078431 0.684436 0.631740
0.078431 0.684436 0.658088
0.078431 0.684436 0.684436
0.078431 0.684436 0.710784
0.078431 0.684436 0.737132
0.078431 0.684436 0.763480
0.078431 0.684436 0.789828
0.078431 0.684436 0.816176
0.078431 0.684436 0.842525
0.078431 0.684436 0.868873
0.078431 0.684436 0.895221
0.078431 0.684436 0.921569
0.078431 0.710784 0.078431
0.078431 0.710784 0.104779
0.078431 0.710784 0.131127
0.078431 0.710784 0.157475
0.078431 0.710784 0.183824
0.078431 0.710784 0.210172
0.078431 0.710784 0.236520
0.078431 0.710784 0.262868
0.078431 0.710784 0.289216
0.078431 0.710784 0.315564
0.078431 0.710784 0.341912
0.078431 0.710784 0.368260
0.078431 0.710784 0.394608
0.078431 0.710784 0.420956
0.078431 0.710784 0.447304
0.078431 0.710784 0.473652
0.078431 0.710784 0.500000
0.078431 0.710784 0.526348
0.078431 0.710784 0.552696
0.078431 0.710784 0.579044
0.078431 0.710784 0.605392
0.078431 0.710784 0.631740
0.078431 0.710784 0.658088
0.078431 0.710784 0.684436
0.078431 0.710784 0.710784
0.078431 0.710784 0.737132
0.078431 0.710784 0.763480
0.078431 0.710784 0.789828
0.078431 0.710784 0.816176
0.078431 0.710784 0.842525
0.078431 0.710784 0.868873
0.078431 0.710784 0.895221
0.078431 0.710784 0.921569
0.078431 0.737132 0.078431
0.078431 0.737132 0.104779
0.078431 0.737132 0.131127
0.078431 0.737132 0.157475
0.078431 0.737132 0.183824
0.078431 0.737132 0.210172
0.078431 0.737132 0.236520
0.078431 0.737132 0.262868
0.078431 0.737132 0.289216
0.078431 0.737132 0.315564
0.078431 0.737132 0.341912
0.078431 0.737132 0.368260
0.078431 0.737132 0.394608
0.078431 0.737132 0.420956
0.078431 0.737132 0.447304
0.078431 0.737132 0.473652
0.078431 0.737132 0.500000
0.078431 0.737132 0.526348
0.078431 0.737132 0.552696
0.078431 0.737132 0.579044
0.078431 0.737132 0.605392
0.078431 0.737132 0.631740
0.078431 0.737132 0.658088
0.078431 0.737132 0.684436
0.078431 0.737132 0.710784
0.078431 0.737132 0.737132
0.078431 0.737132 0.763480
0.078431 0.737132 0.789828
0.078431 0.737132 0.816176
0.078431 0.737132 0.842525
0.078431 0.737132 0.868873
0.078431 0.737132 0.895221
0.078431 0.737132 0.921569
0.078431 0.763480 0.078431
0.078431 0.763480 0.104779
0.078431 0.763480 0.131127
0.078431 0.763480 0.157475
0.078431 0.763480 0.183824
0.078431 0.763480 0.210172
0.078431 0.763480 0.236520
0.078431 0.763480 0.262868
0.078431 0.763480 0.289216
0.078431 0.763480 0.315564
0.078431 0.763480 0.341912
0.078431 0.763480 0.368260
0.078431 0.763480 0.394608
0.078431 0.763480 0.420956
0.078431 0.763480 0.447304
0.078431 0.763480 0.473652
0.078431 0.763480 0.500000
0.078431 0.763480 0.526348
0.078431 0.763480 0.552696
0.078431 0.763480 0.579044
0.078431 0.763480 0.605392
0.078431 0.763480 0.631740
0.078431 0.763480 0.658088
0.078431 0.763480 0.684436
0.078431 0.763480 0.710784
0.078431 0.763480 0.737132
0.078431 0.763480 0.763480
0.078431 0.763480 0.789828
0.078431 0.763480 0.816176
