camera/src/main/assets/lut_warm.cube
# SPECTRA Warm
LUT_3D_SIZE 5
0.031373 0.000000 0.000000
0.031373 0.000000 0.187347
0.031373 0.000000 0.460784
0.031373 0.000000 0.734222
0.031373 0.000000 0.960784
0.031373 0.226562 0.000000
0.031373 0.226562 0.187347
0.031373 0.226562 0.460784
0.031373 0.226562 0.734222
0.031373 0.226562 0.960784
0.031373 0.500000 0.000000
0.031373 0.500000 0.187347
0.031373 0.500000 0.460784
0.031373 0.500000 0.734222
0.031373 0.500000 0.960784
0.031373 0.773438 0.000000
0.031373 0.773438 0.187347
0.031373 0.773438 0.460784
0.031373 0.773438 0.734222
0.031373 0.773438 0.960784
0.031373 1.000000 0.000000
0.031373 1.000000 0.187347
0.031373 1.000000 0.460784
0.031373 1.000000 0.734222
0.031373 1.000000 0.960784
0.257935 0.000000 0.000000
0.257935 0.000000 0.187347
0.257935 0.000000 0.460784
0.257935 0.000000 0.734222
0.257935 0.000000 0.960784
0.257935 0.226562 0.000000
0.257935 0.226562 0.187347
0.257935 0.226562 0.460784
0.257935 0.226562 0.734222
0.257935 0.226562 0.960784
0.257935 0.500000 0.000000
0.257935 0.500000 0.187347
0.257935 0.500000 0.460784
0.257935 0.500000 0.734222
0.257935 0.500000 0.960784
0.257935 0.773438 0.000000
0.257935 0.773438 0.187347
0.257935 0.773438 0.460784
0.257935 0.773438 0.734222
0.257935 0.773438 0.960784
0.257935 1.000000 0.000000
0.257935 1.000000 0.187347
0.257935 1.000000 0.460784
0.257935 1.000000 0.734222
0.257935 1.000000 0.960784
0.531373 0.000000 0.000000
0.531373 0.000000 0.187347
0.531373 0.000000 0.460784
0.531373 0.000000 0.734222
0.531373 0.000000 0.960784
0.531373 0.226562 0.000000
0.531373 0.226562 0.187347
0.531373 0.226562 0.460784
0.531373 0.226562 0.734222
0.531373 0.226562 0.960784
0.531373 0.500000 0.000000
0.531373 0.500000 0.187347
0.531373 0.500000 0.460784
0.531373 0.500000 0.734222
0.531373 0.500000 0.960784
0.531373 0.773438 0.000000
0.531373 0.773438 0.187347
0.531373 0.773438 0.460784
0.531373 0.773438 0.734222
0.531373 0.773438 0.960784
0.531373 1.000000 0.000000
0.531373 1.000000 0.187347
0.531373 1.000000 0.460784
0.531373 1.000000 0.734222
0.531373 1.000000 0.960784
0.804810 0.000000 0.000000
0.804810 0.000000 0.187347
0.804810 0.000000 0.460784
0.804810 0.000000 0.734222
0.804810 0.000000 0.960784
0.804810 0.226562 0.000000
0.804810 0.226562 0.187347
0.804810 0.226562 0.460784
0.804810 0.226562 0.734222
0.804810 0.226562 0.960784
0.804810 0.500000 0.000000
0.804810 0.500000 0.187347
0.804810 0.500000 0.460784
0.804810 0.500000 0.734222
0.804810 0.500000 0.960784
0.804810 0.773438 0.000000
0.804810 0.773438 0.187347
0.804810 0.773438 0.460784
0.804810 0.773438 0.734222
0.804810 0.773438 0.960784
0.804810 1.000000 0.000000
0.804810 1.000000 0.187347
0.804810 1.000000 0.460784
0.804810 1.000000 0.734222
0.804810 1.000000 0.960784
1.000000 0.000000 0.000000
1.000000 0.000000 0.187347
1.000000 0.000000 0.460784
1.000000 0.000000 0.734222
1.000000 0.000000 0.960784
1.000000 0.226562 0.000000
1.000000 0.226562 0.187347
1.000000 0.226562 0.460784
1.000000 0.226562 0.734222
1.000000 0.226562 0.960784
1.000000 0.500000 0.000000
1.000000 0.500000 0.187347
1.000000 0.500000 0.460784
1.000000 0.500000 0.734222
1.000000 0.500000 0.960784
1.000000 0.773438 0.000000
1.000000 0.773438 0.187347
1.000000 0.773438 0.460784
1.000000 0.773438 0.734222
1.000000 0.773438 0.960784
1.000000 1.000000 0.000000
1.000000 1.000000 0.187347
1.000000 1.000000 0.460784
1.000000 1.000000 0.734222
1.000000 1.000000 0.960784
