camera/src/main/assets/lut_vivid.cube
# SPECTRA Vivid
LUT_3D_SIZE 5
0.011765 0.000000 0.000000
0.011031 0.000000 0.223551
0.009960 0.000000 0.561742
0.008888 0.000000 0.899933
0.008155 0.000000 1.000000
0.004501 0.211803 0.000000
0.003768 0.209603 0.201760
0.002696 0.206388 0.539951
0.001624 0.203172 0.878142
0.000891 0.200972 1.000000
0.000000 0.521360 0.000000
0.000000 0.519160 0.169911
0.000000 0.515945 0.508102
0.000000 0.512730 0.846293
0.000000 0.510530 1.000000
0.000000 0.830917 0.000000
0.000000 0.828718 0.138062
0.000000 0.825503 0.476253
0.000000 0.822287 0.814444
0.000000 0.820087 1.000000
0.000000 1.000000 0.000000
0.000000 1.000000 0.116271
0.000000 1.000000 0.454462
0.000000 1.000000 0.792653
0.000000 1.000000 1.000000
0.214890 0.000000 0.000000
0.214890 0.000000 0.195282
0.214890 0.000000 0.492157
0.214890 0.000000 0.789032
0.214890 0.000000 0.992157
0.215623 0.205325 0.000000
0.214890 0.203125 0.195282
0.213818 0.199910 0.533473
0.212746 0.196695 0.871664
0.212013 0.194495 1.000000
0.205007 0.514882 0.000000
0.204273 0.512683 0.163433
0.203202 0.509467 0.501624
0.202130 0.506252 0.839815
0.201397 0.504052 1.000000
0.194390 0.824440 0.000000
0.193657 0.822240 0.131584
0.192585 0.819025 0.469775
0.191514 0.815810 0.807967
0.190780 0.813610 1.000000
0.187127 1.000000 0.000000
0.186393 1.000000 0.109793
0.185322 1.000000 0.447984
0.184250 1.000000 0.786175
0.183517 1.000000 1.000000
0.511765 0.000000 0.000000
0.511765 0.000000 0.195282
0.511765 0.000000 0.492157
0.511765 0.000000 0.789032
0.511765 0.000000 0.992157
0.511765 0.203125 0.000000
0.511765 0.203125 0.195282
0.511765 0.203125 0.492157
0.511765 0.203125 0.789032
0.511765 0.203125 0.992157
0.511765 0.500000 0.000000
0.511765 0.500000 0.195282
0.511765 0.500000 0.492157
0.510693 0.496785 0.830348
0.509960 0.494585 1.000000
0.502953 0.814972 0.000000
0.502220 0.812773 0.122117
0.501148 0.809558 0.460308
0.500077 0.806342 0.798499
0.499343 0.804142 1.000000
0.495690 1.000000 0.000000
0.494956 1.000000 0.100326
0.493885 1.000000 0.438517
0.492813 1.000000 0.776708
0.492080 1.000000 1.000000
0.808640 0.000000 0.000000
0.808640 0.000000 0.195282
0.808640 0.000000 0.492157
0.808640 0.000000 0.789032
0.808640 0.000000 0.992157
0.808640 0.203125 0.000000
0.808640 0.203125 0.195282
0.808640 0.203125 0.492157
0.808640 0.203125 0.789032
0.808640 0.203125 0.992157
0.808640 0.500000 0.000000
0.808640 0.500000 0.195282
0.808640 0.500000 0.492157
0.808640 0.500000 0.789032
0.808640 0.500000 0.992157
0.808640 0.796875 0.000000
0.808640 0.796875 0.195282
0.808640 0.796875 0.492157
0.808640 0.796875 0.789032
0.807906 0.794675 1.000000
0.804253 1.000000 0.000000
0.803519 1.000000 0.090858
0.802448 1.000000 0.429050
0.801376 1.000000 0.767241
0.800643 1.000000 0.998635
1.000000 0.000000 0.000000
1.000000 0.000000 0.195282
1.000000 0.000000 0.492157
1.000000 0.000000 0.789032
1.000000 0.000000 0.992157
1.000000 0.203125 0.000000
1.000000 0.203125 0.195282
1.000000 0.203125 0.492157
1.000000 0.203125 0.789032
1.000000 0.203125 0.992157
1.000000 0.500000 0.000000
1.000000 0.500000 0.195282
1.000000 0.500000 0.492157
1.000000 0.500000 0.789032
1.000000 0.500000 0.992157
1.000000 0.796875 0.000000
1.000000 0.796875 0.195282
1.000000 0.796875 0.492157
1.000000 0.796875 0.789032
1.000000 0.796875 0.992157
1.000000 1.000000 0.000000
1.000000 1.000000 0.195282
1.000000 1.000000 0.492157
1.000000 1.000000 0.760763
1.000000 1.000000 0.992157
